(.../pcb-gcode-3.6.0.4/pcb-gcode.ulp)
(Copyright 2005 - 2012 by John Johnson)
(See readme.txt for licensing terms.)
(This file generated from the board:)
(.../ZXUNO celes 1.7/ZXUNO celes 1.7.brd)
(Current profile is .../pcb-gcode-3.6.0.4/profiles/mach.pp  )
(This file generated 29/12/2014 19:35:57)
(Settings from pcb-machine.h)
(  Tool Size)
(0.2000  )
(Z Axis Settings)
(  High     Up        Down     Drill)
(12.7000 	1.0000  	-0.0500 	-2.5000 )
(spindle on time = 0.5000)
(milling depth = -1.5000)
(text depth = -0.0250)
(tool change at 0.0000  0.0000  30.0000 )
(feed rate xy = F128   )
(feed rate z  = F64    )
(Settings from pcb-defaults.h)
(isolate min = 0.0000)
(isolate max = 0.5000)
(isolate step = 0.1200)
(Generated top outlines, top drill, bottom outlines, bottom drill, )
(Unit of measure: mm)
(Metric Mode)
G21
(Absolute Coordinates)
G90
G00 X0.0000  Y0.0000  
M03
G04 P0.500000
G00 Z1.0000  
G00 X29.5580 Y33.3562 
G01 Z-0.0500 F64    
G01 X29.6339 Y33.2248 F128   
G01 X29.6366 Y33.2183 
G01 X29.5739 Y33.2183 
G01 X29.5373 Y33.2901 
G01 X29.4352 Y33.4306 
G01 X29.3124 Y33.5534 
G01 X29.1719 Y33.6555 
G01 X29.1001 Y33.6921 
G01 X29.1001 Y33.7729 
G01 X29.1407 Y33.7324 
G01 X29.1922 Y33.7026 
G01 X29.2381 Y33.6761 
G01 X29.3584 Y33.5838 
G01 X29.4657 Y33.4765 
G01 X29.5580 Y33.3562 
G00 Z1.0000  
G00 X4.2587  Y46.2772 
G01 Z-0.0500 F64    
G01 X3.0972  Y47.4387 F128   
G01 X3.0972  Y49.0813 
G01 X4.2587  Y50.2428 
G01 X5.9013  Y50.2428 
G01 X7.0628  Y49.0813 
G01 X7.0628  Y47.4387 
G01 X5.9013  Y46.2772 
G01 X4.2587  Y46.2772 
G00 Z1.0000  
G00 X6.4500  Y47.6925 
G01 Z-0.0500 F64    
G01 X6.4500  Y48.8275 F128   
G01 X5.6475  Y49.6300 
G01 X4.5125  Y49.6300 
G01 X3.7100  Y48.8275 
G01 X3.7100  Y47.6925 
G01 X4.5125  Y46.8900 
G01 X5.6475  Y46.8900 
G01 X6.4500  Y47.6925 
G00 Z1.0000  
G00 X121.2580 Y67.7218 
G01 Z-0.0500 F64    
G01 X121.2835 Y67.7071 F128   
G01 X121.3689 Y67.6577 
G01 X121.4977 Y67.6232 
G01 X121.6311 Y67.6232 
G01 X121.6986 Y67.6413 
G01 X121.7599 Y67.6577 
G01 X121.8753 Y67.7244 
G01 X121.9682 Y67.8172 
G01 X121.9869 Y67.8487 
G01 X122.0363 Y67.9341 
G01 X122.0708 Y68.0629 
G01 X122.0795 Y68.0954 
G01 X122.3907 Y68.6344 
G01 X122.8308 Y69.0745 
G01 X123.3698 Y69.3857 
G01 X123.9710 Y69.5468 
G01 X124.5934 Y69.5468 
G01 X125.1946 Y69.3857 
G01 X125.7336 Y69.0745 
G01 X126.1737 Y68.6344 
G01 X126.4849 Y68.0954 
G01 X126.6460 Y67.4942 
G01 X126.6460 Y66.8718 
G01 X126.4849 Y66.2706 
G01 X126.1737 Y65.7316 
G01 X125.7336 Y65.2915 
G01 X125.1946 Y64.9803 
G01 X124.5934 Y64.8192 
G01 X123.9710 Y64.8192 
G01 X123.3698 Y64.9803 
G01 X123.0760 Y65.1499 
G01 X122.9472 Y65.1844 
G01 X122.8339 Y65.1844 
G01 X122.8318 Y65.1998 
G01 X122.8190 Y65.2308 
G01 X122.8104 Y65.2631 
G01 X122.7936 Y65.2921 
G01 X122.7808 Y65.3230 
G01 X122.7604 Y65.3496 
G01 X122.7437 Y65.3786 
G01 X122.7200 Y65.4023 
G01 X122.6996 Y65.4288 
G01 X122.6731 Y65.4492 
G01 X122.3907 Y65.7316 
G01 X122.0795 Y66.2706 
G01 X122.0161 Y66.5070 
G01 X122.0118 Y66.5402 
G01 X121.9990 Y66.5711 
G01 X121.9903 Y66.6035 
G01 X121.9735 Y66.6325 
G01 X121.9607 Y66.6634 
G01 X121.9404 Y66.6900 
G01 X121.9236 Y66.7190 
G01 X121.9000 Y66.7426 
G01 X121.8796 Y66.7692 
G01 X121.8530 Y66.7896 
G01 X121.8293 Y66.8132 
G01 X121.8003 Y66.8300 
G01 X121.7738 Y66.8504 
G01 X121.7429 Y66.8632 
G01 X121.7139 Y66.8799 
G01 X121.6815 Y66.8886 
G01 X121.6506 Y66.9014 
G01 X121.6174 Y66.9058 
G01 X121.5851 Y66.9144 
G01 X121.5516 Y66.9144 
G01 X121.5184 Y66.9188 
G01 X121.4852 Y66.9144 
G01 X121.4517 Y66.9144 
G01 X121.4194 Y66.9058 
G01 X121.3862 Y66.9014 
G01 X121.3553 Y66.8886 
G01 X121.3229 Y66.8799 
G01 X121.2939 Y66.8632 
G01 X121.2630 Y66.8504 
G01 X121.2580 Y66.8465 
G01 X121.2580 Y67.7218 
G00 Z1.0000  
G00 X16.6386 Y8.0310  
G01 Z-0.0500 F64    
G01 X16.6386 Y8.0040  F128   
G01 X16.6364 Y7.9900  
G01 X16.3751 Y7.9900  
G01 X16.3384 Y7.9748  
G01 X16.2659 Y7.9740  
G01 X16.2754 Y7.9882  
G01 X16.2968 Y8.0096  
G01 X16.3221 Y8.0265  
G01 X16.3501 Y8.0381  
G01 X16.3798 Y8.0440  
G01 X16.6421 Y8.0440  
G01 X16.6386 Y8.0310  
G00 Z1.0000  
G00 X16.2950 Y6.3701  
G01 Z-0.0500 F64    
G01 X16.3102 Y6.3334  F128   
G01 X16.3384 Y6.3052  
G01 X16.3751 Y6.2900  
G01 X16.6386 Y6.2900  
G01 X16.6386 Y6.2360  
G01 X16.3798 Y6.2360  
G01 X16.3501 Y6.2419  
G01 X16.3221 Y6.2535  
G01 X16.2968 Y6.2704  
G01 X16.2754 Y6.2918  
G01 X16.2585 Y6.3171  
G01 X16.2469 Y6.3451  
G01 X16.2410 Y6.3748  
G01 X16.2410 Y6.6336  
G01 X16.2950 Y6.6336  
G01 X16.2950 Y6.3701  
G00 Z1.0000  
G00 X16.6260 Y4.1902  
G01 Z-0.0500 F64    
G01 X16.6319 Y4.2199  F128   
G01 X16.6435 Y4.2479  
G01 X16.6604 Y4.2732  
G01 X16.6640 Y4.2768  
G01 X16.6640 Y3.7750  
G01 X16.6260 Y3.7750  
G01 X16.6260 Y4.1902  
G00 Z1.0000  
G00 X18.0315 Y6.3171  
G01 Z-0.0500 F64    
G01 X18.0146 Y6.2918  F128   
G01 X17.9932 Y6.2704  
G01 X17.9679 Y6.2535  
G01 X17.9399 Y6.2419  
G01 X17.9102 Y6.2360  
G01 X17.6514 Y6.2360  
G01 X17.6514 Y6.2900  
G01 X17.9149 Y6.2900  
G01 X17.9516 Y6.3052  
G01 X17.9798 Y6.3334  
G01 X17.9950 Y6.3701  
G01 X17.9950 Y6.7580  
G01 X18.0490 Y6.7580  
G01 X18.0490 Y6.3748  
G01 X18.0431 Y6.3451  
G01 X18.0315 Y6.3171  
G00 Z1.0000  
G00 X1.9634  Y57.7209 
G01 Z-0.0500 F64    
G01 X2.0397  Y57.9392 F128   
G01 X2.1401  Y58.1475 
G01 X2.2631  Y58.3434 
G01 X2.4073  Y58.5242 
G01 X2.5708  Y58.6877 
G01 X2.7516  Y58.8319 
G01 X2.9474  Y58.9549 
G01 X3.1558  Y59.0553 
G01 X3.3741  Y59.1316 
G01 X3.4895  Y59.1580 
G01 X3.5323  Y59.1151 
G01 X3.2991  Y59.0527 
G01 X3.0563  Y58.9521 
G01 X2.8287  Y58.8207 
G01 X2.6202  Y58.6607 
G01 X2.4343  Y58.4748 
G01 X2.2743  Y58.2663 
G01 X2.1429  Y58.0387 
G01 X2.0423  Y57.7959 
G01 X1.9782  Y57.5564 
G01 X1.9355  Y57.5990 
G01 X1.9634  Y57.7209 
G00 Z1.0000  
G00 X48.5584 Y27.5791 
G01 Z-0.0500 F64    
G01 X48.5753 Y27.5538 F128   
G01 X48.5869 Y27.5258 
G01 X48.5928 Y27.4961 
G01 X48.5928 Y27.3373 
G01 X48.5388 Y27.3373 
G01 X48.5388 Y27.5008 
G01 X48.5236 Y27.5376 
G01 X48.4955 Y27.5657 
G01 X48.4587 Y27.5809 
G01 X48.1952 Y27.5809 
G01 X48.1952 Y27.6349 
G01 X48.4540 Y27.6349 
G01 X48.4837 Y27.6290 
G01 X48.5118 Y27.6174 
G01 X48.5370 Y27.6005 
G01 X48.5584 Y27.5791 
G00 Z1.0000  
G00 X42.3339 Y9.3389  
G01 Z-0.0500 F64    
G01 X42.3271 Y9.3272  F128   
G01 X42.3271 Y9.3272  
G01 X42.2928 Y9.2678  
G01 X42.2605 Y9.2117  
G01 X42.2481 Y9.1658  
G01 X42.2259 Y9.0829  
G01 X42.2259 Y8.9496  
G01 X42.2605 Y8.8208  
G01 X42.3271 Y8.7053  
G01 X42.3959 Y8.6365  
G01 X42.4214 Y8.6111  
G01 X42.7485 Y8.2839  
G01 X43.0098 Y7.6532  
G01 X43.0098 Y6.9705  
G01 X42.7485 Y6.3397  
G01 X42.6048 Y6.1960  
G01 X40.7866 Y6.1960  
G01 X39.5776 Y7.4050  
G01 X39.5776 Y7.5810  
G01 X40.8409 Y8.8443  
G01 X40.8702 Y8.8294  
G01 X41.0353 Y8.7757  
G01 X41.2069 Y8.7485  
G01 X41.3805 Y8.7485  
G01 X41.5520 Y8.7757  
G01 X41.7172 Y8.8294  
G01 X41.8719 Y8.9082  
G01 X42.0124 Y9.0103  
G01 X42.1352 Y9.1331  
G01 X42.2373 Y9.2736  
G01 X42.2739 Y9.3454  
G01 X42.3366 Y9.3454  
G01 X42.3339 Y9.3389  
G00 Z1.0000  
G00 X42.3970 Y7.2250  
G01 Z-0.0500 F64    
G01 X42.3970 Y7.3987  F128   
G01 X42.3698 Y7.5702  
G01 X42.3162 Y7.7354  
G01 X42.2373 Y7.8901  
G01 X42.1352 Y8.0306  
G01 X42.0124 Y8.1534  
G01 X41.8719 Y8.2555  
G01 X41.7172 Y8.3343  
G01 X41.5520 Y8.3880  
G01 X41.3805 Y8.4151  
G01 X41.2069 Y8.4151  
G01 X41.0353 Y8.3880  
G01 X40.8702 Y8.3343  
G01 X40.7154 Y8.2555  
G01 X40.5749 Y8.1534  
G01 X40.4521 Y8.0306  
G01 X40.3501 Y7.8901  
G01 X40.2712 Y7.7354  
G01 X40.2176 Y7.5702  
G01 X40.1904 Y7.3987  
G01 X40.1904 Y7.2250  
G01 X40.2176 Y7.0535  
G01 X40.2712 Y6.8883  
G01 X40.3501 Y6.7336  
G01 X40.4521 Y6.5931  
G01 X40.5749 Y6.4703  
G01 X40.7154 Y6.3682  
G01 X40.8702 Y6.2894  
G01 X41.0353 Y6.2357  
G01 X41.2069 Y6.2085  
G01 X41.3805 Y6.2085  
G01 X41.5520 Y6.2357  
G01 X41.7172 Y6.2894  
G01 X41.8719 Y6.3682  
G01 X42.0124 Y6.4703  
G01 X42.1352 Y6.5931  
G01 X42.2373 Y6.7336  
G01 X42.3162 Y6.8883  
G01 X42.3698 Y7.0535  
G01 X42.3970 Y7.2250  
G00 Z1.0000  
G00 X45.0626 Y6.1960  
G01 Z-0.0500 F64    
G01 X44.9188 Y6.3397  F128   
G01 X44.6576 Y6.9705  
G01 X44.6576 Y7.6532  
G01 X44.9188 Y8.2839  
G01 X45.4016 Y8.7667  
G01 X46.0323 Y9.0279  
G01 X46.7150 Y9.0279  
G01 X47.3458 Y8.7667  
G01 X47.8285 Y8.2839  
G01 X48.0898 Y7.6532  
G01 X48.0898 Y6.9705  
G01 X47.8285 Y6.3397  
G01 X47.6848 Y6.1960  
G01 X45.0626 Y6.1960  
G00 Z1.0000  
G00 X47.4770 Y7.2250  
G01 Z-0.0500 F64    
G01 X47.4770 Y7.3987  F128   
G01 X47.4498 Y7.5702  
G01 X47.3962 Y7.7354  
G01 X47.3173 Y7.8901  
G01 X47.2152 Y8.0306  
G01 X47.0924 Y8.1534  
G01 X46.9519 Y8.2555  
G01 X46.7972 Y8.3343  
G01 X46.6320 Y8.3880  
G01 X46.4605 Y8.4151  
G01 X46.2869 Y8.4151  
G01 X46.1153 Y8.3880  
G01 X45.9502 Y8.3343  
G01 X45.7954 Y8.2555  
G01 X45.6549 Y8.1534  
G01 X45.5321 Y8.0306  
G01 X45.4301 Y7.8901  
G01 X45.3512 Y7.7354  
G01 X45.2976 Y7.5702  
G01 X45.2704 Y7.3987  
G01 X45.2704 Y7.2250  
G01 X45.2976 Y7.0535  
G01 X45.3512 Y6.8883  
G01 X45.4301 Y6.7336  
G01 X45.5321 Y6.5931  
G01 X45.6549 Y6.4703  
G01 X45.7954 Y6.3682  
G01 X45.9502 Y6.2894  
G01 X46.1153 Y6.2357  
G01 X46.2869 Y6.2085  
G01 X46.4605 Y6.2085  
G01 X46.6320 Y6.2357  
G01 X46.7972 Y6.2894  
G01 X46.9519 Y6.3682  
G01 X47.0924 Y6.4703  
G01 X47.2152 Y6.5931  
G01 X47.3173 Y6.7336  
G01 X47.3962 Y6.8883  
G01 X47.4498 Y7.0535  
G01 X47.4770 Y7.2250  
G00 Z1.0000  
G00 X126.4428 Y34.1644 
G01 Z-0.0500 F64    
G01 X126.4428 Y24.3566 F128   
G01 X126.3129 Y24.3824 
G01 X126.1631 Y24.3824 
G01 X126.0162 Y24.3532 
G01 X125.8778 Y24.2959 
G01 X125.7533 Y24.2126 
G01 X125.6474 Y24.1067 
G01 X125.5641 Y23.9822 
G01 X125.5068 Y23.8438 
G01 X125.4776 Y23.6969 
G01 X125.4776 Y23.5471 
G01 X125.5068 Y23.4002 
G01 X125.5641 Y23.2618 
G01 X125.6474 Y23.1373 
G01 X125.7533 Y23.0314 
G01 X125.8778 Y22.9481 
G01 X126.0162 Y22.8908 
G01 X126.1631 Y22.8616 
G01 X126.3129 Y22.8616 
G01 X126.4598 Y22.8908 
G01 X126.5982 Y22.9481 
G01 X126.7227 Y23.0314 
G01 X126.8286 Y23.1373 
G01 X126.9119 Y23.2618 
G01 X126.9692 Y23.4002 
G01 X126.9984 Y23.5471 
G01 X126.9984 Y23.6969 
G01 X126.9692 Y23.8438 
G01 X126.9456 Y23.9008 
G01 X126.9886 Y23.9438 
G01 X127.0285 Y24.0130 
G01 X127.0492 Y24.0901 
G01 X127.0492 Y34.3299 
G01 X127.0285 Y34.4070 
G01 X126.9886 Y34.4762 
G01 X126.9322 Y34.5326 
G01 X126.1089 Y35.3558 
G01 X126.1094 Y35.5079 
G01 X126.0802 Y35.6548 
G01 X126.0229 Y35.7932 
G01 X125.9396 Y35.9177 
G01 X125.8337 Y36.0236 
G01 X125.7092 Y36.1069 
G01 X125.5708 Y36.1642 
G01 X125.4239 Y36.1934 
G01 X125.2741 Y36.1934 
G01 X125.1272 Y36.1642 
G01 X124.9888 Y36.1069 
G01 X124.8643 Y36.0236 
G01 X124.7584 Y35.9177 
G01 X124.6751 Y35.7932 
G01 X124.6178 Y35.6548 
G01 X124.5886 Y35.5079 
G01 X124.5886 Y35.3581 
G01 X124.6178 Y35.2112 
G01 X124.6751 Y35.0728 
G01 X124.7584 Y34.9483 
G01 X124.8643 Y34.8424 
G01 X124.9888 Y34.7591 
G01 X125.1272 Y34.7018 
G01 X125.2741 Y34.6726 
G01 X125.4239 Y34.6726 
G01 X125.5708 Y34.7018 
G01 X125.7092 Y34.7591 
G01 X125.7924 Y34.8148 
G01 X126.4428 Y34.1644 
G00 Z1.0000  
G00 X4.1896  Y1.0652  
G01 Z-0.0500 F64    
G01 X0.9382  Y4.3166  F128   
G01 X0.9382  Y18.4164 
G01 X4.2502  Y21.7284 
G01 X4.3066  Y21.7848 
G01 X4.3465  Y21.8540 
G01 X4.3672  Y21.9311 
G01 X4.3672  Y36.4889 
G01 X4.3465  Y36.5660 
G01 X4.3066  Y36.6352 
G01 X2.9702  Y37.9716 
G01 X2.9702  Y39.5369 
G01 X2.9495  Y39.6140 
G01 X2.9096  Y39.6832 
G01 X1.5732  Y41.0196 
G01 X1.5732  Y41.7844 
G01 X2.2612  Y42.4724 
G01 X2.3182  Y42.4488 
G01 X2.4651  Y42.4196 
G01 X2.6149  Y42.4196 
G01 X2.7618  Y42.4488 
G01 X2.9002  Y42.5061 
G01 X3.0247  Y42.5894 
G01 X3.1306  Y42.6953 
G01 X3.2139  Y42.8198 
G01 X3.2712  Y42.9582 
G01 X3.3004  Y43.1051 
G01 X3.3004  Y43.2549 
G01 X3.2712  Y43.4018 
G01 X3.2139  Y43.5402 
G01 X3.1306  Y43.6647 
G01 X3.0247  Y43.7706 
G01 X2.9002  Y43.8539 
G01 X2.7618  Y43.9112 
G01 X2.6149  Y43.9404 
G01 X2.4651  Y43.9404 
G01 X2.3182  Y43.9112 
G01 X2.1798  Y43.8539 
G01 X2.0553  Y43.7706 
G01 X1.9494  Y43.6647 
G01 X1.8661  Y43.5402 
G01 X1.8088  Y43.4018 
G01 X1.7796  Y43.2549 
G01 X1.7796  Y43.1051 
G01 X1.8088  Y42.9582 
G01 X1.8324  Y42.9012 
G01 X1.0274  Y42.0962 
G01 X0.9875  Y42.0270 
G01 X0.9668  Y41.9499 
G01 X0.9668  Y40.8541 
G01 X0.9875  Y40.7770 
G01 X1.0274  Y40.7078 
G01 X1.0838  Y40.6514 
G01 X2.3638  Y39.3714 
G01 X2.3638  Y37.8061 
G01 X2.3845  Y37.7290 
G01 X2.4244  Y37.6598 
G01 X2.4808  Y37.6034 
G01 X3.7608  Y36.3234 
G01 X3.7608  Y22.0966 
G01 X0.3924  Y18.7282 
G01 X0.3525  Y18.6590 
G01 X0.3318  Y18.5819 
G01 X0.3318  Y4.1511  
G01 X0.3525  Y4.0740  
G01 X0.3924  Y4.0048  
G01 X0.4488  Y3.9484  
G01 X3.8778  Y0.5194  
G01 X3.9470  Y0.4795  
G01 X4.0241  Y0.4588  
G01 X81.2175 Y0.4588  
G01 X81.2411 Y0.4018  
G01 X81.3244 Y0.2773  
G01 X81.4303 Y0.1714  
G01 X81.5548 Y0.0881  
G01 X81.6932 Y0.0308  
G01 X81.8401 Y0.0016  
G01 X81.9899 Y0.0016  
G01 X82.1368 Y0.0308  
G01 X82.2752 Y0.0881  
G01 X82.3997 Y0.1714  
G01 X82.5056 Y0.2773  
G01 X82.5889 Y0.4018  
G01 X82.6462 Y0.5402  
G01 X82.6754 Y0.6871  
G01 X82.6754 Y0.8369  
G01 X82.6462 Y0.9838  
G01 X82.5889 Y1.1222  
G01 X82.5056 Y1.2467  
G01 X82.3997 Y1.3526  
G01 X82.2752 Y1.4359  
G01 X82.1368 Y1.4932  
G01 X81.9899 Y1.5224  
G01 X81.8401 Y1.5224  
G01 X81.6932 Y1.4932  
G01 X81.5548 Y1.4359  
G01 X81.4303 Y1.3526  
G01 X81.3244 Y1.2467  
G01 X81.2411 Y1.1222  
G01 X81.2175 Y1.0652  
G01 X4.1896  Y1.0652  
G00 Z1.0000  
G00 X116.0002 Y50.0394 
G01 Z-0.0500 F64    
G01 X116.1372 Y50.1764 F128   
G01 X116.1936 Y50.2328 
G01 X116.2335 Y50.3020 
G01 X116.2542 Y50.3791 
G01 X116.2542 Y60.1109 
G01 X116.2335 Y60.1880 
G01 X116.1936 Y60.2572 
G01 X116.1272 Y60.3236 
G01 X116.1272 Y62.3584 
G01 X120.3282 Y66.5594 
G01 X120.3846 Y66.6158 
G01 X120.4245 Y66.6850 
G01 X120.4452 Y66.7621 
G01 X120.4452 Y67.9849 
G01 X120.4245 Y68.0620 
G01 X120.3846 Y68.1312 
G01 X111.4946 Y77.0212 
G01 X111.4382 Y77.0776 
G01 X111.3690 Y77.1175 
G01 X111.2919 Y77.1382 
G01 X73.4685 Y77.1382 
G01 X73.4449 Y77.1952 
G01 X73.3616 Y77.3197 
G01 X73.2557 Y77.4256 
G01 X73.1312 Y77.5089 
G01 X72.9928 Y77.5662 
G01 X72.8459 Y77.5954 
G01 X72.6961 Y77.5954 
G01 X72.5492 Y77.5662 
G01 X72.4108 Y77.5089 
G01 X72.2863 Y77.4256 
G01 X72.1804 Y77.3197 
G01 X72.0971 Y77.1952 
G01 X72.0398 Y77.0568 
G01 X72.0106 Y76.9099 
G01 X72.0106 Y76.7601 
G01 X72.0398 Y76.6132 
G01 X72.0971 Y76.4748 
G01 X72.1804 Y76.3503 
G01 X72.2863 Y76.2444 
G01 X72.4108 Y76.1611 
G01 X72.5492 Y76.1038 
G01 X72.6961 Y76.0746 
G01 X72.8459 Y76.0746 
G01 X72.9928 Y76.1038 
G01 X73.1312 Y76.1611 
G01 X73.2557 Y76.2444 
G01 X73.3616 Y76.3503 
G01 X73.4449 Y76.4748 
G01 X73.4685 Y76.5318 
G01 X111.1264 Y76.5318 
G01 X119.8388 Y67.8194 
G01 X119.8388 Y66.9276 
G01 X115.5814 Y62.6702 
G01 X115.5415 Y62.6010 
G01 X115.5208 Y62.5239 
G01 X115.5208 Y60.1581 
G01 X115.5415 Y60.0810 
G01 X115.5814 Y60.0118 
G01 X115.6378 Y59.9554 
G01 X115.6478 Y59.9454 
G01 X115.6478 Y50.5446 
G01 X115.4544 Y50.3512 
G01 X115.4145 Y50.2820 
G01 X115.3938 Y50.2049 
G01 X115.3938 Y47.8145 
G01 X115.3368 Y47.7909 
G01 X115.2123 Y47.7076 
G01 X115.1064 Y47.6017 
G01 X115.0231 Y47.4772 
G01 X114.9658 Y47.3388 
G01 X114.9366 Y47.1919 
G01 X114.9366 Y47.0421 
G01 X114.9658 Y46.8952 
G01 X115.0231 Y46.7568 
G01 X115.1064 Y46.6323 
G01 X115.2123 Y46.5264 
G01 X115.3368 Y46.4431 
G01 X115.4752 Y46.3858 
G01 X115.6221 Y46.3566 
G01 X115.7719 Y46.3566 
G01 X115.9188 Y46.3858 
G01 X116.0572 Y46.4431 
G01 X116.1817 Y46.5264 
G01 X116.2876 Y46.6323 
G01 X116.3709 Y46.7568 
G01 X116.4282 Y46.8952 
G01 X116.4574 Y47.0421 
G01 X116.4574 Y47.1919 
G01 X116.4282 Y47.3388 
G01 X116.3709 Y47.4772 
G01 X116.2876 Y47.6017 
G01 X116.1817 Y47.7076 
G01 X116.0572 Y47.7909 
G01 X116.0002 Y47.8145 
G01 X116.0002 Y50.0394 
G00 Z1.0000  
G00 X118.1592 Y35.2661 
G01 Z-0.0500 F64    
G01 X118.1592 Y35.3459 F128   
G01 X118.1385 Y35.4230 
G01 X118.0986 Y35.4922 
G01 X111.7443 Y41.8465 
G01 X111.8622 Y41.9644 
G01 X111.9192 Y41.9408 
G01 X112.0661 Y41.9116 
G01 X112.2159 Y41.9116 
G01 X112.3628 Y41.9408 
G01 X112.5012 Y41.9981 
G01 X112.6257 Y42.0814 
G01 X112.7316 Y42.1873 
G01 X112.8149 Y42.3118 
G01 X112.8722 Y42.4502 
G01 X112.9014 Y42.5971 
G01 X112.9014 Y42.7469 
G01 X112.8722 Y42.8938 
G01 X112.8149 Y43.0322 
G01 X112.7316 Y43.1567 
G01 X112.6257 Y43.2626 
G01 X112.5012 Y43.3459 
G01 X112.3628 Y43.4032 
G01 X112.2159 Y43.4324 
G01 X112.0661 Y43.4324 
G01 X111.9192 Y43.4032 
G01 X111.7808 Y43.3459 
G01 X111.6563 Y43.2626 
G01 X111.5504 Y43.1567 
G01 X111.4671 Y43.0322 
G01 X111.4098 Y42.8938 
G01 X111.3806 Y42.7469 
G01 X111.3806 Y42.5971 
G01 X111.4098 Y42.4502 
G01 X111.4334 Y42.3932 
G01 X111.2534 Y42.2132 
G01 X106.1075 Y42.2132 
G01 X106.0839 Y42.2702 
G01 X106.0006 Y42.3947 
G01 X105.8947 Y42.5006 
G01 X105.7702 Y42.5839 
G01 X105.6318 Y42.6412 
G01 X105.4849 Y42.6704 
G01 X105.3351 Y42.6704 
G01 X105.1882 Y42.6412 
G01 X105.0498 Y42.5839 
G01 X104.9253 Y42.5006 
G01 X104.8194 Y42.3947 
G01 X104.7361 Y42.2702 
G01 X104.6788 Y42.1318 
G01 X104.6496 Y41.9849 
G01 X104.6496 Y41.8351 
G01 X104.6788 Y41.6882 
G01 X104.7361 Y41.5498 
G01 X104.8194 Y41.4253 
G01 X104.9253 Y41.3194 
G01 X105.0498 Y41.2361 
G01 X105.1882 Y41.1788 
G01 X105.3351 Y41.1496 
G01 X105.4849 Y41.1496 
G01 X105.6318 Y41.1788 
G01 X105.7702 Y41.2361 
G01 X105.8947 Y41.3194 
G01 X106.0006 Y41.4253 
G01 X106.0839 Y41.5498 
G01 X106.1075 Y41.6068 
G01 X111.1306 Y41.6068 
G01 X111.1364 Y41.5968 
G01 X111.1928 Y41.5404 
G01 X117.5528 Y35.1804 
G01 X117.5528 Y29.7805 
G01 X117.4958 Y29.7569 
G01 X117.3713 Y29.6736 
G01 X117.2654 Y29.5677 
G01 X117.1821 Y29.4432 
G01 X117.1248 Y29.3048 
G01 X117.0956 Y29.1579 
G01 X117.0956 Y29.0081 
G01 X117.1248 Y28.8612 
G01 X117.1821 Y28.7228 
G01 X117.2654 Y28.5983 
G01 X117.3713 Y28.4924 
G01 X117.4958 Y28.4091 
G01 X117.6342 Y28.3518 
G01 X117.7811 Y28.3226 
G01 X117.9309 Y28.3226 
G01 X118.0778 Y28.3518 
G01 X118.2162 Y28.4091 
G01 X118.3407 Y28.4924 
G01 X118.4466 Y28.5983 
G01 X118.5299 Y28.7228 
G01 X118.5872 Y28.8612 
G01 X118.6164 Y29.0081 
G01 X118.6164 Y29.1579 
G01 X118.5872 Y29.3048 
G01 X118.5299 Y29.4432 
G01 X118.4466 Y29.5677 
G01 X118.3407 Y29.6736 
G01 X118.2162 Y29.7569 
G01 X118.1592 Y29.7805 
G01 X118.1592 Y35.2661 
G00 Z1.0000  
G00 X116.1272 Y24.5124 
G01 Z-0.0500 F64    
G01 X117.1962 Y25.5814 F128   
G01 X117.2532 Y25.5578 
G01 X117.4001 Y25.5286 
G01 X117.5499 Y25.5286 
G01 X117.6968 Y25.5578 
G01 X117.8352 Y25.6151 
G01 X117.9597 Y25.6984 
G01 X118.0656 Y25.8043 
G01 X118.1489 Y25.9288 
G01 X118.2062 Y26.0672 
G01 X118.2354 Y26.2141 
G01 X118.2354 Y26.3639 
G01 X118.2062 Y26.5108 
G01 X118.1489 Y26.6492 
G01 X118.0656 Y26.7737 
G01 X117.9597 Y26.8796 
G01 X117.8352 Y26.9629 
G01 X117.6968 Y27.0202 
G01 X117.5499 Y27.0494 
G01 X117.4001 Y27.0494 
G01 X117.2532 Y27.0202 
G01 X117.1148 Y26.9629 
G01 X116.9903 Y26.8796 
G01 X116.8844 Y26.7737 
G01 X116.8011 Y26.6492 
G01 X116.7438 Y26.5108 
G01 X116.7146 Y26.3639 
G01 X116.7146 Y26.2141 
G01 X116.7438 Y26.0672 
G01 X116.7674 Y26.0102 
G01 X115.5814 Y24.8242 
G01 X115.5415 Y24.7550 
G01 X115.5208 Y24.6779 
G01 X115.5208 Y22.6685 
G01 X115.4638 Y22.6449 
G01 X115.3393 Y22.5616 
G01 X115.2334 Y22.4557 
G01 X115.1501 Y22.3312 
G01 X115.0928 Y22.1928 
G01 X115.0636 Y22.0459 
G01 X115.0636 Y21.8961 
G01 X115.0928 Y21.7492 
G01 X115.1501 Y21.6108 
G01 X115.2334 Y21.4863 
G01 X115.3393 Y21.3804 
G01 X115.4638 Y21.2971 
G01 X115.6022 Y21.2398 
G01 X115.7491 Y21.2106 
G01 X115.8989 Y21.2106 
G01 X116.0458 Y21.2398 
G01 X116.1842 Y21.2971 
G01 X116.3087 Y21.3804 
G01 X116.4146 Y21.4863 
G01 X116.4979 Y21.6108 
G01 X116.5552 Y21.7492 
G01 X116.5844 Y21.8961 
G01 X116.5844 Y22.0459 
G01 X116.5552 Y22.1928 
G01 X116.4979 Y22.3312 
G01 X116.4146 Y22.4557 
G01 X116.3087 Y22.5616 
G01 X116.1842 Y22.6449 
G01 X116.1272 Y22.6685 
G01 X116.1272 Y24.5124 
G00 Z1.0000  
G00 X104.5700 Y46.7348 
G01 Z-0.0500 F64    
G01 X104.5700 Y47.7599 F128   
G01 X104.5548 Y47.7966 
G01 X104.5266 Y47.8248 
G01 X104.4899 Y47.8400 
G01 X103.1501 Y47.8400 
G01 X103.1134 Y47.8248 
G01 X103.0852 Y47.7966 
G01 X103.0700 Y47.7599 
G01 X103.0700 Y46.2201 
G01 X103.0852 Y46.1834 
G01 X103.1134 Y46.1552 
G01 X103.1501 Y46.1400 
G01 X104.3072 Y46.1400 
G01 X104.5988 Y45.8484 
G01 X104.5982 Y45.8122 
G01 X104.5988 Y43.5596 
G01 X104.5324 Y43.4932 
G01 X104.5224 Y43.4832 
G01 X102.2842 Y43.4832 
G01 X102.2842 Y43.6000 
G01 X102.5899 Y43.6000 
G01 X102.6266 Y43.6152 
G01 X102.6548 Y43.6434 
G01 X102.6700 Y43.6801 
G01 X102.6700 Y45.2199 
G01 X102.6548 Y45.2566 
G01 X102.6266 Y45.2848 
G01 X102.5899 Y45.3000 
G01 X101.2501 Y45.3000 
G01 X101.2134 Y45.2848 
G01 X101.1852 Y45.2566 
G01 X101.1700 Y45.2199 
G01 X101.1700 Y44.7532 
G01 X100.9005 Y44.7532 
G01 X100.8769 Y44.8102 
G01 X100.7936 Y44.9347 
G01 X100.6877 Y45.0406 
G01 X100.5632 Y45.1239 
G01 X100.4248 Y45.1812 
G01 X100.2779 Y45.2104 
G01 X100.1281 Y45.2104 
G01 X99.9812 Y45.1812 
G01 X99.8428 Y45.1239 
G01 X99.7183 Y45.0406 
G01 X99.6124 Y44.9347 
G01 X99.5291 Y44.8102 
G01 X99.4718 Y44.6718 
G01 X99.4426 Y44.5249 
G01 X99.4426 Y44.3751 
G01 X99.4718 Y44.2282 
G01 X99.5291 Y44.0898 
G01 X99.6124 Y43.9653 
G01 X99.7183 Y43.8594 
G01 X99.8428 Y43.7761 
G01 X99.9812 Y43.7188 
G01 X100.1281 Y43.6896 
G01 X100.2779 Y43.6896 
G01 X100.4248 Y43.7188 
G01 X100.5632 Y43.7761 
G01 X100.6877 Y43.8594 
G01 X100.7936 Y43.9653 
G01 X100.8769 Y44.0898 
G01 X100.9005 Y44.1468 
G01 X101.1700 Y44.1468 
G01 X101.1700 Y43.6801 
G01 X101.1852 Y43.6434 
G01 X101.2134 Y43.6152 
G01 X101.2501 Y43.6000 
G01 X101.6778 Y43.6000 
G01 X101.6778 Y42.7600 
G01 X101.2501 Y42.7600 
G01 X101.2134 Y42.7448 
G01 X101.1852 Y42.7166 
G01 X101.1700 Y42.6799 
G01 X101.1700 Y41.1401 
G01 X101.1852 Y41.1034 
G01 X101.2134 Y41.0752 
G01 X101.2501 Y41.0600 
G01 X102.5899 Y41.0600 
G01 X102.6266 Y41.0752 
G01 X102.6548 Y41.1034 
G01 X102.6700 Y41.1401 
G01 X102.6700 Y42.6799 
G01 X102.6548 Y42.7166 
G01 X102.6266 Y42.7448 
G01 X102.5899 Y42.7600 
G01 X102.2842 Y42.7600 
G01 X102.2842 Y42.8768 
G01 X104.6879 Y42.8768 
G01 X104.7650 Y42.8975 
G01 X104.7750 Y42.9032 
G01 X104.7850 Y42.8975 
G01 X104.8621 Y42.8768 
G01 X109.6655 Y42.8768 
G01 X109.6891 Y42.8198 
G01 X109.7724 Y42.6953 
G01 X109.8783 Y42.5894 
G01 X110.0028 Y42.5061 
G01 X110.1412 Y42.4488 
G01 X110.2881 Y42.4196 
G01 X110.4379 Y42.4196 
G01 X110.5848 Y42.4488 
G01 X110.7232 Y42.5061 
G01 X110.8477 Y42.5894 
G01 X110.9536 Y42.6953 
G01 X111.0369 Y42.8198 
G01 X111.0942 Y42.9582 
G01 X111.1234 Y43.1051 
G01 X111.1234 Y43.2549 
G01 X111.0942 Y43.4018 
G01 X111.0369 Y43.5402 
G01 X110.9536 Y43.6647 
G01 X110.8477 Y43.7706 
G01 X110.7232 Y43.8539 
G01 X110.5848 Y43.9112 
G01 X110.4379 Y43.9404 
G01 X110.2881 Y43.9404 
G01 X110.1412 Y43.9112 
G01 X110.0028 Y43.8539 
G01 X109.8783 Y43.7706 
G01 X109.7724 Y43.6647 
G01 X109.6891 Y43.5402 
G01 X109.6655 Y43.4832 
G01 X105.2052 Y43.4832 
G01 X105.2052 Y45.2394 
G01 X105.3351 Y45.2136 
G01 X105.4849 Y45.2136 
G01 X105.6318 Y45.2428 
G01 X105.7702 Y45.3001 
G01 X105.8947 Y45.3834 
G01 X106.0006 Y45.4893 
G01 X106.0839 Y45.6138 
G01 X106.1412 Y45.7522 
G01 X106.1704 Y45.8991 
G01 X106.1704 Y46.0489 
G01 X106.1412 Y46.1958 
G01 X106.0839 Y46.3342 
G01 X106.0006 Y46.4587 
G01 X105.8947 Y46.5646 
G01 X105.7702 Y46.6479 
G01 X105.6318 Y46.7052 
G01 X105.4849 Y46.7344 
G01 X105.3351 Y46.7344 
G01 X105.1882 Y46.7052 
G01 X105.0498 Y46.6479 
G01 X104.9253 Y46.5646 
G01 X104.8327 Y46.4721 
G01 X104.5700 Y46.7348 
G00 Z1.0000  
G00 X120.7145 Y60.4028 
G01 Z-0.0500 F64    
G01 X120.7381 Y60.3458 F128   
G01 X120.8214 Y60.2213 
G01 X120.9273 Y60.1154 
G01 X121.0518 Y60.0321 
G01 X121.1902 Y59.9748 
G01 X121.3371 Y59.9456 
G01 X121.4869 Y59.9456 
G01 X121.6338 Y59.9748 
G01 X121.7722 Y60.0321 
G01 X121.8967 Y60.1154 
G01 X122.0026 Y60.2213 
G01 X122.0859 Y60.3458 
G01 X122.1432 Y60.4842 
G01 X122.1724 Y60.6311 
G01 X122.1724 Y60.7809 
G01 X122.1432 Y60.9278 
G01 X122.0859 Y61.0662 
G01 X122.0026 Y61.1907 
G01 X121.8967 Y61.2966 
G01 X121.7722 Y61.3799 
G01 X121.6338 Y61.4372 
G01 X121.4869 Y61.4664 
G01 X121.3371 Y61.4664 
G01 X121.1902 Y61.4372 
G01 X121.0518 Y61.3799 
G01 X120.9273 Y61.2966 
G01 X120.8214 Y61.1907 
G01 X120.7381 Y61.0662 
G01 X120.7145 Y61.0092 
G01 X117.6645 Y61.0092 
G01 X117.6409 Y61.0662 
G01 X117.5576 Y61.1907 
G01 X117.4517 Y61.2966 
G01 X117.3272 Y61.3799 
G01 X117.1888 Y61.4372 
G01 X117.0419 Y61.4664 
G01 X116.8921 Y61.4664 
G01 X116.7452 Y61.4372 
G01 X116.6068 Y61.3799 
G01 X116.4823 Y61.2966 
G01 X116.3764 Y61.1907 
G01 X116.2931 Y61.0662 
G01 X116.2358 Y60.9278 
G01 X116.2066 Y60.7809 
G01 X116.2066 Y60.6311 
G01 X116.2358 Y60.4842 
G01 X116.2931 Y60.3458 
G01 X116.3764 Y60.2213 
G01 X116.4823 Y60.1154 
G01 X116.6068 Y60.0321 
G01 X116.7452 Y59.9748 
G01 X116.8921 Y59.9456 
G01 X117.0419 Y59.9456 
G01 X117.1888 Y59.9748 
G01 X117.3272 Y60.0321 
G01 X117.4517 Y60.1154 
G01 X117.5576 Y60.2213 
G01 X117.6409 Y60.3458 
G01 X117.6645 Y60.4028 
G01 X120.7145 Y60.4028 
G00 Z1.0000  
G00 X115.8832 Y26.3004 
G01 Z-0.0500 F64    
G01 X115.9396 Y26.3568 F128   
G01 X115.9795 Y26.4260 
G01 X116.0002 Y26.5031 
G01 X116.0002 Y33.2115 
G01 X116.0572 Y33.2351 
G01 X116.1817 Y33.3184 
G01 X116.2876 Y33.4243 
G01 X116.3709 Y33.5488 
G01 X116.4282 Y33.6872 
G01 X116.4574 Y33.8341 
G01 X116.4574 Y33.9839 
G01 X116.4282 Y34.1308 
G01 X116.3709 Y34.2692 
G01 X116.2876 Y34.3937 
G01 X116.1817 Y34.4996 
G01 X116.0572 Y34.5829 
G01 X115.9188 Y34.6402 
G01 X115.7719 Y34.6694 
G01 X115.6221 Y34.6694 
G01 X115.4752 Y34.6402 
G01 X115.3368 Y34.5829 
G01 X115.2123 Y34.4996 
G01 X115.1064 Y34.3937 
G01 X115.0231 Y34.2692 
G01 X114.9658 Y34.1308 
G01 X114.9366 Y33.9839 
G01 X114.9366 Y33.8341 
G01 X114.9658 Y33.6872 
G01 X115.0231 Y33.5488 
G01 X115.1064 Y33.4243 
G01 X115.2123 Y33.3184 
G01 X115.3368 Y33.2351 
G01 X115.3938 Y33.2115 
G01 X115.3938 Y26.6686 
G01 X114.1844 Y25.4592 
G01 X114.1445 Y25.3900 
G01 X114.1238 Y25.3129 
G01 X114.1238 Y25.2085 
G01 X114.0668 Y25.1849 
G01 X113.9423 Y25.1016 
G01 X113.8364 Y24.9957 
G01 X113.7531 Y24.8712 
G01 X113.6958 Y24.7328 
G01 X113.6666 Y24.5859 
G01 X113.6666 Y24.4361 
G01 X113.6958 Y24.2892 
G01 X113.7531 Y24.1508 
G01 X113.8364 Y24.0263 
G01 X113.9423 Y23.9204 
G01 X114.0668 Y23.8371 
G01 X114.2052 Y23.7798 
G01 X114.3521 Y23.7506 
G01 X114.5019 Y23.7506 
G01 X114.6488 Y23.7798 
G01 X114.7872 Y23.8371 
G01 X114.9117 Y23.9204 
G01 X115.0176 Y24.0263 
G01 X115.1009 Y24.1508 
G01 X115.1582 Y24.2892 
G01 X115.1874 Y24.4361 
G01 X115.1874 Y24.5859 
G01 X115.1582 Y24.7328 
G01 X115.1009 Y24.8712 
G01 X115.0176 Y24.9957 
G01 X114.9117 Y25.1016 
G01 X114.7872 Y25.1849 
G01 X114.7734 Y25.1906 
G01 X115.8832 Y26.3004 
G00 Z1.0000  
G00 X102.5515 Y12.8762 
G01 Z-0.0500 F64    
G01 X102.5279 Y12.9332 F128   
G01 X102.4446 Y13.0577 
G01 X102.3387 Y13.1636 
G01 X102.2142 Y13.2469 
G01 X102.0758 Y13.3042 
G01 X101.9289 Y13.3334 
G01 X101.7791 Y13.3334 
G01 X101.6322 Y13.3042 
G01 X101.4938 Y13.2469 
G01 X101.3693 Y13.1636 
G01 X101.2634 Y13.0577 
G01 X101.1801 Y12.9332 
G01 X101.1228 Y12.7948 
G01 X101.0936 Y12.6479 
G01 X101.0936 Y12.4981 
G01 X101.1228 Y12.3512 
G01 X101.1801 Y12.2128 
G01 X101.2634 Y12.0883 
G01 X101.3693 Y11.9824 
G01 X101.4938 Y11.8991 
G01 X101.6322 Y11.8418 
G01 X101.7791 Y11.8126 
G01 X101.9289 Y11.8126 
G01 X102.0758 Y11.8418 
G01 X102.2142 Y11.8991 
G01 X102.3387 Y11.9824 
G01 X102.4446 Y12.0883 
G01 X102.5279 Y12.2128 
G01 X102.5515 Y12.2698 
G01 X106.8715 Y12.2698 
G01 X106.8951 Y12.2128 
G01 X106.9784 Y12.0883 
G01 X107.0843 Y11.9824 
G01 X107.2088 Y11.8991 
G01 X107.3472 Y11.8418 
G01 X107.4941 Y11.8126 
G01 X107.6439 Y11.8126 
G01 X107.7908 Y11.8418 
G01 X107.9292 Y11.8991 
G01 X108.0537 Y11.9824 
G01 X108.1596 Y12.0883 
G01 X108.2429 Y12.2128 
G01 X108.3002 Y12.3512 
G01 X108.3294 Y12.4981 
G01 X108.3294 Y12.6479 
G01 X108.3002 Y12.7948 
G01 X108.2429 Y12.9332 
G01 X108.1596 Y13.0577 
G01 X108.0537 Y13.1636 
G01 X107.9292 Y13.2469 
G01 X107.7908 Y13.3042 
G01 X107.6439 Y13.3334 
G01 X107.4941 Y13.3334 
G01 X107.3472 Y13.3042 
G01 X107.2088 Y13.2469 
G01 X107.0843 Y13.1636 
G01 X106.9784 Y13.0577 
G01 X106.8951 Y12.9332 
G01 X106.8715 Y12.8762 
G01 X102.5515 Y12.8762 
G00 Z1.0000  
G00 X65.4542 Y66.2926 
G01 Z-0.0500 F64    
G01 X65.4542 Y70.2709 F128   
G01 X65.4335 Y70.3480 
G01 X65.3936 Y70.4172 
G01 X59.2976 Y76.5132 
G01 X59.2412 Y76.5696 
G01 X59.1720 Y76.6095 
G01 X59.0949 Y76.6302 
G01 X24.9791 Y76.6302 
G01 X24.9020 Y76.6095 
G01 X24.8328 Y76.5696 
G01 X18.6098 Y70.3466 
G01 X18.5534 Y70.2902 
G01 X18.5135 Y70.2210 
G01 X18.4928 Y70.1439 
G01 X18.4928 Y63.6895 
G01 X18.4358 Y63.6659 
G01 X18.3113 Y63.5826 
G01 X18.2054 Y63.4767 
G01 X18.1221 Y63.3522 
G01 X18.0648 Y63.2138 
G01 X18.0356 Y63.0669 
G01 X18.0356 Y62.9171 
G01 X18.0648 Y62.7702 
G01 X18.1221 Y62.6318 
G01 X18.2054 Y62.5073 
G01 X18.3113 Y62.4014 
G01 X18.4358 Y62.3181 
G01 X18.5742 Y62.2608 
G01 X18.7211 Y62.2316 
G01 X18.8709 Y62.2316 
G01 X19.0178 Y62.2608 
G01 X19.1562 Y62.3181 
G01 X19.2807 Y62.4014 
G01 X19.3866 Y62.5073 
G01 X19.4699 Y62.6318 
G01 X19.5272 Y62.7702 
G01 X19.5564 Y62.9171 
G01 X19.5564 Y63.0669 
G01 X19.5272 Y63.2138 
G01 X19.4699 Y63.3522 
G01 X19.3866 Y63.4767 
G01 X19.2807 Y63.5826 
G01 X19.1562 Y63.6659 
G01 X19.0992 Y63.6895 
G01 X19.0992 Y69.9784 
G01 X25.1446 Y76.0238 
G01 X58.9294 Y76.0238 
G01 X64.8478 Y70.1054 
G01 X64.8478 Y66.1271 
G01 X64.8685 Y66.0500 
G01 X64.9084 Y65.9808 
G01 X64.9648 Y65.9244 
G01 X66.8564 Y64.0328 
G01 X66.8328 Y63.9758 
G01 X66.8036 Y63.8289 
G01 X66.8036 Y63.6791 
G01 X66.8328 Y63.5322 
G01 X66.8901 Y63.3938 
G01 X66.9734 Y63.2693 
G01 X67.0793 Y63.1634 
G01 X67.2038 Y63.0801 
G01 X67.3422 Y63.0228 
G01 X67.4891 Y62.9936 
G01 X67.6389 Y62.9936 
G01 X67.7858 Y63.0228 
G01 X67.9242 Y63.0801 
G01 X68.0487 Y63.1634 
G01 X68.1546 Y63.2693 
G01 X68.2379 Y63.3938 
G01 X68.2952 Y63.5322 
G01 X68.3244 Y63.6791 
G01 X68.3244 Y63.8289 
G01 X68.2952 Y63.9758 
G01 X68.2379 Y64.1142 
G01 X68.1546 Y64.2387 
G01 X68.0487 Y64.3446 
G01 X67.9242 Y64.4279 
G01 X67.7858 Y64.4852 
G01 X67.6389 Y64.5144 
G01 X67.4891 Y64.5144 
G01 X67.3422 Y64.4852 
G01 X67.2852 Y64.4616 
G01 X65.4542 Y66.2926 
G00 Z1.0000  
G00 X23.3002 Y36.2064 
G01 Z-0.0500 F64    
G01 X23.3566 Y36.2628 F128   
G01 X23.3965 Y36.3320 
G01 X23.4172 Y36.4091 
G01 X23.4172 Y40.3874 
G01 X26.3482 Y43.3184 
G01 X26.4046 Y43.3748 
G01 X27.7398 Y44.7100 
G01 X27.7521 Y44.6931 
G01 X27.8749 Y44.5703 
G01 X28.0154 Y44.4682 
G01 X28.1702 Y44.3894 
G01 X28.3353 Y44.3357 
G01 X28.5069 Y44.3085 
G01 X28.6805 Y44.3085 
G01 X28.8520 Y44.3357 
G01 X29.0172 Y44.3894 
G01 X29.1719 Y44.4682 
G01 X29.3124 Y44.5703 
G01 X29.4352 Y44.6931 
G01 X29.5373 Y44.8336 
G01 X29.6162 Y44.9883 
G01 X29.6698 Y45.1535 
G01 X29.6970 Y45.3250 
G01 X29.6970 Y45.4987 
G01 X29.6698 Y45.6702 
G01 X29.6162 Y45.8354 
G01 X29.5373 Y45.9901 
G01 X29.4352 Y46.1306 
G01 X29.3124 Y46.2534 
G01 X29.1719 Y46.3555 
G01 X29.0172 Y46.4343 
G01 X28.8520 Y46.4880 
G01 X28.6805 Y46.5151 
G01 X28.5069 Y46.5151 
G01 X28.3353 Y46.4880 
G01 X28.1702 Y46.4343 
G01 X28.0154 Y46.3555 
G01 X27.8749 Y46.2534 
G01 X27.7521 Y46.1306 
G01 X27.6501 Y45.9901 
G01 X27.5712 Y45.8354 
G01 X27.5176 Y45.6702 
G01 X27.4904 Y45.4987 
G01 X27.4904 Y45.3250 
G01 X27.4913 Y45.3191 
G01 X26.1620 Y43.9898 
G01 X22.1706 Y47.9812 
G01 X22.1942 Y48.0382 
G01 X22.2234 Y48.1851 
G01 X22.2234 Y48.3349 
G01 X22.1942 Y48.4818 
G01 X22.1369 Y48.6202 
G01 X22.0536 Y48.7447 
G01 X21.9477 Y48.8506 
G01 X21.8232 Y48.9339 
G01 X21.6848 Y48.9912 
G01 X21.5379 Y49.0204 
G01 X21.3881 Y49.0204 
G01 X21.2412 Y48.9912 
G01 X21.1028 Y48.9339 
G01 X20.9783 Y48.8506 
G01 X20.8724 Y48.7447 
G01 X20.7891 Y48.6202 
G01 X20.7318 Y48.4818 
G01 X20.7026 Y48.3349 
G01 X20.7026 Y48.1851 
G01 X20.7318 Y48.0382 
G01 X20.7891 Y47.8998 
G01 X20.8724 Y47.7753 
G01 X20.9783 Y47.6694 
G01 X21.1028 Y47.5861 
G01 X21.2412 Y47.5288 
G01 X21.3881 Y47.4996 
G01 X21.5379 Y47.4996 
G01 X21.6848 Y47.5288 
G01 X21.7418 Y47.5524 
G01 X25.7332 Y43.5610 
G01 X22.8714 Y40.6992 
G01 X22.8315 Y40.6300 
G01 X22.8108 Y40.5529 
G01 X22.8108 Y36.5746 
G01 X20.2178 Y33.9816 
G01 X20.1608 Y34.0052 
G01 X20.0139 Y34.0344 
G01 X19.8641 Y34.0344 
G01 X19.7172 Y34.0052 
G01 X19.5788 Y33.9479 
G01 X19.4543 Y33.8646 
G01 X19.3484 Y33.7587 
G01 X19.2651 Y33.6342 
G01 X19.2078 Y33.4958 
G01 X19.1786 Y33.3489 
G01 X19.1786 Y33.1991 
G01 X19.2078 Y33.0522 
G01 X19.2651 Y32.9138 
G01 X19.3484 Y32.7893 
G01 X19.4543 Y32.6834 
G01 X19.5788 Y32.6001 
G01 X19.7172 Y32.5428 
G01 X19.8641 Y32.5136 
G01 X20.0139 Y32.5136 
G01 X20.1608 Y32.5428 
G01 X20.2992 Y32.6001 
G01 X20.4237 Y32.6834 
G01 X20.5296 Y32.7893 
G01 X20.6129 Y32.9138 
G01 X20.6702 Y33.0522 
G01 X20.6994 Y33.1991 
G01 X20.6994 Y33.3489 
G01 X20.6702 Y33.4958 
G01 X20.6466 Y33.5528 
G01 X23.3002 Y36.2064 
G00 Z1.0000  
G00 X39.2316 Y17.2042 
G01 Z-0.0500 F64    
G01 X39.2316 Y17.2042 F128   
G01 X39.1752 Y17.2606 
G01 X39.1060 Y17.3005 
G01 X39.0289 Y17.3212 
G01 X28.8276 Y17.3212 
G01 X28.3096 Y17.8392 
G01 X28.2532 Y17.8956 
G01 X28.1840 Y17.9355 
G01 X28.1069 Y17.9562 
G01 X25.4625 Y17.9562 
G01 X25.4389 Y18.0132 
G01 X25.3556 Y18.1377 
G01 X25.2497 Y18.2436 
G01 X25.1252 Y18.3269 
G01 X24.9868 Y18.3842 
G01 X24.8399 Y18.4134 
G01 X24.6901 Y18.4134 
G01 X24.5432 Y18.3842 
G01 X24.4048 Y18.3269 
G01 X24.2803 Y18.2436 
G01 X24.1744 Y18.1377 
G01 X24.0911 Y18.0132 
G01 X24.0338 Y17.8748 
G01 X24.0046 Y17.7279 
G01 X24.0046 Y17.5781 
G01 X24.0338 Y17.4312 
G01 X24.0911 Y17.2928 
G01 X24.1744 Y17.1683 
G01 X24.2803 Y17.0624 
G01 X24.4048 Y16.9791 
G01 X24.5432 Y16.9218 
G01 X24.6901 Y16.8926 
G01 X24.8399 Y16.8926 
G01 X24.9868 Y16.9218 
G01 X25.1252 Y16.9791 
G01 X25.2497 Y17.0624 
G01 X25.3556 Y17.1683 
G01 X25.4389 Y17.2928 
G01 X25.4625 Y17.3498 
G01 X27.9414 Y17.3498 
G01 X28.5158 Y16.7754 
G01 X28.5850 Y16.7355 
G01 X28.6621 Y16.7148 
G01 X38.8634 Y16.7148 
G01 X42.4724 Y13.1058 
G01 X42.4488 Y13.0488 
G01 X42.4196 Y12.9019 
G01 X42.4196 Y12.7521 
G01 X42.4488 Y12.6052 
G01 X42.5061 Y12.4668 
G01 X42.5894 Y12.3423 
G01 X42.6953 Y12.2364 
G01 X42.8198 Y12.1531 
G01 X42.9582 Y12.0958 
G01 X43.1051 Y12.0666 
G01 X43.2549 Y12.0666 
G01 X43.4018 Y12.0958 
G01 X43.5402 Y12.1531 
G01 X43.6647 Y12.2364 
G01 X43.7706 Y12.3423 
G01 X43.8071 Y12.3968 
G01 X47.3085 Y12.3968 
G01 X47.3321 Y12.3398 
G01 X47.4154 Y12.2153 
G01 X47.5213 Y12.1094 
G01 X47.6458 Y12.0261 
G01 X47.7842 Y11.9688 
G01 X47.9311 Y11.9396 
G01 X48.0809 Y11.9396 
G01 X48.2278 Y11.9688 
G01 X48.3662 Y12.0261 
G01 X48.4907 Y12.1094 
G01 X48.5966 Y12.2153 
G01 X48.6799 Y12.3398 
G01 X48.7372 Y12.4782 
G01 X48.7664 Y12.6251 
G01 X48.7664 Y12.7749 
G01 X48.7372 Y12.9218 
G01 X48.6799 Y13.0602 
G01 X48.5966 Y13.1847 
G01 X48.4907 Y13.2906 
G01 X48.3662 Y13.3739 
G01 X48.2278 Y13.4312 
G01 X48.0809 Y13.4604 
G01 X47.9311 Y13.4604 
G01 X47.7842 Y13.4312 
G01 X47.6458 Y13.3739 
G01 X47.5213 Y13.2906 
G01 X47.4154 Y13.1847 
G01 X47.3321 Y13.0602 
G01 X47.3085 Y13.0032 
G01 X43.9202 Y13.0032 
G01 X43.9112 Y13.0488 
G01 X43.8539 Y13.1872 
G01 X43.7706 Y13.3117 
G01 X43.6647 Y13.4176 
G01 X43.5402 Y13.5009 
G01 X43.4018 Y13.5582 
G01 X43.2549 Y13.5874 
G01 X43.1051 Y13.5874 
G01 X42.9582 Y13.5582 
G01 X42.9012 Y13.5346 
G01 X39.2316 Y17.2042 
G00 Z1.0000  
G00 X112.8616 Y37.3650 
G01 Z-0.0500 F64    
G01 X112.8641 Y37.3588 F128   
G01 X112.9474 Y37.2343 
G01 X113.0533 Y37.1284 
G01 X113.1778 Y37.0451 
G01 X113.3162 Y36.9878 
G01 X113.4631 Y36.9586 
G01 X113.6129 Y36.9586 
G01 X113.7598 Y36.9878 
G01 X113.8982 Y37.0451 
G01 X114.0227 Y37.1284 
G01 X114.1286 Y37.2343 
G01 X114.2119 Y37.3588 
G01 X114.2692 Y37.4972 
G01 X114.2984 Y37.6441 
G01 X114.2984 Y37.7939 
G01 X114.2692 Y37.9408 
G01 X114.2119 Y38.0792 
G01 X114.1286 Y38.2037 
G01 X114.0227 Y38.3096 
G01 X113.8982 Y38.3929 
G01 X113.7598 Y38.4502 
G01 X113.6129 Y38.4794 
G01 X113.4631 Y38.4794 
G01 X113.3162 Y38.4502 
G01 X113.1778 Y38.3929 
G01 X113.0533 Y38.3096 
G01 X112.9474 Y38.2037 
G01 X112.8641 Y38.0792 
G01 X112.8616 Y38.0730 
G01 X102.6574 Y38.0730 
G01 X102.6549 Y38.0792 
G01 X102.5716 Y38.2037 
G01 X102.4657 Y38.3096 
G01 X102.3412 Y38.3929 
G01 X102.2028 Y38.4502 
G01 X102.0559 Y38.4794 
G01 X101.9061 Y38.4794 
G01 X101.7592 Y38.4502 
G01 X101.6208 Y38.3929 
G01 X101.4963 Y38.3096 
G01 X101.3904 Y38.2037 
G01 X101.3071 Y38.0792 
G01 X101.2498 Y37.9408 
G01 X101.2206 Y37.7939 
G01 X101.2206 Y37.6441 
G01 X101.2498 Y37.4972 
G01 X101.3071 Y37.3588 
G01 X101.3904 Y37.2343 
G01 X101.4963 Y37.1284 
G01 X101.6208 Y37.0451 
G01 X101.7592 Y36.9878 
G01 X101.9061 Y36.9586 
G01 X102.0559 Y36.9586 
G01 X102.2028 Y36.9878 
G01 X102.3412 Y37.0451 
G01 X102.4657 Y37.1284 
G01 X102.5716 Y37.2343 
G01 X102.6549 Y37.3588 
G01 X102.6574 Y37.3650 
G01 X112.8616 Y37.3650 
G00 Z1.0000  
G00 X13.2350 Y42.3106 
G01 Z-0.0500 F64    
G01 X11.4104 Y40.4860 F128   
G01 X8.6556  Y40.4860 
G01 X7.5223  Y41.6194 
G01 X7.4564  Y41.6853 
G01 X7.3756  Y41.7319 
G01 X7.2856  Y41.7560 
G01 X3.0894  Y41.7560 
G01 X3.0869  Y41.7622 
G01 X3.0036  Y41.8867 
G01 X2.8977  Y41.9926 
G01 X2.7732  Y42.0759 
G01 X2.6348  Y42.1332 
G01 X2.4879  Y42.1624 
G01 X2.3381  Y42.1624 
G01 X2.1912  Y42.1332 
G01 X2.0528  Y42.0759 
G01 X1.9283  Y41.9926 
G01 X1.8224  Y41.8867 
G01 X1.7391  Y41.7622 
G01 X1.6818  Y41.6238 
G01 X1.6526  Y41.4769 
G01 X1.6526  Y41.3271 
G01 X1.6818  Y41.1802 
G01 X1.7391  Y41.0418 
G01 X1.8224  Y40.9173 
G01 X1.9283  Y40.8114 
G01 X2.0528  Y40.7281 
G01 X2.1912  Y40.6708 
G01 X2.3381  Y40.6416 
G01 X2.4879  Y40.6416 
G01 X2.6348  Y40.6708 
G01 X2.7732  Y40.7281 
G01 X2.8977  Y40.8114 
G01 X3.0036  Y40.9173 
G01 X3.0869  Y41.0418 
G01 X3.0894  Y41.0480 
G01 X7.0924  Y41.0480 
G01 X8.2916  Y39.8487 
G01 X8.3724  Y39.8021 
G01 X8.4624  Y39.7780 
G01 X11.6036 Y39.7780 
G01 X11.6936 Y39.8021 
G01 X11.7744 Y39.8487 
G01 X11.8403 Y39.9146 
G01 X13.8723 Y41.9466 
G01 X13.9189 Y42.0274 
G01 X13.9430 Y42.1174 
G01 X13.9430 Y47.9646 
G01 X13.9492 Y47.9671 
G01 X14.0737 Y48.0504 
G01 X14.1796 Y48.1563 
G01 X14.2629 Y48.2808 
G01 X14.3202 Y48.4192 
G01 X14.3494 Y48.5661 
G01 X14.3494 Y48.7159 
G01 X14.3202 Y48.8628 
G01 X14.2629 Y49.0012 
G01 X14.1796 Y49.1257 
G01 X14.0737 Y49.2316 
G01 X13.9492 Y49.3149 
G01 X13.8108 Y49.3722 
G01 X13.6639 Y49.4014 
G01 X13.5141 Y49.4014 
G01 X13.3672 Y49.3722 
G01 X13.2288 Y49.3149 
G01 X13.1043 Y49.2316 
G01 X12.9984 Y49.1257 
G01 X12.9151 Y49.0012 
G01 X12.8578 Y48.8628 
G01 X12.8286 Y48.7159 
G01 X12.8286 Y48.5661 
G01 X12.8578 Y48.4192 
G01 X12.9151 Y48.2808 
G01 X12.9984 Y48.1563 
G01 X13.1043 Y48.0504 
G01 X13.2288 Y47.9671 
G01 X13.2350 Y47.9646 
G01 X13.2350 Y42.3106 
G00 Z1.0000  
G00 X94.0800 Y41.2284 
G01 Z-0.0500 F64    
G01 X94.0800 Y41.3216 F128   
G01 X94.0559 Y41.4116 
G01 X94.0093 Y41.4924 
G01 X88.2316 Y47.2700 
G01 X88.2342 Y47.2762 
G01 X88.2634 Y47.4231 
G01 X88.2634 Y47.5729 
G01 X88.2342 Y47.7198 
G01 X88.1769 Y47.8582 
G01 X88.0936 Y47.9827 
G01 X87.9877 Y48.0886 
G01 X87.8632 Y48.1719 
G01 X87.7248 Y48.2292 
G01 X87.5779 Y48.2584 
G01 X87.4281 Y48.2584 
G01 X87.2812 Y48.2292 
G01 X87.1428 Y48.1719 
G01 X87.0183 Y48.0886 
G01 X86.9124 Y47.9827 
G01 X86.8291 Y47.8582 
G01 X86.7718 Y47.7198 
G01 X86.7426 Y47.5729 
G01 X86.7426 Y47.4231 
G01 X86.7718 Y47.2762 
G01 X86.8291 Y47.1378 
G01 X86.9124 Y47.0133 
G01 X87.0183 Y46.9074 
G01 X87.1428 Y46.8241 
G01 X87.2812 Y46.7668 
G01 X87.4281 Y46.7376 
G01 X87.5779 Y46.7376 
G01 X87.7248 Y46.7668 
G01 X87.7310 Y46.7694 
G01 X93.3720 Y41.1284 
G01 X93.3720 Y34.5854 
G01 X93.3658 Y34.5829 
G01 X93.2413 Y34.4996 
G01 X93.1354 Y34.3937 
G01 X93.0521 Y34.2692 
G01 X92.9948 Y34.1308 
G01 X92.9656 Y33.9839 
G01 X92.9656 Y33.8341 
G01 X92.9948 Y33.6872 
G01 X93.0521 Y33.5488 
G01 X93.1354 Y33.4243 
G01 X93.2413 Y33.3184 
G01 X93.3658 Y33.2351 
G01 X93.5042 Y33.1778 
G01 X93.6511 Y33.1486 
G01 X93.8009 Y33.1486 
G01 X93.9478 Y33.1778 
G01 X94.0862 Y33.2351 
G01 X94.2107 Y33.3184 
G01 X94.3166 Y33.4243 
G01 X94.3999 Y33.5488 
G01 X94.4572 Y33.6872 
G01 X94.4864 Y33.8341 
G01 X94.4864 Y33.9839 
G01 X94.4572 Y34.1308 
G01 X94.3999 Y34.2692 
G01 X94.3166 Y34.3937 
G01 X94.2107 Y34.4996 
G01 X94.0862 Y34.5829 
G01 X94.0800 Y34.5854 
G01 X94.0800 Y41.2284 
G00 Z1.0000  
G00 X120.8770 Y29.8254 
G01 Z-0.0500 F64    
G01 X123.3430 Y32.2914 F128   
G01 X123.3492 Y32.2888 
G01 X123.4961 Y32.2596 
G01 X123.6459 Y32.2596 
G01 X123.7928 Y32.2888 
G01 X123.9312 Y32.3461 
G01 X124.0557 Y32.4294 
G01 X124.1616 Y32.5353 
G01 X124.2449 Y32.6598 
G01 X124.3022 Y32.7982 
G01 X124.3314 Y32.9451 
G01 X124.3314 Y33.0949 
G01 X124.3022 Y33.2418 
G01 X124.2449 Y33.3802 
G01 X124.1616 Y33.5047 
G01 X124.0557 Y33.6106 
G01 X123.9312 Y33.6939 
G01 X123.9250 Y33.6964 
G01 X123.9250 Y36.3024 
G01 X124.3623 Y36.7396 
G01 X124.4089 Y36.8204 
G01 X124.4330 Y36.9104 
G01 X124.4330 Y59.8636 
G01 X124.4089 Y59.9536 
G01 X124.3623 Y60.0344 
G01 X122.0136 Y62.3830 
G01 X122.0162 Y62.3892 
G01 X122.0454 Y62.5361 
G01 X122.0454 Y62.6859 
G01 X122.0162 Y62.8328 
G01 X121.9589 Y62.9712 
G01 X121.8756 Y63.0957 
G01 X121.7697 Y63.2016 
G01 X121.6452 Y63.2849 
G01 X121.5068 Y63.3422 
G01 X121.3599 Y63.3714 
G01 X121.2101 Y63.3714 
G01 X121.0632 Y63.3422 
G01 X120.9248 Y63.2849 
G01 X120.8003 Y63.2016 
G01 X120.6944 Y63.0957 
G01 X120.6111 Y62.9712 
G01 X120.5538 Y62.8328 
G01 X120.5246 Y62.6859 
G01 X120.5246 Y62.5361 
G01 X120.5538 Y62.3892 
G01 X120.6111 Y62.2508 
G01 X120.6944 Y62.1263 
G01 X120.8003 Y62.0204 
G01 X120.9248 Y61.9371 
G01 X121.0632 Y61.8798 
G01 X121.2101 Y61.8506 
G01 X121.3599 Y61.8506 
G01 X121.5068 Y61.8798 
G01 X121.5130 Y61.8824 
G01 X123.7250 Y59.6704 
G01 X123.7250 Y37.1036 
G01 X123.3536 Y36.7323 
G01 X123.2877 Y36.6664 
G01 X123.2411 Y36.5856 
G01 X123.2170 Y36.4956 
G01 X123.2170 Y33.6964 
G01 X123.2108 Y33.6939 
G01 X123.0863 Y33.6106 
G01 X122.9804 Y33.5047 
G01 X122.8971 Y33.3802 
G01 X122.8398 Y33.2418 
G01 X122.8106 Y33.0949 
G01 X122.8106 Y32.9451 
G01 X122.8398 Y32.7982 
G01 X122.8424 Y32.7920 
G01 X120.2397 Y30.1894 
G01 X120.1931 Y30.1086 
G01 X120.1690 Y30.0186 
G01 X120.1690 Y22.2664 
G01 X120.1628 Y22.2639 
G01 X120.0383 Y22.1806 
G01 X119.9324 Y22.0747 
G01 X119.8491 Y21.9502 
G01 X119.7918 Y21.8118 
G01 X119.7626 Y21.6649 
G01 X119.7626 Y21.5151 
G01 X119.7918 Y21.3682 
G01 X119.8491 Y21.2298 
G01 X119.9324 Y21.1053 
G01 X120.0383 Y20.9994 
G01 X120.1628 Y20.9161 
G01 X120.3012 Y20.8588 
G01 X120.4481 Y20.8296 
G01 X120.5979 Y20.8296 
G01 X120.7448 Y20.8588 
G01 X120.8832 Y20.9161 
G01 X121.0077 Y20.9994 
G01 X121.1136 Y21.1053 
G01 X121.1969 Y21.2298 
G01 X121.2542 Y21.3682 
G01 X121.2834 Y21.5151 
G01 X121.2834 Y21.6649 
G01 X121.2542 Y21.8118 
G01 X121.1969 Y21.9502 
G01 X121.1136 Y22.0747 
G01 X121.0077 Y22.1806 
G01 X120.8832 Y22.2639 
G01 X120.8770 Y22.2664 
G01 X120.8770 Y29.8254 
G00 Z1.0000  
G00 X111.1236 Y51.6112 
G01 Z-0.0500 F64    
G01 X106.3482 Y56.3866 F128   
G01 X106.3482 Y57.0629 
G01 X106.3275 Y57.1400 
G01 X106.2876 Y57.2092 
G01 X102.0966 Y61.4002 
G01 X102.0402 Y61.4566 
G01 X101.9710 Y61.4965 
G01 X101.8939 Y61.5172 
G01 X83.5261 Y61.5172 
G01 X83.4490 Y61.4965 
G01 X83.3798 Y61.4566 
G01 X82.6784 Y60.7552 
G01 X81.9136 Y60.7552 
G01 X80.7374 Y61.9314 
G01 X80.7512 Y61.9371 
G01 X80.8757 Y62.0204 
G01 X80.9816 Y62.1263 
G01 X81.0649 Y62.2508 
G01 X81.1222 Y62.3892 
G01 X81.1514 Y62.5361 
G01 X81.1514 Y62.6859 
G01 X81.1222 Y62.8328 
G01 X81.0649 Y62.9712 
G01 X80.9816 Y63.0957 
G01 X80.8757 Y63.2016 
G01 X80.7512 Y63.2849 
G01 X80.6128 Y63.3422 
G01 X80.4659 Y63.3714 
G01 X80.3161 Y63.3714 
G01 X80.1692 Y63.3422 
G01 X80.0308 Y63.2849 
G01 X79.9063 Y63.2016 
G01 X79.8004 Y63.0957 
G01 X79.7171 Y62.9712 
G01 X79.6598 Y62.8328 
G01 X79.6306 Y62.6859 
G01 X79.6306 Y62.5361 
G01 X79.6598 Y62.3892 
G01 X79.7171 Y62.2508 
G01 X79.8004 Y62.1263 
G01 X79.9063 Y62.0204 
G01 X80.0308 Y61.9371 
G01 X80.0878 Y61.9135 
G01 X80.0878 Y61.8091 
G01 X80.1085 Y61.7320 
G01 X80.1484 Y61.6628 
G01 X80.2048 Y61.6064 
G01 X81.6018 Y60.2094 
G01 X81.6710 Y60.1695 
G01 X81.7481 Y60.1488 
G01 X82.8439 Y60.1488 
G01 X82.9210 Y60.1695 
G01 X82.9902 Y60.2094 
G01 X83.0466 Y60.2658 
G01 X83.6916 Y60.9108 
G01 X101.7284 Y60.9108 
G01 X105.7418 Y56.8974 
G01 X105.7418 Y56.2211 
G01 X105.7625 Y56.1440 
G01 X105.8024 Y56.0748 
G01 X105.8588 Y56.0184 
G01 X110.7554 Y51.1218 
G01 X110.8118 Y51.0654 
G01 X110.8810 Y51.0255 
G01 X110.9581 Y51.0048 
G01 X113.7295 Y51.0048 
G01 X113.7531 Y50.9478 
G01 X113.8364 Y50.8233 
G01 X113.9423 Y50.7174 
G01 X114.0668 Y50.6341 
G01 X114.2052 Y50.5768 
G01 X114.3521 Y50.5476 
G01 X114.5019 Y50.5476 
G01 X114.6488 Y50.5768 
G01 X114.7872 Y50.6341 
G01 X114.9117 Y50.7174 
G01 X115.0176 Y50.8233 
G01 X115.1009 Y50.9478 
G01 X115.1582 Y51.0862 
G01 X115.1874 Y51.2331 
G01 X115.1874 Y51.3829 
G01 X115.1582 Y51.5298 
G01 X115.1009 Y51.6682 
G01 X115.0176 Y51.7927 
G01 X114.9117 Y51.8986 
G01 X114.7872 Y51.9819 
G01 X114.6488 Y52.0392 
G01 X114.5019 Y52.0684 
G01 X114.3521 Y52.0684 
G01 X114.2052 Y52.0392 
G01 X114.0668 Y51.9819 
G01 X113.9423 Y51.8986 
G01 X113.8364 Y51.7927 
G01 X113.7531 Y51.6682 
G01 X113.7295 Y51.6112 
G01 X111.1236 Y51.6112 
G00 Z1.0000  
G00 X42.1148 Y36.0035 
G01 Z-0.0500 F64    
G01 X42.0578 Y35.9799 F128   
G01 X41.9333 Y35.8966 
G01 X41.8274 Y35.7907 
G01 X41.7441 Y35.6662 
G01 X41.6868 Y35.5278 
G01 X41.6576 Y35.3809 
G01 X41.6576 Y35.2311 
G01 X41.6868 Y35.0842 
G01 X41.7441 Y34.9458 
G01 X41.8274 Y34.8213 
G01 X41.9333 Y34.7154 
G01 X42.0578 Y34.6321 
G01 X42.1962 Y34.5748 
G01 X42.3431 Y34.5456 
G01 X42.4929 Y34.5456 
G01 X42.6398 Y34.5748 
G01 X42.7782 Y34.6321 
G01 X42.9027 Y34.7154 
G01 X43.0086 Y34.8213 
G01 X43.0919 Y34.9458 
G01 X43.1492 Y35.0842 
G01 X43.1784 Y35.2311 
G01 X43.1784 Y35.3809 
G01 X43.1492 Y35.5278 
G01 X43.0919 Y35.6662 
G01 X43.0086 Y35.7907 
G01 X42.9027 Y35.8966 
G01 X42.7782 Y35.9799 
G01 X42.7212 Y36.0035 
G01 X42.7212 Y37.4025 
G01 X42.7782 Y37.4261 
G01 X42.9027 Y37.5094 
G01 X43.0086 Y37.6153 
G01 X43.0919 Y37.7398 
G01 X43.1492 Y37.8782 
G01 X43.1784 Y38.0251 
G01 X43.1784 Y38.1749 
G01 X43.1492 Y38.3218 
G01 X43.0919 Y38.4602 
G01 X43.0086 Y38.5847 
G01 X42.9027 Y38.6906 
G01 X42.7782 Y38.7739 
G01 X42.6398 Y38.8312 
G01 X42.4929 Y38.8604 
G01 X42.3431 Y38.8604 
G01 X42.1962 Y38.8312 
G01 X42.0578 Y38.7739 
G01 X41.9333 Y38.6906 
G01 X41.8274 Y38.5847 
G01 X41.7441 Y38.4602 
G01 X41.6868 Y38.3218 
G01 X41.6576 Y38.1749 
G01 X41.6576 Y38.0251 
G01 X41.6868 Y37.8782 
G01 X41.7441 Y37.7398 
G01 X41.8274 Y37.6153 
G01 X41.9333 Y37.5094 
G01 X42.0578 Y37.4261 
G01 X42.1148 Y37.4025 
G01 X42.1148 Y36.0035 
G00 Z1.0000  
G00 X23.5821 Y50.2428 
G01 Z-0.0500 F64    
G01 X23.6619 Y50.2428 F128   
G01 X23.7390 Y50.2635 
G01 X23.8082 Y50.3034 
G01 X25.5533 Y52.0485 
G01 X25.6302 Y52.0094 
G01 X25.7953 Y51.9557 
G01 X25.9669 Y51.9285 
G01 X26.1405 Y51.9285 
G01 X26.3120 Y51.9557 
G01 X26.4772 Y52.0094 
G01 X26.6319 Y52.0882 
G01 X26.7724 Y52.1903 
G01 X26.8952 Y52.3131 
G01 X26.9973 Y52.4536 
G01 X27.0762 Y52.6083 
G01 X27.1298 Y52.7735 
G01 X27.1570 Y52.9450 
G01 X27.1570 Y53.1187 
G01 X27.1298 Y53.2902 
G01 X27.0762 Y53.4554 
G01 X26.9973 Y53.6101 
G01 X26.8952 Y53.7506 
G01 X26.7724 Y53.8734 
G01 X26.6319 Y53.9755 
G01 X26.4772 Y54.0543 
G01 X26.3120 Y54.1080 
G01 X26.1405 Y54.1351 
G01 X25.9669 Y54.1351 
G01 X25.7953 Y54.1080 
G01 X25.6302 Y54.0543 
G01 X25.4754 Y53.9755 
G01 X25.3349 Y53.8734 
G01 X25.2121 Y53.7506 
G01 X25.1101 Y53.6101 
G01 X25.0312 Y53.4554 
G01 X24.9776 Y53.2902 
G01 X24.9504 Y53.1187 
G01 X24.9504 Y52.9450 
G01 X24.9776 Y52.7735 
G01 X25.0312 Y52.6083 
G01 X25.1069 Y52.4597 
G01 X23.4964 Y50.8492 
G01 X20.8905 Y50.8492 
G01 X20.8669 Y50.9062 
G01 X20.7836 Y51.0307 
G01 X20.6777 Y51.1366 
G01 X20.5532 Y51.2199 
G01 X20.4148 Y51.2772 
G01 X20.2679 Y51.3064 
G01 X20.1181 Y51.3064 
G01 X19.9712 Y51.2772 
G01 X19.8328 Y51.2199 
G01 X19.7083 Y51.1366 
G01 X19.6024 Y51.0307 
G01 X19.5191 Y50.9062 
G01 X19.4618 Y50.7678 
G01 X19.4326 Y50.6209 
G01 X19.4326 Y50.4711 
G01 X19.4618 Y50.3242 
G01 X19.5191 Y50.1858 
G01 X19.6024 Y50.0613 
G01 X19.7083 Y49.9554 
G01 X19.8328 Y49.8721 
G01 X19.9712 Y49.8148 
G01 X20.1181 Y49.7856 
G01 X20.2679 Y49.7856 
G01 X20.4148 Y49.8148 
G01 X20.5532 Y49.8721 
G01 X20.6777 Y49.9554 
G01 X20.7836 Y50.0613 
G01 X20.8669 Y50.1858 
G01 X20.8905 Y50.2428 
G01 X23.5821 Y50.2428 
G00 Z1.0000  
G00 X19.0992 Y32.8916 
G01 Z-0.0500 F64    
G01 X19.0992 Y40.9339 F128   
G01 X19.0785 Y41.0110 
G01 X19.0386 Y41.0802 
G01 X16.9636 Y43.1552 
G01 X16.9872 Y43.2122 
G01 X17.0164 Y43.3591 
G01 X17.0164 Y43.5089 
G01 X16.9872 Y43.6558 
G01 X16.9299 Y43.7942 
G01 X16.8466 Y43.9187 
G01 X16.7407 Y44.0246 
G01 X16.6162 Y44.1079 
G01 X16.4778 Y44.1652 
G01 X16.3309 Y44.1944 
G01 X16.1811 Y44.1944 
G01 X16.0342 Y44.1652 
G01 X15.8958 Y44.1079 
G01 X15.7713 Y44.0246 
G01 X15.6654 Y43.9187 
G01 X15.5821 Y43.7942 
G01 X15.5248 Y43.6558 
G01 X15.4956 Y43.5089 
G01 X15.4956 Y43.3591 
G01 X15.5248 Y43.2122 
G01 X15.5821 Y43.0738 
G01 X15.6654 Y42.9493 
G01 X15.7713 Y42.8434 
G01 X15.8958 Y42.7601 
G01 X16.0342 Y42.7028 
G01 X16.1811 Y42.6736 
G01 X16.3309 Y42.6736 
G01 X16.4778 Y42.7028 
G01 X16.5348 Y42.7264 
G01 X18.4928 Y40.7684 
G01 X18.4928 Y32.7261 
G01 X18.5135 Y32.6490 
G01 X18.5534 Y32.5798 
G01 X18.6098 Y32.5234 
G01 X19.6964 Y31.4368 
G01 X19.7118 Y31.4214 
G01 X19.7158 Y31.4012 
G01 X19.7731 Y31.2628 
G01 X19.8564 Y31.1383 
G01 X19.9623 Y31.0324 
G01 X20.0868 Y30.9491 
G01 X20.2252 Y30.8918 
G01 X20.3721 Y30.8626 
G01 X20.5219 Y30.8626 
G01 X20.6688 Y30.8918 
G01 X20.8072 Y30.9491 
G01 X20.9317 Y31.0324 
G01 X21.0376 Y31.1383 
G01 X21.1209 Y31.2628 
G01 X21.1782 Y31.4012 
G01 X21.2074 Y31.5481 
G01 X21.2074 Y31.6979 
G01 X21.1782 Y31.8448 
G01 X21.1209 Y31.9832 
G01 X21.0376 Y32.1077 
G01 X20.9317 Y32.2136 
G01 X20.8072 Y32.2969 
G01 X20.6688 Y32.3542 
G01 X20.5219 Y32.3834 
G01 X20.3721 Y32.3834 
G01 X20.2252 Y32.3542 
G01 X20.0868 Y32.2969 
G01 X19.9623 Y32.2136 
G01 X19.8697 Y32.1211 
G01 X19.0992 Y32.8916 
G00 Z1.0000  
G00 X21.6392 Y38.2284 
G01 Z-0.0500 F64    
G01 X22.2842 Y38.8734 F128   
G01 X22.3406 Y38.9298 
G01 X22.3805 Y38.9990 
G01 X22.4012 Y39.0761 
G01 X22.4012 Y40.1719 
G01 X22.3805 Y40.2490 
G01 X22.3406 Y40.3182 
G01 X18.2102 Y44.4486 
G01 X18.2102 Y46.0385 
G01 X18.2672 Y46.0621 
G01 X18.3917 Y46.1454 
G01 X18.4976 Y46.2513 
G01 X18.5809 Y46.3758 
G01 X18.6382 Y46.5142 
G01 X18.6674 Y46.6611 
G01 X18.6674 Y46.8109 
G01 X18.6382 Y46.9578 
G01 X18.5809 Y47.0962 
G01 X18.4976 Y47.2207 
G01 X18.3917 Y47.3266 
G01 X18.2672 Y47.4099 
G01 X18.1288 Y47.4672 
G01 X17.9819 Y47.4964 
G01 X17.8321 Y47.4964 
G01 X17.6852 Y47.4672 
G01 X17.5468 Y47.4099 
G01 X17.4223 Y47.3266 
G01 X17.3164 Y47.2207 
G01 X17.2331 Y47.0962 
G01 X17.1758 Y46.9578 
G01 X17.1466 Y46.8109 
G01 X17.1466 Y46.6611 
G01 X17.1758 Y46.5142 
G01 X17.2331 Y46.3758 
G01 X17.3164 Y46.2513 
G01 X17.4223 Y46.1454 
G01 X17.5468 Y46.0621 
G01 X17.6038 Y46.0385 
G01 X17.6038 Y44.2831 
G01 X17.6245 Y44.2060 
G01 X17.6644 Y44.1368 
G01 X17.7208 Y44.0804 
G01 X21.7948 Y40.0064 
G01 X21.7948 Y39.2416 
G01 X21.0934 Y38.5402 
G01 X21.0535 Y38.4710 
G01 X21.0328 Y38.3939 
G01 X21.0328 Y37.0195 
G01 X20.9758 Y36.9959 
G01 X20.8513 Y36.9126 
G01 X20.7454 Y36.8067 
G01 X20.6621 Y36.6822 
G01 X20.6048 Y36.5438 
G01 X20.5756 Y36.3969 
G01 X20.5756 Y36.2471 
G01 X20.6048 Y36.1002 
G01 X20.6621 Y35.9618 
G01 X20.7454 Y35.8373 
G01 X20.8513 Y35.7314 
G01 X20.9758 Y35.6481 
G01 X21.1142 Y35.5908 
G01 X21.2611 Y35.5616 
G01 X21.4109 Y35.5616 
G01 X21.5578 Y35.5908 
G01 X21.6962 Y35.6481 
G01 X21.8207 Y35.7314 
G01 X21.9266 Y35.8373 
G01 X22.0099 Y35.9618 
G01 X22.0672 Y36.1002 
G01 X22.0964 Y36.2471 
G01 X22.0964 Y36.3969 
G01 X22.0672 Y36.5438 
G01 X22.0099 Y36.6822 
G01 X21.9266 Y36.8067 
G01 X21.8207 Y36.9126 
G01 X21.6962 Y36.9959 
G01 X21.6392 Y37.0195 
G01 X21.6392 Y38.2284 
G00 Z1.0000  
G00 X34.6724 Y30.1482 
G01 Z-0.0500 F64    
G01 X27.8116 Y30.1482 F128   
G01 X26.7426 Y31.2172 
G01 X26.7662 Y31.2742 
G01 X26.7954 Y31.4211 
G01 X26.7954 Y31.5709 
G01 X26.7662 Y31.7178 
G01 X26.7089 Y31.8562 
G01 X26.6256 Y31.9807 
G01 X26.5197 Y32.0866 
G01 X26.3952 Y32.1699 
G01 X26.2568 Y32.2272 
G01 X26.1099 Y32.2564 
G01 X25.9601 Y32.2564 
G01 X25.8132 Y32.2272 
G01 X25.6748 Y32.1699 
G01 X25.5503 Y32.0866 
G01 X25.4444 Y31.9807 
G01 X25.3611 Y31.8562 
G01 X25.3038 Y31.7178 
G01 X25.2746 Y31.5709 
G01 X25.2746 Y31.4211 
G01 X25.3038 Y31.2742 
G01 X25.3611 Y31.1358 
G01 X25.4444 Y31.0113 
G01 X25.5503 Y30.9054 
G01 X25.6748 Y30.8221 
G01 X25.8132 Y30.7648 
G01 X25.9601 Y30.7356 
G01 X26.1099 Y30.7356 
G01 X26.2568 Y30.7648 
G01 X26.3138 Y30.7884 
G01 X27.4998 Y29.6024 
G01 X27.5690 Y29.5625 
G01 X27.6461 Y29.5418 
G01 X34.8379 Y29.5418 
G01 X34.9150 Y29.5625 
G01 X34.9842 Y29.6024 
G01 X35.0406 Y29.6588 
G01 X38.8372 Y33.4554 
G01 X38.8942 Y33.4318 
G01 X39.0411 Y33.4026 
G01 X39.1909 Y33.4026 
G01 X39.3378 Y33.4318 
G01 X39.4762 Y33.4891 
G01 X39.6007 Y33.5724 
G01 X39.7066 Y33.6783 
G01 X39.7899 Y33.8028 
G01 X39.8472 Y33.9412 
G01 X39.8764 Y34.0881 
G01 X39.8764 Y34.2379 
G01 X39.8472 Y34.3848 
G01 X39.7899 Y34.5232 
G01 X39.7066 Y34.6477 
G01 X39.6007 Y34.7536 
G01 X39.4762 Y34.8369 
G01 X39.3378 Y34.8942 
G01 X39.1909 Y34.9234 
G01 X39.0411 Y34.9234 
G01 X38.8942 Y34.8942 
G01 X38.7558 Y34.8369 
G01 X38.6313 Y34.7536 
G01 X38.5254 Y34.6477 
G01 X38.4421 Y34.5232 
G01 X38.3848 Y34.3848 
G01 X38.3556 Y34.2379 
G01 X38.3556 Y34.0881 
G01 X38.3848 Y33.9412 
G01 X38.4084 Y33.8842 
G01 X34.6724 Y30.1482 
G00 Z1.0000  
G00 X34.8446 Y65.9400 
G01 Z-0.0500 F64    
G01 X34.9346 Y65.9641 F128   
G01 X35.0154 Y66.0107 
G01 X35.3256 Y66.3210 
G01 X36.4956 Y66.3210 
G01 X36.5856 Y66.3451 
G01 X36.6664 Y66.3917 
G01 X38.8880 Y68.6134 
G01 X38.8942 Y68.6108 
G01 X39.0411 Y68.5816 
G01 X39.1909 Y68.5816 
G01 X39.3378 Y68.6108 
G01 X39.4762 Y68.6681 
G01 X39.6007 Y68.7514 
G01 X39.7066 Y68.8573 
G01 X39.7899 Y68.9818 
G01 X39.8472 Y69.1202 
G01 X39.8764 Y69.2671 
G01 X39.8764 Y69.4169 
G01 X39.8472 Y69.5638 
G01 X39.7899 Y69.7022 
G01 X39.7066 Y69.8267 
G01 X39.6007 Y69.9326 
G01 X39.4762 Y70.0159 
G01 X39.3378 Y70.0732 
G01 X39.1909 Y70.1024 
G01 X39.0411 Y70.1024 
G01 X38.8942 Y70.0732 
G01 X38.7558 Y70.0159 
G01 X38.6313 Y69.9326 
G01 X38.5254 Y69.8267 
G01 X38.4421 Y69.7022 
G01 X38.3848 Y69.5638 
G01 X38.3556 Y69.4169 
G01 X38.3556 Y69.2671 
G01 X38.3848 Y69.1202 
G01 X38.3874 Y69.1140 
G01 X36.3024 Y67.0290 
G01 X35.1324 Y67.0290 
G01 X35.0424 Y67.0049 
G01 X34.9616 Y66.9583 
G01 X34.8957 Y66.8924 
G01 X34.7650 Y66.7617 
G01 X34.7536 Y66.7787 
G01 X34.6477 Y66.8846 
G01 X34.5232 Y66.9679 
G01 X34.3848 Y67.0252 
G01 X34.2379 Y67.0544 
G01 X34.0881 Y67.0544 
G01 X33.9412 Y67.0252 
G01 X33.8028 Y66.9679 
G01 X33.6783 Y66.8846 
G01 X33.5724 Y66.7787 
G01 X33.4891 Y66.6542 
G01 X33.4318 Y66.5158 
G01 X33.4026 Y66.3689 
G01 X33.4026 Y66.2191 
G01 X33.4318 Y66.0722 
G01 X33.4891 Y65.9338 
G01 X33.5724 Y65.8093 
G01 X33.6783 Y65.7034 
G01 X33.8028 Y65.6201 
G01 X33.9412 Y65.5628 
G01 X34.0881 Y65.5336 
G01 X34.2379 Y65.5336 
G01 X34.3848 Y65.5628 
G01 X34.5232 Y65.6201 
G01 X34.6477 Y65.7034 
G01 X34.7536 Y65.8093 
G01 X34.8369 Y65.9338 
G01 X34.8394 Y65.9400 
G01 X34.8446 Y65.9400 
G00 Z1.0000  
G00 X23.4754 Y8.5360  
G01 Z-0.0500 F64    
G01 X24.3547 Y7.6566  F128   
G01 X24.4206 Y7.5907  
G01 X24.5014 Y7.5441  
G01 X24.5914 Y7.5200  
G01 X29.6376 Y7.5200  
G01 X29.7276 Y7.5441  
G01 X29.8084 Y7.5907  
G01 X33.2936 Y11.0760 
G01 X34.5244 Y11.0760 
G01 X35.2364 Y10.3640 
G01 X35.1912 Y10.2754 
G01 X35.1376 Y10.1102 
G01 X35.1104 Y9.9387  
G01 X35.1104 Y9.7650  
G01 X35.1376 Y9.5935  
G01 X35.1912 Y9.4283  
G01 X35.2701 Y9.2736  
G01 X35.3721 Y9.1331  
G01 X35.4949 Y9.0103  
G01 X35.6354 Y8.9082  
G01 X35.7902 Y8.8294  
G01 X35.9553 Y8.7757  
G01 X36.1269 Y8.7485  
G01 X36.3005 Y8.7485  
G01 X36.4720 Y8.7757  
G01 X36.6372 Y8.8294  
G01 X36.7919 Y8.9082  
G01 X36.9324 Y9.0103  
G01 X37.0552 Y9.1331  
G01 X37.1573 Y9.2736  
G01 X37.2362 Y9.4283  
G01 X37.2898 Y9.5935  
G01 X37.3170 Y9.7650  
G01 X37.3170 Y9.9387  
G01 X37.2898 Y10.1102 
G01 X37.2362 Y10.2754 
G01 X37.1573 Y10.4301 
G01 X37.0552 Y10.5706 
G01 X36.9324 Y10.6934 
G01 X36.7919 Y10.7955 
G01 X36.6372 Y10.8743 
G01 X36.4720 Y10.9280 
G01 X36.3005 Y10.9551 
G01 X36.1269 Y10.9551 
G01 X35.9553 Y10.9280 
G01 X35.7902 Y10.8743 
G01 X35.7485 Y10.8531 
G01 X34.8884 Y11.7133 
G01 X34.8076 Y11.7599 
G01 X34.7176 Y11.7840 
G01 X33.1004 Y11.7840 
G01 X33.0104 Y11.7599 
G01 X32.9296 Y11.7133 
G01 X32.8637 Y11.6474 
G01 X29.4444 Y8.2280  
G01 X24.7846 Y8.2280  
G01 X23.8394 Y9.1733  
G01 X23.7586 Y9.2199  
G01 X23.6686 Y9.2440  
G01 X19.4724 Y9.2440  
G01 X19.4699 Y9.2502  
G01 X19.3866 Y9.3747  
G01 X19.2807 Y9.4806  
G01 X19.1562 Y9.5639  
G01 X19.0178 Y9.6212  
G01 X18.8709 Y9.6504  
G01 X18.7211 Y9.6504  
G01 X18.5742 Y9.6212  
G01 X18.4358 Y9.5639  
G01 X18.3113 Y9.4806  
G01 X18.2054 Y9.3747  
G01 X18.1221 Y9.2502  
G01 X18.0648 Y9.1118  
G01 X18.0356 Y8.9649  
G01 X18.0356 Y8.8151  
G01 X18.0648 Y8.6682  
G01 X18.1221 Y8.5298  
G01 X18.2054 Y8.4053  
G01 X18.3113 Y8.2994  
G01 X18.4358 Y8.2161  
G01 X18.5742 Y8.1588  
G01 X18.7211 Y8.1296  
G01 X18.8709 Y8.1296  
G01 X19.0178 Y8.1588  
G01 X19.1562 Y8.2161  
G01 X19.2807 Y8.2994  
G01 X19.3866 Y8.4053  
G01 X19.4699 Y8.5298  
G01 X19.4724 Y8.5360  
G01 X23.4754 Y8.5360  
G00 Z1.0000  
G00 X66.4480 Y20.7206 
G01 Z-0.0500 F64    
G01 X66.2680 Y20.5406 F128   
G01 X66.2618 Y20.5432 
G01 X66.1149 Y20.5724 
G01 X65.9651 Y20.5724 
G01 X65.8182 Y20.5432 
G01 X65.6798 Y20.4859 
G01 X65.5553 Y20.4026 
G01 X65.4494 Y20.2967 
G01 X65.3661 Y20.1722 
G01 X65.3088 Y20.0338 
G01 X65.2796 Y19.8869 
G01 X65.2796 Y19.7371 
G01 X65.3088 Y19.5902 
G01 X65.3661 Y19.4518 
G01 X65.4494 Y19.3273 
G01 X65.5553 Y19.2214 
G01 X65.6798 Y19.1381 
G01 X65.8182 Y19.0808 
G01 X65.9651 Y19.0516 
G01 X66.1149 Y19.0516 
G01 X66.2618 Y19.0808 
G01 X66.4002 Y19.1381 
G01 X66.5247 Y19.2214 
G01 X66.6306 Y19.3273 
G01 X66.7139 Y19.4518 
G01 X66.7712 Y19.5902 
G01 X66.8004 Y19.7371 
G01 X66.8004 Y19.8869 
G01 X66.7712 Y20.0338 
G01 X66.7686 Y20.0400 
G01 X67.0853 Y20.3566 
G01 X67.1319 Y20.4374 
G01 X67.1560 Y20.5274 
G01 X67.1560 Y22.5646 
G01 X67.1622 Y22.5671 
G01 X67.2867 Y22.6504 
G01 X67.3926 Y22.7563 
G01 X67.4759 Y22.8808 
G01 X67.5332 Y23.0192 
G01 X67.5624 Y23.1661 
G01 X67.5624 Y23.3159 
G01 X67.5332 Y23.4628 
G01 X67.4759 Y23.6012 
G01 X67.3926 Y23.7257 
G01 X67.2867 Y23.8316 
G01 X67.1622 Y23.9149 
G01 X67.0238 Y23.9722 
G01 X66.8769 Y24.0014 
G01 X66.7271 Y24.0014 
G01 X66.5802 Y23.9722 
G01 X66.4418 Y23.9149 
G01 X66.3173 Y23.8316 
G01 X66.2114 Y23.7257 
G01 X66.1281 Y23.6012 
G01 X66.0708 Y23.4628 
G01 X66.0416 Y23.3159 
G01 X66.0416 Y23.1661 
G01 X66.0708 Y23.0192 
G01 X66.1281 Y22.8808 
G01 X66.2114 Y22.7563 
G01 X66.3173 Y22.6504 
G01 X66.4418 Y22.5671 
G01 X66.4480 Y22.5646 
G01 X66.4480 Y20.7206 
G00 Z1.0000  
G00 X26.3515 Y5.6372  
G01 Z-0.0500 F64    
G01 X26.3279 Y5.6942  F128   
G01 X26.2446 Y5.8187  
G01 X26.1387 Y5.9246  
G01 X26.0142 Y6.0079  
G01 X25.8758 Y6.0652  
G01 X25.7289 Y6.0944  
G01 X25.5791 Y6.0944  
G01 X25.4322 Y6.0652  
G01 X25.2938 Y6.0079  
G01 X25.1693 Y5.9246  
G01 X25.0634 Y5.8187  
G01 X24.9801 Y5.6942  
G01 X24.9228 Y5.5558  
G01 X24.8936 Y5.4089  
G01 X24.8936 Y5.2591  
G01 X24.9228 Y5.1122  
G01 X24.9801 Y4.9738  
G01 X25.0634 Y4.8493  
G01 X25.1693 Y4.7434  
G01 X25.2938 Y4.6601  
G01 X25.4322 Y4.6028  
G01 X25.5791 Y4.5736  
G01 X25.7289 Y4.5736  
G01 X25.8758 Y4.6028  
G01 X26.0142 Y4.6601  
G01 X26.1387 Y4.7434  
G01 X26.2446 Y4.8493  
G01 X26.3279 Y4.9738  
G01 X26.3515 Y5.0308  
G01 X31.0525 Y5.0308  
G01 X31.0761 Y4.9738  
G01 X31.1594 Y4.8493  
G01 X31.2653 Y4.7434  
G01 X31.3898 Y4.6601  
G01 X31.5282 Y4.6028  
G01 X31.6751 Y4.5736  
G01 X31.8249 Y4.5736  
G01 X31.9718 Y4.6028  
G01 X32.1102 Y4.6601  
G01 X32.2347 Y4.7434  
G01 X32.3406 Y4.8493  
G01 X32.4239 Y4.9738  
G01 X32.4812 Y5.1122  
G01 X32.5104 Y5.2591  
G01 X32.5104 Y5.4089  
G01 X32.4812 Y5.5558  
G01 X32.4239 Y5.6942  
G01 X32.3406 Y5.8187  
G01 X32.2347 Y5.9246  
G01 X32.1102 Y6.0079  
G01 X31.9718 Y6.0652  
G01 X31.8249 Y6.0944  
G01 X31.6751 Y6.0944  
G01 X31.5282 Y6.0652  
G01 X31.3898 Y6.0079  
G01 X31.2653 Y5.9246  
G01 X31.1594 Y5.8187  
G01 X31.0761 Y5.6942  
G01 X31.0525 Y5.6372  
G01 X26.3515 Y5.6372  
G00 Z1.0000  
G00 X42.0769 Y23.4172 
G01 Z-0.0500 F64    
G01 X41.9971 Y23.4172 F128   
G01 X41.9200 Y23.3965 
G01 X41.8508 Y23.3566 
G01 X37.9978 Y19.5036 
G01 X37.9408 Y19.5272 
G01 X37.7939 Y19.5564 
G01 X37.6441 Y19.5564 
G01 X37.4972 Y19.5272 
G01 X37.3588 Y19.4699 
G01 X37.2343 Y19.3866 
G01 X37.1284 Y19.2807 
G01 X37.0451 Y19.1562 
G01 X36.9878 Y19.0178 
G01 X36.9586 Y18.8709 
G01 X36.9586 Y18.7211 
G01 X36.9878 Y18.5742 
G01 X37.0451 Y18.4358 
G01 X37.1284 Y18.3113 
G01 X37.2343 Y18.2054 
G01 X37.3588 Y18.1221 
G01 X37.4972 Y18.0648 
G01 X37.6441 Y18.0356 
G01 X37.7939 Y18.0356 
G01 X37.9408 Y18.0648 
G01 X38.0792 Y18.1221 
G01 X38.2037 Y18.2054 
G01 X38.3096 Y18.3113 
G01 X38.3929 Y18.4358 
G01 X38.4502 Y18.5742 
G01 X38.4794 Y18.7211 
G01 X38.4794 Y18.8709 
G01 X38.4502 Y19.0178 
G01 X38.4266 Y19.0748 
G01 X42.1626 Y22.8108 
G01 X45.0225 Y22.8108 
G01 X45.0461 Y22.7538 
G01 X45.1294 Y22.6293 
G01 X45.2353 Y22.5234 
G01 X45.3598 Y22.4401 
G01 X45.4982 Y22.3828 
G01 X45.6451 Y22.3536 
G01 X45.7949 Y22.3536 
G01 X45.9418 Y22.3828 
G01 X46.0802 Y22.4401 
G01 X46.2047 Y22.5234 
G01 X46.3106 Y22.6293 
G01 X46.3939 Y22.7538 
G01 X46.4512 Y22.8922 
G01 X46.4804 Y23.0391 
G01 X46.4804 Y23.1889 
G01 X46.4512 Y23.3358 
G01 X46.3939 Y23.4742 
G01 X46.3106 Y23.5987 
G01 X46.2047 Y23.7046 
G01 X46.0802 Y23.7879 
G01 X45.9418 Y23.8452 
G01 X45.7949 Y23.8744 
G01 X45.6451 Y23.8744 
G01 X45.4982 Y23.8452 
G01 X45.3598 Y23.7879 
G01 X45.2353 Y23.7046 
G01 X45.1294 Y23.5987 
G01 X45.0461 Y23.4742 
G01 X45.0225 Y23.4172 
G01 X42.0769 Y23.4172 
G00 Z1.0000  
G00 X121.9692 Y29.3384 
G01 Z-0.0500 F64    
G01 X125.5352 Y32.9044 F128   
G01 X125.5916 Y32.9608 
G01 X125.6315 Y33.0300 
G01 X125.6454 Y33.0817 
G01 X125.7092 Y33.1081 
G01 X125.8337 Y33.1914 
G01 X125.9396 Y33.2973 
G01 X126.0229 Y33.4218 
G01 X126.0802 Y33.5602 
G01 X126.1094 Y33.7071 
G01 X126.1094 Y33.8569 
G01 X126.0802 Y34.0038 
G01 X126.0229 Y34.1422 
G01 X125.9396 Y34.2667 
G01 X125.8337 Y34.3726 
G01 X125.7092 Y34.4559 
G01 X125.5708 Y34.5132 
G01 X125.4239 Y34.5424 
G01 X125.2741 Y34.5424 
G01 X125.1272 Y34.5132 
G01 X124.9888 Y34.4559 
G01 X124.8643 Y34.3726 
G01 X124.7584 Y34.2667 
G01 X124.6751 Y34.1422 
G01 X124.6178 Y34.0038 
G01 X124.5886 Y33.8569 
G01 X124.5886 Y33.7071 
G01 X124.6178 Y33.5602 
G01 X124.6751 Y33.4218 
G01 X124.7584 Y33.2973 
G01 X124.8643 Y33.1914 
G01 X124.9244 Y33.1512 
G01 X121.4234 Y29.6502 
G01 X121.3835 Y29.5810 
G01 X121.3628 Y29.5039 
G01 X121.3628 Y16.0645 
G01 X121.3058 Y16.0409 
G01 X121.1813 Y15.9576 
G01 X121.0754 Y15.8517 
G01 X120.9921 Y15.7272 
G01 X120.9348 Y15.5888 
G01 X120.9056 Y15.4419 
G01 X120.9056 Y15.2921 
G01 X120.9348 Y15.1452 
G01 X120.9921 Y15.0068 
G01 X121.0754 Y14.8823 
G01 X121.1813 Y14.7764 
G01 X121.3058 Y14.6931 
G01 X121.4442 Y14.6358 
G01 X121.5911 Y14.6066 
G01 X121.7409 Y14.6066 
G01 X121.8878 Y14.6358 
G01 X122.0262 Y14.6931 
G01 X122.1507 Y14.7764 
G01 X122.2566 Y14.8823 
G01 X122.3399 Y15.0068 
G01 X122.3972 Y15.1452 
G01 X122.4264 Y15.2921 
G01 X122.4264 Y15.4419 
G01 X122.3972 Y15.5888 
G01 X122.3399 Y15.7272 
G01 X122.2566 Y15.8517 
G01 X122.1507 Y15.9576 
G01 X122.0262 Y16.0409 
G01 X121.9692 Y16.0645 
G01 X121.9692 Y29.3384 
G00 Z1.0000  
G00 X85.3932 Y34.6311 
G01 Z-0.0500 F64    
G01 X85.3932 Y34.7109 F128   
G01 X85.3725 Y34.7880 
G01 X85.3326 Y34.8572 
G01 X84.6546 Y35.5352 
G01 X84.6782 Y35.5922 
G01 X84.7074 Y35.7391 
G01 X84.7074 Y35.8889 
G01 X84.6782 Y36.0358 
G01 X84.6209 Y36.1742 
G01 X84.5376 Y36.2987 
G01 X84.4317 Y36.4046 
G01 X84.3072 Y36.4879 
G01 X84.1688 Y36.5452 
G01 X84.0219 Y36.5744 
G01 X83.8721 Y36.5744 
G01 X83.7252 Y36.5452 
G01 X83.5868 Y36.4879 
G01 X83.4623 Y36.4046 
G01 X83.3564 Y36.2987 
G01 X83.2731 Y36.1742 
G01 X83.2158 Y36.0358 
G01 X83.1866 Y35.8889 
G01 X83.1866 Y35.7391 
G01 X83.2158 Y35.5922 
G01 X83.2731 Y35.4538 
G01 X83.3564 Y35.3293 
G01 X83.4623 Y35.2234 
G01 X83.5868 Y35.1401 
G01 X83.7252 Y35.0828 
G01 X83.8721 Y35.0536 
G01 X84.0219 Y35.0536 
G01 X84.1688 Y35.0828 
G01 X84.2258 Y35.1064 
G01 X84.7868 Y34.5454 
G01 X84.7868 Y27.4945 
G01 X84.7298 Y27.4709 
G01 X84.6053 Y27.3876 
G01 X84.4994 Y27.2817 
G01 X84.4161 Y27.1572 
G01 X84.3588 Y27.0188 
G01 X84.3296 Y26.8719 
G01 X84.3296 Y26.7221 
G01 X84.3588 Y26.5752 
G01 X84.4161 Y26.4368 
G01 X84.4994 Y26.3123 
G01 X84.6053 Y26.2064 
G01 X84.7298 Y26.1231 
G01 X84.8682 Y26.0658 
G01 X85.0151 Y26.0366 
G01 X85.1649 Y26.0366 
G01 X85.3118 Y26.0658 
G01 X85.4502 Y26.1231 
G01 X85.5747 Y26.2064 
G01 X85.6806 Y26.3123 
G01 X85.7639 Y26.4368 
G01 X85.8212 Y26.5752 
G01 X85.8504 Y26.7221 
G01 X85.8504 Y26.8719 
G01 X85.8212 Y27.0188 
G01 X85.7639 Y27.1572 
G01 X85.6806 Y27.2817 
G01 X85.5747 Y27.3876 
G01 X85.4502 Y27.4709 
G01 X85.3932 Y27.4945 
G01 X85.3932 Y34.6311 
G00 Z1.0000  
G00 X71.5881 Y37.2888 
G01 Z-0.0500 F64    
G01 X71.6679 Y37.2888 F128   
G01 X71.7450 Y37.3095 
G01 X71.8142 Y37.3494 
G01 X76.3533 Y41.8885 
G01 X76.4302 Y41.8494 
G01 X76.5953 Y41.7957 
G01 X76.7669 Y41.7685 
G01 X76.9405 Y41.7685 
G01 X77.1120 Y41.7957 
G01 X77.2772 Y41.8494 
G01 X77.4319 Y41.9282 
G01 X77.5724 Y42.0303 
G01 X77.6952 Y42.1531 
G01 X77.7973 Y42.2936 
G01 X77.8762 Y42.4483 
G01 X77.9298 Y42.6135 
G01 X77.9570 Y42.7850 
G01 X77.9570 Y42.9587 
G01 X77.9298 Y43.1302 
G01 X77.8762 Y43.2954 
G01 X77.7973 Y43.4501 
G01 X77.6952 Y43.5906 
G01 X77.5724 Y43.7134 
G01 X77.4319 Y43.8155 
G01 X77.2772 Y43.8943 
G01 X77.1120 Y43.9480 
G01 X76.9405 Y43.9751 
G01 X76.7669 Y43.9751 
G01 X76.5953 Y43.9480 
G01 X76.4302 Y43.8943 
G01 X76.2754 Y43.8155 
G01 X76.1349 Y43.7134 
G01 X76.0121 Y43.5906 
G01 X75.9101 Y43.4501 
G01 X75.8312 Y43.2954 
G01 X75.7776 Y43.1302 
G01 X75.7504 Y42.9587 
G01 X75.7504 Y42.7850 
G01 X75.7776 Y42.6135 
G01 X75.8312 Y42.4483 
G01 X75.9069 Y42.2997 
G01 X71.5024 Y37.8952 
G01 X65.5945 Y37.8952 
G01 X65.5709 Y37.9522 
G01 X65.4876 Y38.0767 
G01 X65.3817 Y38.1826 
G01 X65.2572 Y38.2659 
G01 X65.1188 Y38.3232 
G01 X64.9719 Y38.3524 
G01 X64.8221 Y38.3524 
G01 X64.6752 Y38.3232 
G01 X64.5368 Y38.2659 
G01 X64.4123 Y38.1826 
G01 X64.3064 Y38.0767 
G01 X64.2231 Y37.9522 
G01 X64.1658 Y37.8138 
G01 X64.1366 Y37.6669 
G01 X64.1366 Y37.5171 
G01 X64.1658 Y37.3702 
G01 X64.2231 Y37.2318 
G01 X64.3064 Y37.1073 
G01 X64.4123 Y37.0014 
G01 X64.5368 Y36.9181 
G01 X64.6752 Y36.8608 
G01 X64.8221 Y36.8316 
G01 X64.9719 Y36.8316 
G01 X65.1188 Y36.8608 
G01 X65.2572 Y36.9181 
G01 X65.3817 Y37.0014 
G01 X65.4876 Y37.1073 
G01 X65.5709 Y37.2318 
G01 X65.5945 Y37.2888 
G01 X71.5881 Y37.2888 
G00 Z1.0000  
G00 X82.3452 Y40.2191 
G01 Z-0.0500 F64    
G01 X82.3452 Y40.2989 F128   
G01 X82.3245 Y40.3760 
G01 X82.2846 Y40.4452 
G01 X80.3707 Y42.3591 
G01 X80.4162 Y42.4483 
G01 X80.4698 Y42.6135 
G01 X80.4970 Y42.7850 
G01 X80.4970 Y42.9587 
G01 X80.4698 Y43.1302 
G01 X80.4162 Y43.2954 
G01 X80.3373 Y43.4501 
G01 X80.2352 Y43.5906 
G01 X80.1124 Y43.7134 
G01 X79.9719 Y43.8155 
G01 X79.8172 Y43.8943 
G01 X79.6520 Y43.9480 
G01 X79.4805 Y43.9751 
G01 X79.3069 Y43.9751 
G01 X79.1353 Y43.9480 
G01 X78.9702 Y43.8943 
G01 X78.8154 Y43.8155 
G01 X78.6749 Y43.7134 
G01 X78.5521 Y43.5906 
G01 X78.4501 Y43.4501 
G01 X78.3712 Y43.2954 
G01 X78.3176 Y43.1302 
G01 X78.2904 Y42.9587 
G01 X78.2904 Y42.7850 
G01 X78.3176 Y42.6135 
G01 X78.3712 Y42.4483 
G01 X78.4501 Y42.2936 
G01 X78.5521 Y42.1531 
G01 X78.6749 Y42.0303 
G01 X78.8154 Y41.9282 
G01 X78.9702 Y41.8494 
G01 X79.1353 Y41.7957 
G01 X79.3069 Y41.7685 
G01 X79.4805 Y41.7685 
G01 X79.6520 Y41.7957 
G01 X79.8172 Y41.8494 
G01 X79.9534 Y41.9188 
G01 X81.7388 Y40.1334 
G01 X81.7388 Y36.5115 
G01 X81.6818 Y36.4879 
G01 X81.5573 Y36.4046 
G01 X81.4514 Y36.2987 
G01 X81.3681 Y36.1742 
G01 X81.3108 Y36.0358 
G01 X81.2816 Y35.8889 
G01 X81.2816 Y35.7391 
G01 X81.3108 Y35.5922 
G01 X81.3681 Y35.4538 
G01 X81.4514 Y35.3293 
G01 X81.5573 Y35.2234 
G01 X81.6818 Y35.1401 
G01 X81.8202 Y35.0828 
G01 X81.9671 Y35.0536 
G01 X82.1169 Y35.0536 
G01 X82.2638 Y35.0828 
G01 X82.4022 Y35.1401 
G01 X82.5267 Y35.2234 
G01 X82.6326 Y35.3293 
G01 X82.7159 Y35.4538 
G01 X82.7732 Y35.5922 
G01 X82.8024 Y35.7391 
G01 X82.8024 Y35.8889 
G01 X82.7732 Y36.0358 
G01 X82.7159 Y36.1742 
G01 X82.6326 Y36.2987 
G01 X82.5267 Y36.4046 
G01 X82.4022 Y36.4879 
G01 X82.3452 Y36.5115 
G01 X82.3452 Y40.2191 
G00 Z1.0000  
G00 X84.2502 Y32.2181 
G01 Z-0.0500 F64    
G01 X84.2502 Y32.2979 F128   
G01 X84.2295 Y32.3750 
G01 X84.1896 Y32.4442 
G01 X81.2022 Y35.4316 
G01 X81.2022 Y38.9019 
G01 X81.1815 Y38.9790 
G01 X81.1416 Y39.0482 
G01 X80.3707 Y39.8191 
G01 X80.4162 Y39.9083 
G01 X80.4698 Y40.0735 
G01 X80.4970 Y40.2450 
G01 X80.4970 Y40.4187 
G01 X80.4698 Y40.5902 
G01 X80.4162 Y40.7554 
G01 X80.3373 Y40.9101 
G01 X80.2352 Y41.0506 
G01 X80.1124 Y41.1734 
G01 X79.9719 Y41.2755 
G01 X79.8172 Y41.3543 
G01 X79.6520 Y41.4080 
G01 X79.4805 Y41.4351 
G01 X79.3069 Y41.4351 
G01 X79.1353 Y41.4080 
G01 X78.9702 Y41.3543 
G01 X78.8154 Y41.2755 
G01 X78.6749 Y41.1734 
G01 X78.5521 Y41.0506 
G01 X78.4501 Y40.9101 
G01 X78.3712 Y40.7554 
G01 X78.3176 Y40.5902 
G01 X78.2904 Y40.4187 
G01 X78.2904 Y40.2450 
G01 X78.3176 Y40.0735 
G01 X78.3712 Y39.9083 
G01 X78.4501 Y39.7536 
G01 X78.5521 Y39.6131 
G01 X78.6749 Y39.4903 
G01 X78.8154 Y39.3882 
G01 X78.9702 Y39.3094 
G01 X79.1353 Y39.2557 
G01 X79.3069 Y39.2285 
G01 X79.4805 Y39.2285 
G01 X79.6520 Y39.2557 
G01 X79.8172 Y39.3094 
G01 X79.9534 Y39.3788 
G01 X80.5958 Y38.7364 
G01 X80.5958 Y35.2661 
G01 X80.6165 Y35.1890 
G01 X80.6564 Y35.1198 
G01 X80.7128 Y35.0634 
G01 X83.6438 Y32.1324 
G01 X83.6438 Y30.4155 
G01 X83.5868 Y30.3919 
G01 X83.4623 Y30.3086 
G01 X83.3564 Y30.2027 
G01 X83.2731 Y30.0782 
G01 X83.2158 Y29.9398 
G01 X83.1866 Y29.7929 
G01 X83.1866 Y29.6431 
G01 X83.2158 Y29.4962 
G01 X83.2731 Y29.3578 
G01 X83.3564 Y29.2333 
G01 X83.4623 Y29.1274 
G01 X83.5868 Y29.0441 
G01 X83.7252 Y28.9868 
G01 X83.8721 Y28.9576 
G01 X84.0219 Y28.9576 
G01 X84.1688 Y28.9868 
G01 X84.3072 Y29.0441 
G01 X84.4317 Y29.1274 
G01 X84.5376 Y29.2333 
G01 X84.6209 Y29.3578 
G01 X84.6782 Y29.4962 
G01 X84.7074 Y29.6431 
G01 X84.7074 Y29.7929 
G01 X84.6782 Y29.9398 
G01 X84.6209 Y30.0782 
G01 X84.5376 Y30.2027 
G01 X84.4317 Y30.3086 
G01 X84.3072 Y30.3919 
G01 X84.2502 Y30.4155 
G01 X84.2502 Y32.2181 
G00 Z1.0000  
G00 X119.5662 Y21.0934 
G01 Z-0.0500 F64    
G01 X119.6226 Y21.1498 F128   
G01 X119.6625 Y21.2190 
G01 X119.6832 Y21.2961 
G01 X119.6832 Y26.7099 
G01 X119.6625 Y26.7870 
G01 X119.6226 Y26.8562 
G01 X118.6658 Y27.8130 
G01 X119.1852 Y28.3324 
G01 X119.2416 Y28.3888 
G01 X119.2815 Y28.4580 
G01 X119.3022 Y28.5351 
G01 X119.3022 Y35.0919 
G01 X119.2815 Y35.1690 
G01 X119.2416 Y35.2382 
G01 X117.1432 Y37.3366 
G01 X117.1432 Y42.5849 
G01 X117.1225 Y42.6620 
G01 X117.0826 Y42.7312 
G01 X116.8892 Y42.9246 
G01 X116.8892 Y46.2294 
G01 X117.9152 Y47.2554 
G01 X117.9716 Y47.3118 
G01 X118.0115 Y47.3810 
G01 X118.0322 Y47.4581 
G01 X118.0322 Y57.1514 
G01 X119.8256 Y58.9448 
G01 X119.9088 Y58.8891 
G01 X120.0472 Y58.8318 
G01 X120.1941 Y58.8026 
G01 X120.3439 Y58.8026 
G01 X120.4908 Y58.8318 
G01 X120.6292 Y58.8891 
G01 X120.7537 Y58.9724 
G01 X120.8596 Y59.0783 
G01 X120.9429 Y59.2028 
G01 X121.0002 Y59.3412 
G01 X121.0294 Y59.4881 
G01 X121.0294 Y59.6379 
G01 X121.0002 Y59.7848 
G01 X120.9429 Y59.9232 
G01 X120.8596 Y60.0477 
G01 X120.7537 Y60.1536 
G01 X120.6292 Y60.2369 
G01 X120.4908 Y60.2942 
G01 X120.3439 Y60.3234 
G01 X120.1941 Y60.3234 
G01 X120.0472 Y60.2942 
G01 X119.9088 Y60.2369 
G01 X119.7843 Y60.1536 
G01 X119.6784 Y60.0477 
G01 X119.5951 Y59.9232 
G01 X119.5378 Y59.7848 
G01 X119.5086 Y59.6379 
G01 X119.5086 Y59.4881 
G01 X117.4864 Y57.4632 
G01 X117.4465 Y57.3940 
G01 X117.4258 Y57.3169 
G01 X117.4258 Y47.6236 
G01 X116.3434 Y46.5412 
G01 X116.3035 Y46.4720 
G01 X116.2828 Y46.3949 
G01 X116.2828 Y42.7591 
G01 X116.3035 Y42.6820 
G01 X116.3434 Y42.6128 
G01 X116.3998 Y42.5564 
G01 X116.5368 Y42.4194 
G01 X116.5368 Y37.1711 
G01 X116.5575 Y37.0940 
G01 X116.5974 Y37.0248 
G01 X116.6538 Y36.9684 
G01 X118.6958 Y34.9264 
G01 X118.6958 Y28.7006 
G01 X118.1114 Y28.1162 
G01 X117.5375 Y28.1162 
G01 X117.5139 Y28.1732 
G01 X117.4306 Y28.2977 
G01 X117.3247 Y28.4036 
G01 X117.2002 Y28.4869 
G01 X117.0618 Y28.5442 
G01 X116.9149 Y28.5734 
G01 X116.7651 Y28.5734 
G01 X116.6182 Y28.5442 
G01 X116.4798 Y28.4869 
G01 X116.3553 Y28.4036 
G01 X116.2494 Y28.2977 
G01 X116.1661 Y28.1732 
G01 X116.1088 Y28.0348 
G01 X116.0796 Y27.8879 
G01 X116.0796 Y27.7381 
G01 X116.1088 Y27.5912 
G01 X116.1661 Y27.4528 
G01 X116.2494 Y27.3283 
G01 X116.3553 Y27.2224 
G01 X116.4798 Y27.1391 
G01 X116.6182 Y27.0818 
G01 X116.7651 Y27.0526 
G01 X116.9149 Y27.0526 
G01 X117.0618 Y27.0818 
G01 X117.2002 Y27.1391 
G01 X117.3247 Y27.2224 
G01 X117.4306 Y27.3283 
G01 X117.5139 Y27.4528 
G01 X117.5375 Y27.5098 
G01 X118.1114 Y27.5098 
G01 X119.0768 Y26.5444 
G01 X119.0768 Y21.4616 
G01 X113.9304 Y16.3152 
G01 X113.8905 Y16.2460 
G01 X113.8766 Y16.1943 
G01 X113.8128 Y16.1679 
G01 X113.6883 Y16.0846 
G01 X113.5824 Y15.9787 
G01 X113.4991 Y15.8542 
G01 X113.4418 Y15.7158 
G01 X113.4126 Y15.5689 
G01 X113.4126 Y15.4191 
G01 X113.4418 Y15.2722 
G01 X113.4991 Y15.1338 
G01 X113.5824 Y15.0093 
G01 X113.6883 Y14.9034 
G01 X113.8128 Y14.8201 
G01 X113.9512 Y14.7628 
G01 X114.0981 Y14.7336 
G01 X114.2479 Y14.7336 
G01 X114.3948 Y14.7628 
G01 X114.5332 Y14.8201 
G01 X114.6577 Y14.9034 
G01 X114.7636 Y15.0093 
G01 X114.8469 Y15.1338 
G01 X114.9042 Y15.2722 
G01 X114.9334 Y15.4191 
G01 X114.9334 Y15.5689 
G01 X114.9042 Y15.7158 
G01 X114.8469 Y15.8542 
G01 X114.7636 Y15.9787 
G01 X114.6577 Y16.0846 
G01 X114.5976 Y16.1248 
G01 X119.5662 Y21.0934 
G00 Z1.0000  
G00 X101.1598 Y11.1874 
G01 Z-0.0500 F64    
G01 X101.2290 Y11.1475 F128   
G01 X101.3061 Y11.1268 
G01 X102.6559 Y11.1268 
G01 X102.7330 Y11.1475 
G01 X102.8022 Y11.1874 
G01 X103.1226 Y11.5078 
G01 X106.5544 Y11.5078 
G01 X106.8184 Y11.2438 
G01 X106.8748 Y11.1874 
G01 X106.9440 Y11.1475 
G01 X107.0211 Y11.1268 
G01 X112.4349 Y11.1268 
G01 X112.5120 Y11.1475 
G01 X112.5812 Y11.1874 
G01 X113.8942 Y12.5004 
G01 X113.9512 Y12.4768 
G01 X114.0981 Y12.4476 
G01 X114.2479 Y12.4476 
G01 X114.3948 Y12.4768 
G01 X114.5332 Y12.5341 
G01 X114.6577 Y12.6174 
G01 X114.7636 Y12.7233 
G01 X114.8469 Y12.8478 
G01 X114.9042 Y12.9862 
G01 X114.9334 Y13.1331 
G01 X114.9334 Y13.2829 
G01 X114.9042 Y13.4298 
G01 X114.8469 Y13.5682 
G01 X114.7636 Y13.6927 
G01 X114.6577 Y13.7986 
G01 X114.5332 Y13.8819 
G01 X114.3948 Y13.9392 
G01 X114.2479 Y13.9684 
G01 X114.0981 Y13.9684 
G01 X113.9512 Y13.9392 
G01 X113.8128 Y13.8819 
G01 X113.6883 Y13.7986 
G01 X113.5824 Y13.6927 
G01 X113.4991 Y13.5682 
G01 X113.4418 Y13.4298 
G01 X113.4126 Y13.2829 
G01 X113.4126 Y13.1331 
G01 X113.4418 Y12.9862 
G01 X113.4654 Y12.9292 
G01 X112.2694 Y11.7332 
G01 X107.1866 Y11.7332 
G01 X106.8662 Y12.0536 
G01 X106.7970 Y12.0935 
G01 X106.7199 Y12.1142 
G01 X102.9571 Y12.1142 
G01 X102.8800 Y12.0935 
G01 X102.8108 Y12.0536 
G01 X102.7544 Y11.9972 
G01 X102.4904 Y11.7332 
G01 X101.4716 Y11.7332 
G01 X100.9106 Y12.2942 
G01 X100.9342 Y12.3512 
G01 X100.9634 Y12.4981 
G01 X100.9634 Y12.6479 
G01 X100.9342 Y12.7948 
G01 X100.8769 Y12.9332 
G01 X100.7936 Y13.0577 
G01 X100.6877 Y13.1636 
G01 X100.5632 Y13.2469 
G01 X100.4248 Y13.3042 
G01 X100.2779 Y13.3334 
G01 X100.1281 Y13.3334 
G01 X99.9812 Y13.3042 
G01 X99.8428 Y13.2469 
G01 X99.7183 Y13.1636 
G01 X99.6124 Y13.0577 
G01 X99.5291 Y12.9332 
G01 X99.4718 Y12.7948 
G01 X99.4426 Y12.6479 
G01 X99.4426 Y12.4981 
G01 X99.4718 Y12.3512 
G01 X99.5291 Y12.2128 
G01 X99.6124 Y12.0883 
G01 X99.7183 Y11.9824 
G01 X99.8428 Y11.8991 
G01 X99.9812 Y11.8418 
G01 X100.1281 Y11.8126 
G01 X100.2779 Y11.8126 
G01 X100.4248 Y11.8418 
G01 X100.4818 Y11.8654 
G01 X101.1598 Y11.1874 
G00 Z1.0000  
G00 X82.2182 Y66.0001 
G01 Z-0.0500 F64    
G01 X82.2182 Y66.0799 F128   
G01 X82.1975 Y66.1570 
G01 X82.1576 Y66.2262 
G01 X70.6006 Y77.7832 
G01 X70.5442 Y77.8396 
G01 X70.4750 Y77.8795 
G01 X70.3979 Y77.9002 
G01 X8.5961  Y77.9002 
G01 X8.5190  Y77.8795 
G01 X8.4498  Y77.8396 
G01 X6.6154  Y76.0052 
G01 X6.5755  Y75.9360 
G01 X6.5548  Y75.8589 
G01 X6.5548  Y63.3716 
G01 X5.1478  Y61.9646 
G01 X5.0914  Y61.9082 
G01 X5.0515  Y61.8390 
G01 X5.0308  Y61.7619 
G01 X5.0308  Y59.1421 
G01 X5.0515  Y59.0650 
G01 X5.0914  Y58.9958 
G01 X10.7458 Y53.3414 
G01 X10.7458 Y42.0995 
G01 X10.6888 Y42.0759 
G01 X10.5643 Y41.9926 
G01 X10.4584 Y41.8867 
G01 X10.3751 Y41.7622 
G01 X10.3178 Y41.6238 
G01 X10.2886 Y41.4769 
G01 X10.2886 Y41.3271 
G01 X10.3178 Y41.1802 
G01 X10.3751 Y41.0418 
G01 X10.4584 Y40.9173 
G01 X10.5643 Y40.8114 
G01 X10.6888 Y40.7281 
G01 X10.8272 Y40.6708 
G01 X10.9741 Y40.6416 
G01 X11.1239 Y40.6416 
G01 X11.2708 Y40.6708 
G01 X11.4092 Y40.7281 
G01 X11.5337 Y40.8114 
G01 X11.6396 Y40.9173 
G01 X11.7229 Y41.0418 
G01 X11.7802 Y41.1802 
G01 X11.8094 Y41.3271 
G01 X11.8094 Y41.4769 
G01 X11.7802 Y41.6238 
G01 X11.7229 Y41.7622 
G01 X11.6396 Y41.8867 
G01 X11.5337 Y41.9926 
G01 X11.4092 Y42.0759 
G01 X11.3522 Y42.0995 
G01 X11.3522 Y53.5069 
G01 X11.3315 Y53.5840 
G01 X11.2916 Y53.6532 
G01 X11.2352 Y53.7096 
G01 X5.6372  Y59.3076 
G01 X5.6372  Y61.5964 
G01 X7.1006  Y63.0598 
G01 X7.1405  Y63.1290 
G01 X7.1612  Y63.2061 
G01 X7.1612  Y75.6934 
G01 X8.7616  Y77.2938 
G01 X70.2324 Y77.2938 
G01 X81.6118 Y65.9144 
G01 X81.6118 Y63.9435 
G01 X81.5548 Y63.9199 
G01 X81.4303 Y63.8366 
G01 X81.3244 Y63.7307 
G01 X81.2411 Y63.6062 
G01 X81.1838 Y63.4678 
G01 X81.1546 Y63.3209 
G01 X81.1546 Y63.1711 
G01 X81.1838 Y63.0242 
G01 X81.2411 Y62.8858 
G01 X81.3244 Y62.7613 
G01 X81.4303 Y62.6554 
G01 X81.5548 Y62.5721 
G01 X81.6932 Y62.5148 
G01 X81.8401 Y62.4856 
G01 X81.9899 Y62.4856 
G01 X82.1368 Y62.5148 
G01 X82.2752 Y62.5721 
G01 X82.3997 Y62.6554 
G01 X82.5056 Y62.7613 
G01 X82.5889 Y62.8858 
G01 X82.6462 Y63.0242 
G01 X82.6754 Y63.1711 
G01 X82.6754 Y63.3209 
G01 X82.6462 Y63.4678 
G01 X82.5889 Y63.6062 
G01 X82.5056 Y63.7307 
G01 X82.3997 Y63.8366 
G01 X82.2752 Y63.9199 
G01 X82.2182 Y63.9435 
G01 X82.2182 Y66.0001 
G00 Z1.0000  
G00 X55.7516 Y30.4308 
G01 Z-0.0500 F64    
G01 X67.4384 Y30.4308 F128   
G01 X70.6234 Y27.2458 
G01 X70.6798 Y27.1894 
G01 X70.7490 Y27.1495 
G01 X70.8261 Y27.1288 
G01 X71.9219 Y27.1288 
G01 X71.9990 Y27.1495 
G01 X72.0682 Y27.1894 
G01 X73.0744 Y28.1956 
G01 X73.0999 Y28.1956 
G01 X73.2468 Y28.2248 
G01 X73.3852 Y28.2821 
G01 X73.5097 Y28.3654 
G01 X73.6156 Y28.4713 
G01 X73.6989 Y28.5958 
G01 X73.7562 Y28.7342 
G01 X73.7854 Y28.8811 
G01 X73.7854 Y29.0309 
G01 X73.7562 Y29.1778 
G01 X73.6989 Y29.3162 
G01 X73.6156 Y29.4407 
G01 X73.5097 Y29.5466 
G01 X73.3852 Y29.6299 
G01 X73.2468 Y29.6872 
G01 X73.0999 Y29.7164 
G01 X72.9501 Y29.7164 
G01 X72.8032 Y29.6872 
G01 X72.6648 Y29.6299 
G01 X72.5403 Y29.5466 
G01 X72.4344 Y29.4407 
G01 X72.3511 Y29.3162 
G01 X72.2938 Y29.1778 
G01 X72.2646 Y29.0309 
G01 X72.2646 Y28.8811 
G01 X72.2938 Y28.7342 
G01 X72.3511 Y28.5958 
G01 X72.4344 Y28.4713 
G01 X72.4634 Y28.4422 
G01 X71.7564 Y27.7352 
G01 X70.9916 Y27.7352 
G01 X67.7502 Y30.9766 
G01 X67.6810 Y31.0165 
G01 X67.6039 Y31.0372 
G01 X55.5861 Y31.0372 
G01 X55.5090 Y31.0165 
G01 X55.4398 Y30.9766 
G01 X55.3834 Y30.9202 
G01 X54.7618 Y30.2986 
G01 X54.7048 Y30.3222 
G01 X54.5579 Y30.3514 
G01 X54.4081 Y30.3514 
G01 X54.2612 Y30.3222 
G01 X54.1228 Y30.2649 
G01 X53.9983 Y30.1816 
G01 X53.8924 Y30.0757 
G01 X53.8091 Y29.9512 
G01 X53.7518 Y29.8128 
G01 X53.7226 Y29.6659 
G01 X53.7226 Y29.5161 
G01 X53.7518 Y29.3692 
G01 X53.8091 Y29.2308 
G01 X53.8924 Y29.1063 
G01 X53.9983 Y29.0004 
G01 X54.1228 Y28.9171 
G01 X54.2612 Y28.8598 
G01 X54.4081 Y28.8306 
G01 X54.5579 Y28.8306 
G01 X54.7048 Y28.8598 
G01 X54.8432 Y28.9171 
G01 X54.9677 Y29.0004 
G01 X55.0736 Y29.1063 
G01 X55.1569 Y29.2308 
G01 X55.2142 Y29.3692 
G01 X55.2434 Y29.5161 
G01 X55.2434 Y29.6659 
G01 X55.2142 Y29.8128 
G01 X55.1906 Y29.8698 
G01 X55.7516 Y30.4308 
G00 Z1.0000  
G00 X37.5275 Y24.1792 
G01 Z-0.0500 F64    
G01 X37.5039 Y24.2362 F128   
G01 X37.4206 Y24.3607 
G01 X37.3147 Y24.4666 
G01 X37.1902 Y24.5499 
G01 X37.0518 Y24.6072 
G01 X36.9049 Y24.6364 
G01 X36.7551 Y24.6364 
G01 X36.6082 Y24.6072 
G01 X36.4698 Y24.5499 
G01 X36.3453 Y24.4666 
G01 X36.2394 Y24.3607 
G01 X36.1561 Y24.2362 
G01 X36.0988 Y24.0978 
G01 X36.0696 Y23.9509 
G01 X36.0696 Y23.8011 
G01 X36.0988 Y23.6542 
G01 X36.1561 Y23.5158 
G01 X36.2394 Y23.3913 
G01 X36.3453 Y23.2854 
G01 X36.4698 Y23.2021 
G01 X36.6082 Y23.1448 
G01 X36.7551 Y23.1156 
G01 X36.9049 Y23.1156 
G01 X37.0518 Y23.1448 
G01 X37.1902 Y23.2021 
G01 X37.3147 Y23.2854 
G01 X37.4206 Y23.3913 
G01 X37.5039 Y23.5158 
G01 X37.5275 Y23.5728 
G01 X40.2808 Y23.5728 
G01 X40.2898 Y23.5272 
G01 X40.3471 Y23.3888 
G01 X40.4304 Y23.2643 
G01 X40.5363 Y23.1584 
G01 X40.6608 Y23.0751 
G01 X40.7992 Y23.0178 
G01 X40.9461 Y22.9886 
G01 X41.0959 Y22.9886 
G01 X41.2428 Y23.0178 
G01 X41.3812 Y23.0751 
G01 X41.5057 Y23.1584 
G01 X41.6116 Y23.2643 
G01 X41.6949 Y23.3888 
G01 X41.7522 Y23.5272 
G01 X41.7814 Y23.6741 
G01 X41.7814 Y23.8239 
G01 X41.7522 Y23.9708 
G01 X41.6949 Y24.1092 
G01 X41.6116 Y24.2337 
G01 X41.5057 Y24.3396 
G01 X41.3812 Y24.4229 
G01 X41.2428 Y24.4802 
G01 X41.0959 Y24.5094 
G01 X40.9461 Y24.5094 
G01 X40.7992 Y24.4802 
G01 X40.6608 Y24.4229 
G01 X40.5363 Y24.3396 
G01 X40.4304 Y24.2337 
G01 X40.3939 Y24.1792 
G01 X37.5275 Y24.1792 
G00 Z1.0000  
G00 X24.2818 Y10.9946 
G01 Z-0.0500 F64    
G01 X24.2248 Y11.0182 F128   
G01 X24.0779 Y11.0474 
G01 X23.9281 Y11.0474 
G01 X23.7812 Y11.0182 
G01 X23.6428 Y10.9609 
G01 X23.5183 Y10.8776 
G01 X23.4124 Y10.7717 
G01 X23.3291 Y10.6472 
G01 X23.2718 Y10.5088 
G01 X23.2426 Y10.3619 
G01 X23.2426 Y10.2121 
G01 X23.2718 Y10.0652 
G01 X23.3291 Y9.9268  
G01 X23.4124 Y9.8023  
G01 X23.5183 Y9.6964  
G01 X23.6428 Y9.6131  
G01 X23.7812 Y9.5558  
G01 X23.9281 Y9.5266  
G01 X24.0779 Y9.5266  
G01 X24.2248 Y9.5558  
G01 X24.3632 Y9.6131  
G01 X24.4877 Y9.6964  
G01 X24.5936 Y9.8023  
G01 X24.6769 Y9.9268  
G01 X24.7342 Y10.0652 
G01 X24.7634 Y10.2121 
G01 X24.7634 Y10.3619 
G01 X24.7342 Y10.5088 
G01 X24.7106 Y10.5658 
G01 X28.2962 Y14.1514 
G01 X28.3532 Y14.1278 
G01 X28.5001 Y14.0986 
G01 X28.6499 Y14.0986 
G01 X28.7968 Y14.1278 
G01 X28.9352 Y14.1851 
G01 X29.0597 Y14.2684 
G01 X29.1656 Y14.3743 
G01 X29.2489 Y14.4988 
G01 X29.3062 Y14.6372 
G01 X29.3354 Y14.7841 
G01 X29.3354 Y14.9339 
G01 X29.3062 Y15.0808 
G01 X29.2489 Y15.2192 
G01 X29.1656 Y15.3437 
G01 X29.0597 Y15.4496 
G01 X28.9352 Y15.5329 
G01 X28.7968 Y15.5902 
G01 X28.6499 Y15.6194 
G01 X28.5001 Y15.6194 
G01 X28.3532 Y15.5902 
G01 X28.2148 Y15.5329 
G01 X28.0903 Y15.4496 
G01 X27.9844 Y15.3437 
G01 X27.9011 Y15.2192 
G01 X27.8438 Y15.0808 
G01 X27.8146 Y14.9339 
G01 X27.8146 Y14.7841 
G01 X27.8438 Y14.6372 
G01 X27.8674 Y14.5802 
G01 X24.2818 Y10.9946 
G00 Z1.0000  
G00 X32.7035 Y18.4928 
G01 Z-0.0500 F64    
G01 X32.7271 Y18.4358 F128   
G01 X32.8104 Y18.3113 
G01 X32.9163 Y18.2054 
G01 X33.0408 Y18.1221 
G01 X33.1792 Y18.0648 
G01 X33.3261 Y18.0356 
G01 X33.4759 Y18.0356 
G01 X33.6228 Y18.0648 
G01 X33.7612 Y18.1221 
G01 X33.8857 Y18.2054 
G01 X33.9916 Y18.3113 
G01 X34.0749 Y18.4358 
G01 X34.1322 Y18.5742 
G01 X34.1614 Y18.7211 
G01 X34.1614 Y18.8709 
G01 X34.1322 Y19.0178 
G01 X34.0749 Y19.1562 
G01 X33.9916 Y19.2807 
G01 X33.8857 Y19.3866 
G01 X33.7612 Y19.4699 
G01 X33.6228 Y19.5272 
G01 X33.4759 Y19.5564 
G01 X33.3261 Y19.5564 
G01 X33.1792 Y19.5272 
G01 X33.0408 Y19.4699 
G01 X32.9163 Y19.3866 
G01 X32.8104 Y19.2807 
G01 X32.7271 Y19.1562 
G01 X32.7035 Y19.0992 
G01 X30.7965 Y19.0992 
G01 X30.7729 Y19.1562 
G01 X30.6896 Y19.2807 
G01 X30.5837 Y19.3866 
G01 X30.4592 Y19.4699 
G01 X30.3208 Y19.5272 
G01 X30.1739 Y19.5564 
G01 X30.0241 Y19.5564 
G01 X29.8772 Y19.5272 
G01 X29.7388 Y19.4699 
G01 X29.6143 Y19.3866 
G01 X29.5084 Y19.2807 
G01 X29.4251 Y19.1562 
G01 X29.3678 Y19.0178 
G01 X29.3386 Y18.8709 
G01 X29.3386 Y18.7211 
G01 X29.3678 Y18.5742 
G01 X29.4251 Y18.4358 
G01 X29.5084 Y18.3113 
G01 X29.6143 Y18.2054 
G01 X29.7388 Y18.1221 
G01 X29.8772 Y18.0648 
G01 X30.0241 Y18.0356 
G01 X30.1739 Y18.0356 
G01 X30.3208 Y18.0648 
G01 X30.4592 Y18.1221 
G01 X30.5837 Y18.2054 
G01 X30.6896 Y18.3113 
G01 X30.7729 Y18.4358 
G01 X30.7965 Y18.4928 
G01 X32.7035 Y18.4928 
G00 Z1.0000  
G00 X70.5342 Y11.2159 
G01 Z-0.0500 F64    
G01 X70.5135 Y11.2930 F128   
G01 X70.4736 Y11.3622 
G01 X70.4172 Y11.4186 
G01 X68.3986 Y13.4372 
G01 X68.4222 Y13.4942 
G01 X68.4514 Y13.6411 
G01 X68.4514 Y13.7909 
G01 X68.4222 Y13.9378 
G01 X68.3649 Y14.0762 
G01 X68.2816 Y14.2007 
G01 X68.1757 Y14.3066 
G01 X68.0512 Y14.3899 
G01 X67.9128 Y14.4472 
G01 X67.7659 Y14.4764 
G01 X67.6161 Y14.4764 
G01 X67.4692 Y14.4472 
G01 X67.3308 Y14.3899 
G01 X67.2063 Y14.3066 
G01 X67.1004 Y14.2007 
G01 X67.0171 Y14.0762 
G01 X66.9598 Y13.9378 
G01 X66.9306 Y13.7909 
G01 X66.9306 Y13.6411 
G01 X66.9598 Y13.4942 
G01 X67.0171 Y13.3558 
G01 X67.1004 Y13.2313 
G01 X67.2063 Y13.1254 
G01 X67.3308 Y13.0421 
G01 X67.4692 Y12.9848 
G01 X67.6161 Y12.9556 
G01 X67.7659 Y12.9556 
G01 X67.9128 Y12.9848 
G01 X67.9698 Y13.0084 
G01 X69.8846 Y11.0936 
G01 X69.8708 Y11.0879 
G01 X69.7463 Y11.0046 
G01 X69.6404 Y10.8987 
G01 X69.5571 Y10.7742 
G01 X69.4998 Y10.6358 
G01 X69.4706 Y10.4889 
G01 X69.4706 Y10.3391 
G01 X69.4998 Y10.1922 
G01 X69.5571 Y10.0538 
G01 X69.6404 Y9.9293  
G01 X69.7463 Y9.8234  
G01 X69.8708 Y9.7401  
G01 X70.0092 Y9.6828  
G01 X70.1561 Y9.6536  
G01 X70.3059 Y9.6536  
G01 X70.4528 Y9.6828  
G01 X70.5912 Y9.7401  
G01 X70.7157 Y9.8234  
G01 X70.8216 Y9.9293  
G01 X70.9049 Y10.0538 
G01 X70.9622 Y10.1922 
G01 X70.9914 Y10.3391 
G01 X70.9914 Y10.4889 
G01 X70.9622 Y10.6358 
G01 X70.9049 Y10.7742 
G01 X70.8216 Y10.8987 
G01 X70.7157 Y11.0046 
G01 X70.5912 Y11.0879 
G01 X70.5342 Y11.1115 
G01 X70.5342 Y11.2159 
G00 Z1.0000  
G00 X28.1926 Y15.6988 
G01 Z-0.0500 F64    
G01 X37.7407 Y15.6988 F128   
G01 X37.7498 Y15.6532 
G01 X37.8071 Y15.5148 
G01 X37.8904 Y15.3903 
G01 X37.9963 Y15.2844 
G01 X38.1208 Y15.2011 
G01 X38.2592 Y15.1438 
G01 X38.4061 Y15.1146 
G01 X38.5559 Y15.1146 
G01 X38.7028 Y15.1438 
G01 X38.8412 Y15.2011 
G01 X38.9657 Y15.2844 
G01 X39.0716 Y15.3903 
G01 X39.1549 Y15.5148 
G01 X39.2122 Y15.6532 
G01 X39.2414 Y15.8001 
G01 X39.2414 Y15.9499 
G01 X39.2122 Y16.0968 
G01 X39.1549 Y16.2352 
G01 X39.0716 Y16.3597 
G01 X38.9657 Y16.4656 
G01 X38.8412 Y16.5489 
G01 X38.7028 Y16.6062 
G01 X38.5559 Y16.6354 
G01 X38.4061 Y16.6354 
G01 X38.2592 Y16.6062 
G01 X38.1208 Y16.5489 
G01 X37.9963 Y16.4656 
G01 X37.8904 Y16.3597 
G01 X37.8539 Y16.3052 
G01 X28.0271 Y16.3052 
G01 X27.9500 Y16.2845 
G01 X27.8808 Y16.2446 
G01 X27.8244 Y16.1882 
G01 X27.5013 Y15.8651 
G01 X27.4087 Y15.9576 
G01 X27.2842 Y16.0409 
G01 X27.1458 Y16.0982 
G01 X26.9989 Y16.1274 
G01 X26.8491 Y16.1274 
G01 X26.7022 Y16.0982 
G01 X26.5638 Y16.0409 
G01 X26.4393 Y15.9576 
G01 X26.3334 Y15.8517 
G01 X26.2501 Y15.7272 
G01 X26.1928 Y15.5888 
G01 X26.1636 Y15.4419 
G01 X26.1636 Y15.2921 
G01 X26.1928 Y15.1452 
G01 X26.2501 Y15.0068 
G01 X26.3334 Y14.8823 
G01 X26.4393 Y14.7764 
G01 X26.5638 Y14.6931 
G01 X26.7022 Y14.6358 
G01 X26.8491 Y14.6066 
G01 X26.9989 Y14.6066 
G01 X27.1458 Y14.6358 
G01 X27.2842 Y14.6931 
G01 X27.4087 Y14.7764 
G01 X27.5146 Y14.8823 
G01 X27.5979 Y15.0068 
G01 X27.6552 Y15.1452 
G01 X27.6592 Y15.1654 
G01 X28.1926 Y15.6988 
G00 Z1.0000  
G00 X25.1474 Y18.4928 
G01 Z-0.0500 F64    
G01 X25.5384 Y18.1018 F128   
G01 X25.5948 Y18.0454 
G01 X25.6640 Y18.0055 
G01 X25.7411 Y17.9848 
G01 X28.8304 Y17.9848 
G01 X29.3484 Y17.4668 
G01 X29.4048 Y17.4104 
G01 X29.4740 Y17.3705 
G01 X29.5511 Y17.3498 
G01 X39.8794 Y17.3498 
G01 X40.3974 Y16.8318 
G01 X40.4538 Y16.7754 
G01 X40.5230 Y16.7355 
G01 X40.6001 Y16.7148 
G01 X47.1569 Y16.7148 
G01 X47.2340 Y16.7355 
G01 X47.3032 Y16.7754 
G01 X47.7506 Y17.2228 
G01 X51.9444 Y17.2228 
G01 X54.7484 Y14.4188 
G01 X54.8048 Y14.3624 
G01 X54.8740 Y14.3225 
G01 X54.9511 Y14.3018 
G01 X56.3009 Y14.3018 
G01 X56.3780 Y14.3225 
G01 X56.4472 Y14.3624 
G01 X56.8946 Y14.8098 
G01 X58.9294 Y14.8098 
G01 X62.6224 Y11.1168 
G01 X62.6788 Y11.0604 
G01 X62.7480 Y11.0205 
G01 X62.8251 Y10.9998 
G01 X67.9466 Y10.9998 
G01 X67.9466 Y10.9741 
G01 X67.9758 Y10.8272 
G01 X68.0331 Y10.6888 
G01 X68.1164 Y10.5643 
G01 X68.2223 Y10.4584 
G01 X68.3468 Y10.3751 
G01 X68.4852 Y10.3178 
G01 X68.6321 Y10.2886 
G01 X68.7819 Y10.2886 
G01 X68.9288 Y10.3178 
G01 X69.0672 Y10.3751 
G01 X69.1917 Y10.4584 
G01 X69.2976 Y10.5643 
G01 X69.3809 Y10.6888 
G01 X69.4382 Y10.8272 
G01 X69.4674 Y10.9741 
G01 X69.4674 Y11.1239 
G01 X69.4382 Y11.2708 
G01 X69.3809 Y11.4092 
G01 X69.2976 Y11.5337 
G01 X69.1917 Y11.6396 
G01 X69.0672 Y11.7229 
G01 X68.9288 Y11.7802 
G01 X68.7819 Y11.8094 
G01 X68.6321 Y11.8094 
G01 X68.4852 Y11.7802 
G01 X68.3468 Y11.7229 
G01 X68.2223 Y11.6396 
G01 X68.1888 Y11.6062 
G01 X62.9906 Y11.6062 
G01 X59.2412 Y15.3556 
G01 X59.1720 Y15.3955 
G01 X59.0949 Y15.4162 
G01 X56.7291 Y15.4162 
G01 X56.6520 Y15.3955 
G01 X56.5828 Y15.3556 
G01 X56.1354 Y14.9082 
G01 X55.1166 Y14.9082 
G01 X52.2562 Y17.7686 
G01 X52.1870 Y17.8085 
G01 X52.1099 Y17.8292 
G01 X47.5851 Y17.8292 
G01 X47.5080 Y17.8085 
G01 X47.4388 Y17.7686 
G01 X47.3824 Y17.7122 
G01 X46.9914 Y17.3212 
G01 X40.7656 Y17.3212 
G01 X40.1912 Y17.8956 
G01 X40.1220 Y17.9355 
G01 X40.0449 Y17.9562 
G01 X29.7166 Y17.9562 
G01 X29.1422 Y18.5306 
G01 X29.0730 Y18.5705 
G01 X28.9959 Y18.5912 
G01 X25.9066 Y18.5912 
G01 X25.4592 Y19.0386 
G01 X25.3900 Y19.0785 
G01 X25.3129 Y19.0992 
G01 X23.4305 Y19.0992 
G01 X23.4069 Y19.1562 
G01 X23.3236 Y19.2807 
G01 X23.2177 Y19.3866 
G01 X23.0932 Y19.4699 
G01 X22.9548 Y19.5272 
G01 X22.8079 Y19.5564 
G01 X22.6581 Y19.5564 
G01 X22.5112 Y19.5272 
G01 X22.3728 Y19.4699 
G01 X22.2483 Y19.3866 
G01 X22.1424 Y19.2807 
G01 X22.0591 Y19.1562 
G01 X22.0018 Y19.0178 
G01 X21.9726 Y18.8709 
G01 X21.9726 Y18.7211 
G01 X22.0018 Y18.5742 
G01 X22.0591 Y18.4358 
G01 X22.1424 Y18.3113 
G01 X22.2483 Y18.2054 
G01 X22.3728 Y18.1221 
G01 X22.5112 Y18.0648 
G01 X22.6581 Y18.0356 
G01 X22.8079 Y18.0356 
G01 X22.9548 Y18.0648 
G01 X23.0932 Y18.1221 
G01 X23.2177 Y18.2054 
G01 X23.3236 Y18.3113 
G01 X23.4069 Y18.4358 
G01 X23.4305 Y18.4928 
G01 X25.1474 Y18.4928 
G00 Z1.0000  
G00 X74.7538 Y19.3439 
G01 Z-0.0500 F64    
G01 X74.7538 Y19.2641 F128   
G01 X74.7745 Y19.1870 
G01 X74.8144 Y19.1178 
G01 X78.4406 Y15.4916 
G01 X78.3712 Y15.3554 
G01 X78.3176 Y15.1902 
G01 X78.2904 Y15.0187 
G01 X78.2904 Y14.8450 
G01 X78.3176 Y14.6735 
G01 X78.3712 Y14.5083 
G01 X78.4501 Y14.3536 
G01 X78.5521 Y14.2131 
G01 X78.6749 Y14.0903 
G01 X78.8154 Y13.9882 
G01 X78.9702 Y13.9094 
G01 X79.1353 Y13.8557 
G01 X79.3069 Y13.8285 
G01 X79.4805 Y13.8285 
G01 X79.6520 Y13.8557 
G01 X79.8172 Y13.9094 
G01 X79.9719 Y13.9882 
G01 X80.1124 Y14.0903 
G01 X80.2352 Y14.2131 
G01 X80.3373 Y14.3536 
G01 X80.4162 Y14.5083 
G01 X80.4698 Y14.6735 
G01 X80.4970 Y14.8450 
G01 X80.4970 Y15.0187 
G01 X80.4698 Y15.1902 
G01 X80.4162 Y15.3554 
G01 X80.3373 Y15.5101 
G01 X80.2352 Y15.6506 
G01 X80.1124 Y15.7734 
G01 X79.9719 Y15.8755 
G01 X79.8172 Y15.9543 
G01 X79.6520 Y16.0080 
G01 X79.4805 Y16.0351 
G01 X79.3069 Y16.0351 
G01 X79.1353 Y16.0080 
G01 X78.9702 Y15.9543 
G01 X78.8809 Y15.9088 
G01 X75.3602 Y19.4296 
G01 X75.3602 Y22.9245 
G01 X75.4172 Y22.9481 
G01 X75.5417 Y23.0314 
G01 X75.6476 Y23.1373 
G01 X75.7309 Y23.2618 
G01 X75.7882 Y23.4002 
G01 X75.8174 Y23.5471 
G01 X75.8174 Y23.6969 
G01 X75.7882 Y23.8438 
G01 X75.7309 Y23.9822 
G01 X75.6476 Y24.1067 
G01 X75.5417 Y24.2126 
G01 X75.4172 Y24.2959 
G01 X75.2788 Y24.3532 
G01 X75.1319 Y24.3824 
G01 X74.9821 Y24.3824 
G01 X74.8352 Y24.3532 
G01 X74.6968 Y24.2959 
G01 X74.5723 Y24.2126 
G01 X74.4664 Y24.1067 
G01 X74.3831 Y23.9822 
G01 X74.3258 Y23.8438 
G01 X74.2966 Y23.6969 
G01 X74.2966 Y23.5471 
G01 X74.3258 Y23.4002 
G01 X74.3831 Y23.2618 
G01 X74.4664 Y23.1373 
G01 X74.5723 Y23.0314 
G01 X74.6968 Y22.9481 
G01 X74.7538 Y22.9245 
G01 X74.7538 Y19.3439 
G00 Z1.0000  
G00 X71.3248 Y16.5499 
G01 Z-0.0500 F64    
G01 X71.3248 Y16.4701 F128   
G01 X71.3455 Y16.3930 
G01 X71.3854 Y16.3238 
G01 X75.4494 Y12.2598 
G01 X75.5058 Y12.2034 
G01 X75.5750 Y12.1635 
G01 X75.6521 Y12.1428 
G01 X75.7761 Y12.1428 
G01 X75.7776 Y12.1335 
G01 X75.8312 Y11.9683 
G01 X75.9101 Y11.8136 
G01 X76.0121 Y11.6731 
G01 X76.1349 Y11.5503 
G01 X76.2754 Y11.4482 
G01 X76.4302 Y11.3694 
G01 X76.5953 Y11.3157 
G01 X76.7669 Y11.2885 
G01 X76.9405 Y11.2885 
G01 X77.1120 Y11.3157 
G01 X77.2772 Y11.3694 
G01 X77.4319 Y11.4482 
G01 X77.5724 Y11.5503 
G01 X77.6952 Y11.6731 
G01 X77.7973 Y11.8136 
G01 X77.8762 Y11.9683 
G01 X77.9298 Y12.1335 
G01 X77.9570 Y12.3050 
G01 X77.9570 Y12.4787 
G01 X77.9298 Y12.6502 
G01 X77.8762 Y12.8154 
G01 X77.7973 Y12.9701 
G01 X77.6952 Y13.1106 
G01 X77.5724 Y13.2334 
G01 X77.4319 Y13.3355 
G01 X77.2772 Y13.4143 
G01 X77.1120 Y13.4680 
G01 X76.9405 Y13.4951 
G01 X76.7669 Y13.4951 
G01 X76.5953 Y13.4680 
G01 X76.4302 Y13.4143 
G01 X76.2754 Y13.3355 
G01 X76.1349 Y13.2334 
G01 X76.0121 Y13.1106 
G01 X75.9101 Y12.9701 
G01 X75.8312 Y12.8154 
G01 X75.8117 Y12.7551 
G01 X71.9744 Y16.5924 
G01 X71.9882 Y16.5981 
G01 X72.1127 Y16.6814 
G01 X72.2186 Y16.7873 
G01 X72.3019 Y16.9118 
G01 X72.3592 Y17.0502 
G01 X72.3884 Y17.1971 
G01 X72.3884 Y17.3469 
G01 X72.3592 Y17.4938 
G01 X72.3019 Y17.6322 
G01 X72.2186 Y17.7567 
G01 X72.1127 Y17.8626 
G01 X71.9882 Y17.9459 
G01 X71.8498 Y18.0032 
G01 X71.7029 Y18.0324 
G01 X71.5531 Y18.0324 
G01 X71.4062 Y18.0032 
G01 X71.2678 Y17.9459 
G01 X71.1433 Y17.8626 
G01 X71.0374 Y17.7567 
G01 X70.9541 Y17.6322 
G01 X70.8968 Y17.4938 
G01 X70.8676 Y17.3469 
G01 X70.8676 Y17.1971 
G01 X70.8968 Y17.0502 
G01 X70.9541 Y16.9118 
G01 X71.0374 Y16.7873 
G01 X71.1433 Y16.6814 
G01 X71.2678 Y16.5981 
G01 X71.3248 Y16.5745 
G01 X71.3248 Y16.5499 
G00 Z1.0000  
G00 X94.1308 Y45.6343 
G01 Z-0.0500 F64    
G01 X94.0963 Y45.7631 F128   
G01 X94.0296 Y45.8785 
G01 X93.9353 Y45.9728 
G01 X93.8199 Y46.0395 
G01 X93.6911 Y46.0740 
G01 X91.4501 Y46.0740 
G01 X91.3213 Y46.0395 
G01 X91.2059 Y45.9728 
G01 X91.1116 Y45.8785 
G01 X91.0449 Y45.7631 
G01 X91.0104 Y45.6343 
G01 X91.0104 Y45.5009 
G01 X91.0449 Y45.3721 
G01 X91.1116 Y45.2567 
G01 X91.2059 Y45.1624 
G01 X94.5456 Y41.8226 
G01 X94.6928 Y41.4673 
G01 X94.6928 Y35.0411 
G01 X94.7273 Y34.9123 
G01 X94.7940 Y34.7968 
G01 X94.8883 Y34.7025 
G01 X95.0037 Y34.6359 
G01 X95.1325 Y34.6014 
G01 X95.2659 Y34.6014 
G01 X95.3947 Y34.6359 
G01 X95.5101 Y34.7025 
G01 X95.6044 Y34.7968 
G01 X97.6076 Y36.8000 
G01 X97.7004 Y36.8928 
G01 X97.7371 Y36.9552 
G01 X97.7685 Y37.0097 
G01 X97.7749 Y37.0336 
G01 X97.8030 Y37.1385 
G01 X97.8030 Y37.2719 
G01 X97.7757 Y37.3739 
G01 X97.7685 Y37.4007 
G01 X97.7206 Y37.4837 
G01 X97.7019 Y37.5161 
G01 X97.6419 Y37.5761 
G01 X97.4328 Y38.0809 
G01 X97.4328 Y38.6271 
G01 X97.6419 Y39.1319 
G01 X97.6945 Y39.1845 
G01 X97.7847 Y39.2747 
G01 X97.7888 Y39.2788 
G01 X97.8555 Y39.3943 
G01 X97.8804 Y39.4871 
G01 X97.8900 Y39.5231 
G01 X97.8900 Y40.2329 
G01 X97.8670 Y40.3188 
G01 X97.8555 Y40.3617 
G01 X97.7888 Y40.4772 
G01 X97.6419 Y40.6241 
G01 X97.4328 Y41.1289 
G01 X97.4328 Y41.6751 
G01 X97.6419 Y42.1799 
G01 X98.0281 Y42.5661 
G01 X98.5329 Y42.7752 
G01 X98.7799 Y42.7752 
G01 X98.8475 Y42.7933 
G01 X98.9087 Y42.8097 
G01 X98.9251 Y42.8192 
G01 X99.0242 Y42.8764 
G01 X99.1185 Y42.9707 
G01 X99.1851 Y43.0861 
G01 X99.1975 Y43.1321 
G01 X99.2196 Y43.2149 
G01 X99.2196 Y43.3483 
G01 X99.2015 Y43.4158 
G01 X99.1851 Y43.4771 
G01 X99.1757 Y43.4935 
G01 X99.1185 Y43.5925 
G01 X99.0389 Y43.6721 
G01 X98.8298 Y44.1769 
G01 X98.8298 Y44.3643 
G01 X98.7953 Y44.4931 
G01 X98.7286 Y44.6085 
G01 X98.6343 Y44.7028 
G01 X98.5189 Y44.7695 
G01 X98.3901 Y44.8040 
G01 X96.6731 Y44.8040 
G01 X96.5443 Y44.7695 
G01 X96.4288 Y44.7028 
G01 X96.3345 Y44.6085 
G01 X96.2819 Y44.5559 
G01 X95.7771 Y44.3468 
