(.../pcb-gcode-3.6.0.4/pcb-gcode.ulp)
(Copyright 2005 - 2012 by John Johnson)
(See readme.txt for licensing terms.)
(This file generated from the board:)
(.../ZXUNO celes 1.7/ZXUNO celes 1.7.brd)
(Current profile is .../pcb-gcode-3.6.0.4/profiles/mach.pp  )
(This file generated 29/12/2014 19:40:54)
(Settings from pcb-machine.h)
(  Tool Size)
(0.2000  )
(Z Axis Settings)
(  High     Up        Down     Drill)
(12.7000 	1.0000  	-0.0500 	-2.5000 )
(spindle on time = 0.5000)
(milling depth = -1.5000)
(text depth = -0.0250)
(tool change at 0.0000  0.0000  30.0000 )
(feed rate xy = F128   )
(feed rate z  = F64    )
(Settings from pcb-defaults.h)
(isolate min = 0.0000)
(isolate max = 0.5000)
(isolate step = 0.1200)
(Generated top outlines, top drill, bottom outlines, bottom drill, )
(Unit of measure: mm)
(Metric Mode)
G21
(Absolute Coordinates)
G90
G00 X0.0000  Y0.0000  
M03
G04 P0.500000
G00 Z1.0000  
G00 X128.3970 Y-0.7620 
G01 Z-1.5000 F64    
G01 X128.3970 Y28.7020 F128   
G00 Z1.0000  
G00 X128.3970 Y32.0040 
G01 Z-1.5000 F64    
G01 X128.3970 Y79.1210 F128   
G01 X-0.7620 Y79.1210 
G01 X-0.7620 Y71.3740 
G00 Z1.0000  
G00 X-0.7620 Y68.9610 
G01 Z-1.5000 F64    
G01 X-0.7620 Y33.4010 F128   
G00 Z1.0000  
G00 X-0.6350 Y-0.7620 
G01 Z-1.5000 F64    
G01 X97.2820 Y-0.7620 F128   
G00 Z1.0000  
G00 X-0.7620 Y30.2260 
G01 Z-1.5000 F64    
G01 X-0.7620 Y-0.7620 F128   
G00 Z1.0000  
G00 X-0.7620 Y71.3740 
G01 Z-1.5000 F64    
G01 X1.2700  Y71.3740 F128   
G01 X1.2700  Y68.9610 
G01 X-0.7620 Y68.9610 
G00 Z1.0000  
G00 X97.7900 Y-0.8890 
G01 Z-1.5000 F64    
G01 X97.7900 Y1.1430  F128   
G01 X100.2030 Y1.1430  
G01 X100.2030 Y-0.7620 
G01 X100.2030 Y-0.8890 
G00 Z1.0000  
G00 X100.2030 Y-0.7620 
G01 Z-1.5000 F64    
G01 X128.2700 Y-0.7620 F128   
G00 Z12.7000 
M05
M02
