(.../pcb-gcode-3.6.0.4/pcb-gcode.ulp)
(Copyright 2005 - 2012 by John Johnson)
(See readme.txt for licensing terms.)
(This file generated from the board:)
(.../ZXUNO celes 1.7/ZXUNO celes 1.7.brd)
(Current profile is .../pcb-gcode-3.6.0.4/profiles/mach.pp  )
(This file generated 29/12/2014 19:40:53)
(Settings from pcb-machine.h)
(  Tool Size)
(0.2000  )
(Z Axis Settings)
(  High     Up        Down     Drill)
(12.7000 	1.0000  	-0.0500 	-2.5000 )
(spindle on time = 0.5000)
(milling depth = -1.5000)
(text depth = -0.0250)
(tool change at 0.0000  0.0000  30.0000 )
(feed rate xy = F128   )
(feed rate z  = F64    )
(Settings from pcb-defaults.h)
(isolate min = 0.0000)
(isolate max = 0.5000)
(isolate step = 0.1200)
(Generated top outlines, top drill, bottom outlines, bottom drill, )
(Unit of measure: mm)
( Tool|       Size       |  Min Sub |  Max Sub |   Count )
( T01 | 3.302mm 0.1300in | 0.0000in | 0.0000in |       0 )
( T02 | 3.810mm 0.1500in | 0.0000in | 0.0000in |       0 )
( T03 | 0.508mm 0.0200in | 0.0000in | 0.0000in |       0 )
( T04 | 0.600mm 0.0236in | 0.0000in | 0.0000in |       0 )
( T05 | 0.813mm 0.0320in | 0.0000in | 0.0000in |       0 )
( T06 | 0.900mm 0.0354in | 0.0000in | 0.0000in |       0 )
( T07 | 1.000mm 0.0394in | 0.0000in | 0.0000in |       0 )
( T08 | 1.016mm 0.0400in | 0.0000in | 0.0000in |       0 )
( T09 | 1.200mm 0.0472in | 0.0000in | 0.0000in |       0 )
( T10 | 1.600mm 0.0630in | 0.0000in | 0.0000in |       0 )
( T11 | 2.000mm 0.0787in | 0.0000in | 0.0000in |       0 )
( T12 | 2.200mm 0.0866in | 0.0000in | 0.0000in |       0 )
(Metric Mode)
G21
(Absolute Coordinates)
G90
M05
G00 Z30.0000 
G00 X0.0000  Y0.0000  
M06 T01  ; 3.3020  
G01 Z0.0000  F64    
M06 T01  ; 3.3020  
G00 Z1.0000  
M03
G04 P0.500000
G82 X99.2378 Y67.1830 Z-2.5000 F64    R1.0000  P0.000000
G82 X124.2822 Y67.1830 
M05
G00 Z30.0000 
M06 T02  ; 3.8100  
G01 Z0.0000  F64    
M06 T02  ; 3.8100  
G00 Z1.0000  
M03
G04 P0.500000
G82 X0.0000  Y0.0000  Z-2.5000 F64    R1.0000  P0.000000
G82 X0.0000  Y78.4098 
G82 X127.6096 Y0.0000  
G82 X127.6096 Y78.4098 
M05
G00 Z30.0000 
M06 T03  ; 0.5080  
G01 Z0.0000  F64    
M06 T03  ; 0.5080  
G00 Z1.0000  
M03
G04 P0.500000
G82 X31.7500 Y5.3340  Z-2.5000 F64    R1.0000  P0.000000
G82 X32.1310 Y36.8300 
G82 X32.1310 Y69.3420 
G82 X32.3850 Y54.8640 
G82 X33.4010 Y18.7960 
G82 X34.1630 Y66.2940 
G82 X34.7980 Y54.8640 
G82 X34.7980 Y26.4160 
G82 X35.1790 Y18.7960 
G82 X35.3060 Y34.4170 
G82 X35.6870 Y68.5800 
G82 X35.6870 Y14.8590 
G82 X35.9410 Y25.2730 
G82 X36.1950 Y64.7700 
G82 X36.7030 Y46.7360 
G82 X36.7030 Y56.0070 
G82 X36.8300 Y53.7210 
G82 X36.8300 Y23.8760 
G82 X37.4650 Y62.2300 
G82 X37.5920 Y69.9770 
G82 X37.7190 Y18.7960 
G82 X38.2270 Y25.0190 
G82 X38.4810 Y63.5000 
G82 X38.4810 Y15.8750 
G82 X38.9890 Y71.2470 
G82 X38.9890 Y74.5490 
G82 X39.1160 Y32.5120 
G82 X39.1160 Y34.1630 
G82 X39.1160 Y49.4030 
G82 X39.1160 Y69.3420 
G82 X39.1160 Y22.6060 
G82 X39.6240 Y18.7960 
G82 X40.0050 Y46.7360 
G82 X40.2590 Y54.8640 
G82 X41.0210 Y23.7490 
G82 X41.1480 Y18.1610 
G82 X41.5290 Y65.7860 
G82 X41.6560 Y47.2440 
G82 X41.6560 Y51.4350 
G82 X41.7830 Y44.3230 
G82 X41.7830 Y70.2310 
G82 X42.4180 Y35.3060 
G82 X42.4180 Y38.1000 
G82 X42.4180 Y40.3860 
G82 X42.4180 Y42.0370 
G82 X42.6720 Y26.7970 
G82 X42.7990 Y18.7960 
G82 X42.7990 Y21.9710 
G82 X43.1800 Y12.8270 
G82 X45.0850 Y64.1350 
G82 X45.0850 Y30.2260 
G82 X45.7200 Y23.1140 
G82 X47.6250 Y28.4480 
G82 X48.0060 Y12.7000 
G82 X48.1330 Y16.3830 
G82 X48.7680 Y48.3870 
G82 X48.8950 Y64.6430 
G82 X49.2760 Y19.9390 
G82 X49.9110 Y25.0190 
G82 X50.9270 Y62.6110 
G82 X51.4350 Y8.5090  
G82 X51.4350 Y11.4300 
G82 X51.5620 Y19.8120 
G82 X51.9430 Y48.8950 
G82 X54.4830 Y29.5910 
G82 X54.6100 Y12.7000 
G82 X54.8640 Y72.2630 
G82 X55.1180 Y49.5300 
G82 X55.4990 Y15.7480 
G82 X56.1340 Y18.6690 
G82 X56.1340 Y29.5910 
G82 X57.2770 Y13.9700 
G82 X57.6580 Y52.0700 
G82 X57.7850 Y49.5300 
G82 X57.7850 Y18.0340 
G82 X58.2930 Y68.3260 
G82 X59.0550 Y5.3340  
G82 X59.4360 Y71.1200 
G82 X59.4360 Y73.4060 
G82 X59.5630 Y65.7860 
G82 X60.1980 Y48.3870 
G82 X61.0870 Y14.7320 
G82 X61.4680 Y19.8120 
G82 X61.9760 Y26.7970 
G82 X62.9920 Y49.2760 
G82 X62.9920 Y54.3560 
G82 X63.1190 Y12.7000 
G82 X64.0080 Y66.1670 
G82 X64.1350 Y40.2590 
G82 X64.8970 Y37.5920 
G82 X65.5320 Y39.1160 
G82 X65.5320 Y27.6860 
G82 X66.0400 Y19.8120 
G82 X66.8020 Y54.9910 
G82 X66.8020 Y23.2410 
G82 X67.1830 Y43.3070 
G82 X67.4370 Y38.8620 
G82 X67.5640 Y63.7540 
G82 X67.5640 Y65.4050 
G82 X67.6910 Y56.3880 
G82 X67.6910 Y13.7160 
G82 X68.3260 Y26.5430 
G82 X68.7070 Y11.0490 
G82 X69.0880 Y38.7350 
G82 X69.2150 Y53.8480 
G82 X69.4690 Y22.7330 
G82 X70.2310 Y5.5880  
G82 X70.2310 Y10.4140 
G82 X70.2310 Y18.1610 
G82 X71.3740 Y28.5750 
G82 X71.6280 Y17.2720 
G82 X72.5170 Y33.1470 
G82 X72.5170 Y21.5900 
G82 X72.6440 Y64.2620 
G82 X72.7710 Y4.8260  
G82 X72.7710 Y76.8350 
G82 X73.0250 Y34.7980 
G82 X73.0250 Y53.8480 
G82 X73.0250 Y56.6420 
G82 X73.0250 Y28.9560 
G82 X73.6600 Y22.7330 
G82 X74.1680 Y33.6550 
G82 X74.1680 Y67.4370 
G82 X74.1680 Y18.0340 
G82 X74.1680 Y30.8610 
G82 X74.4220 Y62.6110 
G82 X74.9300 Y14.8590 
G82 X75.0570 Y23.6220 
G82 X7.6200  Y6.3500  
G82 X76.2000 Y73.4060 
G82 X76.3270 Y62.6110 
G82 X77.3430 Y67.3100 
G82 X77.3430 Y72.2630 
G82 X77.4700 Y61.2140 
G82 X77.8510 Y59.5630 
G82 X78.9940 Y67.3100 
G82 X78.9940 Y72.2630 
G82 X79.5020 Y32.1310 
G82 X80.3910 Y62.6110 
G82 X80.7720 Y65.5320 
G82 X81.6610 Y5.7150  
G82 X81.9150 Y63.2460 
G82 X81.9150 Y0.7620  
G82 X82.0420 Y35.8140 
G82 X82.0420 Y69.3420 
G82 X82.1690 Y11.4300 
G82 X82.1690 Y16.8910 
G82 X82.2960 Y61.5950 
G82 X82.6770 Y44.1960 
G82 X82.9310 Y57.6580 
G82 X83.5660 Y4.0640  
G82 X83.9470 Y35.8140 
G82 X83.9470 Y29.7180 
G82 X84.0740 Y14.4780 
G82 X85.0900 Y26.7970 
G82 X85.2170 Y40.3860 
G82 X85.2170 Y4.0640  
G82 X86.1060 Y42.9260 
G82 X86.4870 Y12.0650 
G82 X86.7410 Y23.2410 
G82 X87.5030 Y47.4980 
G82 X87.6300 Y49.6570 
G82 X87.7570 Y9.1440  
G82 X87.7570 Y13.3350 
G82 X87.8840 Y35.4330 
G82 X88.9000 Y32.6390 
G82 X89.0270 Y41.5290 
G82 X89.7890 Y19.1770 
G82 X89.9160 Y17.3990 
G82 X90.1700 Y37.9730 
G82 X90.1700 Y42.9260 
G82 X90.1700 Y20.8280 
G82 X90.5510 Y32.3850 
G82 X91.6940 Y22.3520 
G82 X93.7260 Y33.9090 
G82 X93.8530 Y56.6420 
G82 X94.8690 Y59.4360 
G82 X94.9960 Y31.7500 
G82 X95.5040 Y45.7200 
G82 X96.1390 Y18.0340 
G82 X97.1550 Y13.3350 
G82 X97.4090 Y30.2260 
G82 X98.8060 Y38.3540 
G82 X98.8060 Y41.4020 
G82 X98.8060 Y49.7840 
G82 X100.2030 Y44.4500 
G82 X100.2030 Y12.5730 
G82 X100.3300 Y14.8590 
G82 X100.8380 Y25.4000 
G82 X101.2190 Y33.9090 
G82 X101.2190 Y29.3370 
G82 X101.3460 Y30.9880 
G82 X101.8540 Y12.5730 
G82 X101.9810 Y37.7190 
G82 X103.7590 Y38.9890 
G82 X104.2670 Y56.2610 
G82 X104.7750 Y51.8160 
G82 X105.4100 Y41.9100 
G82 X105.4100 Y45.9740 
G82 X107.0610 Y36.3220 
G82 X107.5690 Y12.5730 
G82 X108.2040 Y51.5620 
G82 X109.0930 Y16.3830 
G82 X110.3630 Y43.1800 
G82 X110.3630 Y48.2600 
G82 X110.3630 Y64.5160 
G82 X11.0490 Y41.4020 
G82 X110.6170 Y38.9890 
G82 X110.8710 Y14.8590 
G82 X110.9980 Y10.0330 
G82 X111.3790 Y53.4670 
G82 X111.8870 Y7.4930  
G82 X112.1410 Y42.6720 
G82 X112.5220 Y48.8950 
G82 X112.9030 Y64.3890 
G82 X113.1570 Y20.4470 
G82 X113.2840 Y52.4510 
G82 X113.5380 Y37.7190 
G82 X114.1730 Y13.2080 
G82 X114.1730 Y15.4940 
G82 X114.4270 Y51.3080 
G82 X114.4270 Y24.5110 
G82 X114.5540 Y32.2580 
G82 X114.5540 Y69.8500 
G82 X114.9350 Y71.5010 
G82 X115.6970 Y33.9090 
G82 X115.6970 Y40.3860 
G82 X115.6970 Y47.1170 
G82 X115.8240 Y73.9140 
G82 X115.8240 Y21.9710 
G82 X116.8400 Y27.8130 
G82 X116.9670 Y60.7060 
G82 X116.9670 Y14.3510 
G82 X117.4750 Y26.2890 
G82 X117.7290 Y43.3070 
G82 X117.7290 Y62.2300 
G82 X117.8560 Y29.0830 
G82 X117.9830 Y37.7190 
G82 X118.2370 Y21.8440 
G82 X118.9990 Y67.4370 
G82 X120.0150 Y65.0240 
G82 X120.2690 Y59.5630 
G82 X120.5230 Y21.5900 
G82 X120.6500 Y39.7510 
G82 X121.2850 Y62.6110 
G82 X121.4120 Y60.7060 
G82 X121.6660 Y15.3670 
G82 X121.9200 Y33.1470 
G82 X123.5710 Y33.0200 
G82 X125.3490 Y33.7820 
G82 X125.3490 Y35.4330 
G82 X125.3490 Y37.0840 
G82 X125.3490 Y38.7350 
G82 X126.2380 Y23.6220 
G82 X126.6190 Y16.2560 
G82 X12.7000 Y67.4370 
G82 X13.5890 Y48.6410 
G82 X13.5890 Y70.9930 
G82 X13.5890 Y74.8030 
G82 X14.0970 Y19.5580 
G82 X14.2240 Y66.8020 
G82 X14.2240 Y8.2550  
G82 X15.1130 Y18.2880 
G82 X15.4940 Y74.8030 
G82 X15.7480 Y3.1750  
G82 X16.2560 Y43.4340 
G82 X16.2560 Y13.3350 
G82 X17.7800 Y52.8320 
G82 X17.9070 Y46.7360 
G82 X17.9070 Y51.1810 
G82 X18.5420 Y15.3670 
G82 X18.6690 Y18.4150 
G82 X18.7960 Y62.9920 
G82 X18.7960 Y8.8900  
G82 X19.8120 Y2.7940  
G82 X19.9390 Y33.2740 
G82 X19.9390 Y40.6400 
G82 X19.9390 Y69.5960 
G82 X19.9390 Y24.3840 
G82 X19.9390 Y28.3210 
G82 X20.1930 Y50.5460 
G82 X20.4470 Y31.6230 
G82 X21.0820 Y65.9130 
G82 X21.0820 Y74.9300 
G82 X21.3360 Y36.3220 
G82 X21.4630 Y48.2600 
G82 X21.7170 Y76.4540 
G82 X22.0980 Y63.5000 
G82 X22.0980 Y28.3210 
G82 X22.2250 Y12.3190 
G82 X22.6060 Y15.3670 
G82 X22.7330 Y65.7860 
G82 X22.7330 Y18.7960 
G82 X22.9870 Y42.0370 
G82 X24.0030 Y10.2870 
G82 X2.4130  Y41.4020 
G82 X24.2570 Y39.1160 
G82 X24.3840 Y31.4960 
G82 X24.7650 Y17.6530 
G82 X25.1460 Y9.1440  
G82 X25.2730 Y28.7020 
G82 X2.5400  Y43.1800 
G82 X25.5270 Y70.4850 
G82 X25.6540 Y5.3340  
G82 X25.6540 Y64.0080 
G82 X26.0350 Y31.4960 
G82 X26.0350 Y67.4370 
G82 X26.4160 Y37.9730 
G82 X26.6700 Y42.4180 
G82 X26.9240 Y15.3670 
G82 X28.4480 Y65.0240 
G82 X28.5750 Y14.8590 
G82 X29.7180 Y9.7790  
G82 X30.0990 Y18.7960 
G82 X30.2260 Y66.5480 
G82 X30.4800 Y38.4810 
G82 X30.6070 Y25.2730 
M05
G00 Z30.0000 
M06 T04  ; 0.6000  
G01 Z0.0000  F64    
M06 T04  ; 0.6000  
G00 Z1.0000  
M03
G04 P0.500000
G82 X4.6050  Y5.7550  Z-2.5000 F64    R1.0000  P0.000000
G82 X4.6050  Y10.7550 
M05
G00 Z30.0000 
M06 T05  ; 0.8128  
G01 Z0.0000  F64    
M06 T05  ; 0.8128  
G00 Z1.0000  
M03
G04 P0.500000
G82 X104.1400 Y20.3200 Z-2.5000 F64    R1.0000  P0.000000
G82 X109.2200 Y20.3200 
M05
G00 Z30.0000 
M06 T06  ; 0.9000  
G01 Z0.0000  F64    
M06 T06  ; 0.9000  
G00 Z1.0000  
M03
G04 P0.500000
G82 X117.1230 Y8.2460  Z-2.5000 F64    R1.0000  P0.000000
G82 X117.1230 Y10.7460 
G82 X119.2230 Y8.2460  
G82 X121.8230 Y8.2460  
G82 X123.9230 Y8.2460  
G82 X123.9230 Y10.7460 
G82 X1.9050  Y4.7550  
G82 X1.9050  Y11.7550 
M05
G00 Z30.0000 
M06 T07  ; 1.0000  
G01 Z0.0000  F64    
M06 T07  ; 1.0000  
G00 Z1.0000  
M03
G04 P0.500000
G82 X33.6737 Y58.1118 Z-2.5000 F64    R1.0000  P0.000000
G82 X33.6737 Y60.6518 
G82 X33.6737 Y7.3118  
G82 X33.6737 Y9.8518  
G82 X36.2137 Y58.1118 
G82 X36.2137 Y60.6518 
G82 X36.2137 Y9.8518  
G82 X38.7537 Y58.1118 
G82 X38.7537 Y60.6518 
G82 X38.7537 Y9.8518  
G82 X41.2937 Y58.1118 
G82 X41.2937 Y60.6518 
G82 X41.2937 Y7.3118  
G82 X41.2937 Y9.8518  
G82 X43.8337 Y58.1118 
G82 X43.8337 Y60.6518 
G82 X46.3737 Y58.1118 
G82 X46.3737 Y60.6518 
G82 X46.3737 Y7.3118  
G82 X48.9137 Y58.1118 
G82 X48.9137 Y60.6518 
G82 X51.4537 Y58.1118 
G82 X51.4537 Y60.6518 
G82 X53.9937 Y58.1118 
G82 X53.9937 Y60.6518 
G82 X53.9937 Y7.3118  
G82 X53.9937 Y9.8518  
G82 X56.5337 Y58.1118 
G82 X56.5337 Y60.6518 
G82 X56.5337 Y7.3118  
G82 X59.0737 Y58.1118 
G82 X59.0737 Y60.6518 
G82 X59.0737 Y9.8518  
G82 X61.6137 Y58.1118 
G82 X61.6137 Y60.6518 
G82 X61.6137 Y7.3118  
G82 X61.6137 Y9.8518  
G82 X64.1537 Y58.1118 
G82 X64.1537 Y60.6518 
G82 X64.1537 Y7.3118  
G82 X64.1537 Y9.8518  
G82 X66.6937 Y58.1118 
G82 X66.6937 Y60.6518 
G82 X66.6937 Y7.3118  
G82 X69.2337 Y58.1118 
G82 X69.2337 Y60.6518 
G82 X71.7737 Y58.1118 
G82 X71.7737 Y60.6518 
G82 X74.3137 Y58.1118 
G82 X74.3137 Y60.6518 
G82 X74.3137 Y7.3118  
G82 X74.3137 Y9.8518  
G82 X76.8537 Y32.7118 
G82 X76.8537 Y35.2518 
G82 X76.8537 Y37.7918 
G82 X76.8537 Y40.3318 
G82 X76.8537 Y42.8718 
G82 X76.8537 Y45.4118 
G82 X76.8537 Y47.9518 
G82 X76.8537 Y50.4918 
G82 X76.8537 Y53.0318 
G82 X76.8537 Y55.5718 
G82 X76.8537 Y12.3918 
G82 X76.8537 Y14.9318 
G82 X76.8537 Y20.0118 
G82 X76.8537 Y22.5518 
G82 X76.8537 Y27.6318 
G82 X76.8537 Y30.1718 
G82 X79.3937 Y35.2518 
G82 X79.3937 Y37.7918 
G82 X79.3937 Y40.3318 
G82 X79.3937 Y42.8718 
G82 X79.3937 Y45.4118 
G82 X79.3937 Y50.4918 
G82 X79.3937 Y53.0318 
G82 X79.3937 Y55.5718 
G82 X79.3937 Y12.3918 
G82 X79.3937 Y14.9318 
G82 X79.3937 Y17.4718 
G82 X79.3937 Y20.0118 
G82 X79.3937 Y22.5518 
G82 X79.3937 Y25.0918 
G82 X79.3937 Y27.6318 
G82 X79.3937 Y30.1718 
G82 X26.0537 Y47.9518 
G82 X26.0537 Y53.0318 
G82 X26.0537 Y55.5718 
G82 X26.0537 Y20.0118 
G82 X26.0537 Y22.5518 
G82 X28.5937 Y32.7118 
G82 X28.5937 Y40.3318 
G82 X28.5937 Y42.8718 
G82 X28.5937 Y45.4118 
G82 X28.5937 Y47.9518 
G82 X28.5937 Y50.4918 
G82 X28.5937 Y53.0318 
G82 X28.5937 Y55.5718 
G82 X28.5937 Y22.5518 
G82 X31.1337 Y58.1118 
G82 X31.1337 Y60.6518 
G82 X31.1337 Y7.3118  
M05
G00 Z30.0000 
M06 T08  ; 1.0160  
G01 Z0.0000  F64    
M06 T08  ; 1.0160  
G00 Z1.0000  
M03
G04 P0.500000
G82 X5.0800  Y43.1800 Z-2.5000 F64    R1.0000  P0.000000
G82 X5.0800  Y48.2600 
G82 X106.2736 Y65.9130 
G82 X107.6452 Y68.4530 
G82 X109.0168 Y65.9130 
G82 X110.3884 Y68.4530 
G82 X111.7600 Y65.9130 
G82 X113.1316 Y68.4530 
G82 X114.5032 Y65.9130 
G82 X115.8748 Y68.4530 
G82 X117.2464 Y65.9130 
G82 X120.0150 Y44.8310 
G82 X120.0150 Y47.3710 
G82 X120.0150 Y49.9110 
G82 X120.0150 Y52.4510 
G82 X120.0150 Y54.9910 
G82 X120.0150 Y57.5310 
G82 X122.5550 Y44.8310 
G82 X122.5550 Y47.3710 
G82 X122.5550 Y49.9110 
G82 X122.5550 Y52.4510 
G82 X122.5550 Y54.9910 
G82 X122.5550 Y57.5310 
M05
G00 Z30.0000 
M06 T09  ; 1.2000  
G01 Z0.0000  F64    
M06 T09  ; 1.2000  
G00 Z1.0000  
M03
G04 P0.500000
G82 X4.4450  Y65.1002 Z-2.5000 F64    R1.0000  P0.000000
G82 X4.4450  Y75.1078 
G82 X93.9292 Y4.4450  
G82 X93.9292 Y1.9558  
G82 X9.4488  Y70.1040 
G82 X98.9330 Y9.4488  
G82 X103.9368 Y4.4450  
G82 X103.9368 Y1.9558  
G82 X1.9558  Y65.1002 
G82 X1.9558  Y75.1078 
M05
G00 Z30.0000 
M06 T10  ; 1.6000  
G01 Z0.0000  F64    
M06 T10  ; 1.6000  
G00 Z1.0000  
M03
G04 P0.500000
G82 X4.4450  Y70.1040 Z-2.5000 F64    R1.0000  P0.000000
G82 X93.9292 Y9.4488  
G82 X9.4488  Y65.1002 
G82 X9.4488  Y75.1078 
G82 X98.9330 Y4.4450  
G82 X103.9368 Y9.4488  
M05
G00 Z30.0000 
M06 T11  ; 2.0000  
G01 Z0.0000  F64    
M06 T11  ; 2.0000  
G00 Z1.0000  
M03
G04 P0.500000
G82 X3.9450  Y57.1500 Z-2.5000 F64    R1.0000  P0.000000
G82 X7.7200  Y53.4620 
G82 X7.7200  Y60.8380 
M05
G00 Z30.0000 
M06 T12  ; 2.2000  
G01 Z0.0000  F64    
M06 T12  ; 2.2000  
G00 Z1.0000  
M03
G04 P0.500000
G82 X120.5230 Y5.4620  Z-2.5000 F64    R1.0000  P0.000000
T01 
G00 Z12.7000 
M05
M02
