(.../pcb-gcode-3.6.0.4/pcb-gcode.ulp)
(Copyright 2005 - 2012 by John Johnson)
(See readme.txt for licensing terms.)
(This file generated from the board:)
(.../ZXUNO celes 1.7/ZXUNO celes 1.7.brd)
(Current profile is .../pcb-gcode-3.6.0.4/profiles/mach.pp  )
(This file generated 29/12/2014 19:38:00)
(Settings from pcb-machine.h)
(  Tool Size)
(0.2000  )
(Z Axis Settings)
(  High     Up        Down     Drill)
(12.7000 	1.0000  	-0.0500 	-2.5000 )
(spindle on time = 0.5000)
(milling depth = -1.5000)
(text depth = -0.0250)
(tool change at 0.0000  0.0000  30.0000 )
(feed rate xy = F128   )
(feed rate z  = F64    )
(Settings from pcb-defaults.h)
(isolate min = 0.0000)
(isolate max = 0.5000)
(isolate step = 0.1200)
(Generated top outlines, top drill, bottom outlines, bottom drill, )
(Unit of measure: mm)
(Metric Mode)
G21
(Absolute Coordinates)
G90
G00 X0.0000  Y0.0000  
M03
G04 P0.500000
G00 Z1.0000  
G00 X-8.1060 Y15.5952 
G01 Z-0.0500 F64    
G01 X-8.1119 Y15.6249 F128   
G01 X-8.1235 Y15.6529 
G01 X-8.1404 Y15.6782 
G01 X-8.1618 Y15.6996 
G01 X-8.1871 Y15.7165 
G01 X-8.2151 Y15.7281 
G01 X-8.2448 Y15.7340 
G01 X-9.5600 Y15.7340 
G01 X-9.5600 Y15.6800 
G01 X-8.2401 Y15.6800 
G01 X-8.2034 Y15.6648 
G01 X-8.1752 Y15.6366 
G01 X-8.1600 Y15.5999 
G01 X-8.1600 Y15.1800 
G01 X-8.1060 Y15.1800 
G01 X-8.1060 Y15.5952 
G00 Z1.0000  
G00 X-8.2151 Y13.4319 
G01 Z-0.0500 F64    
G01 X-8.1871 Y13.4435 F128   
G01 X-8.1618 Y13.4604 
G01 X-8.1404 Y13.4818 
G01 X-8.1235 Y13.5071 
G01 X-8.1119 Y13.5351 
G01 X-8.1060 Y13.5648 
G01 X-8.1060 Y13.9800 
G01 X-8.1600 Y13.9800 
G01 X-8.1600 Y13.5601 
G01 X-8.1752 Y13.5234 
G01 X-8.2034 Y13.4952 
G01 X-8.2401 Y13.4800 
G01 X-9.5600 Y13.4800 
G01 X-9.5600 Y13.4260 
G01 X-8.2448 Y13.4260 
G01 X-8.2151 Y13.4319 
G00 Z1.0000  
G00 X-61.5438 Y64.9879 
G01 Z-0.0500 F64    
G01 X-61.5718 Y64.9763 F128   
G01 X-61.5970 Y64.9595 
G01 X-61.6185 Y64.9380 
G01 X-61.6353 Y64.9128 
G01 X-61.6470 Y64.8848 
G01 X-61.6529 Y64.8550 
G01 X-61.6529 Y64.5963 
G01 X-61.5989 Y64.5963 
G01 X-61.5989 Y64.8598 
G01 X-61.5836 Y64.8965 
G01 X-61.5555 Y64.9246 
G01 X-61.5188 Y64.9399 
G01 X-61.3553 Y64.9399 
G01 X-61.3553 Y64.9939 
G01 X-61.5140 Y64.9939 
G01 X-61.5438 Y64.9879 
G00 Z1.0000  
G00 X-31.0468 Y33.6257 
G01 Z-0.0500 F64    
G01 X-31.0101 Y33.6104 F128   
G01 X-30.9819 Y33.5823 
G01 X-30.9667 Y33.5456 
G01 X-30.9667 Y33.2821 
G01 X-30.9127 Y33.2821 
G01 X-30.9127 Y33.5408 
G01 X-30.9186 Y33.5706 
G01 X-30.9302 Y33.5986 
G01 X-30.9471 Y33.6238 
G01 X-30.9685 Y33.6453 
G01 X-30.9938 Y33.6621 
G01 X-31.0218 Y33.6737 
G01 X-31.0515 Y33.6797 
G01 X-31.2103 Y33.6797 
G01 X-31.2103 Y33.6257 
G01 X-31.0468 Y33.6257 
G00 Z1.0000  
G00 X-29.1067 Y33.7520 
G01 Z-0.0500 F64    
G01 X-29.2380 Y33.6762 F128   
G01 X-29.3584 Y33.5838 
G01 X-29.4657 Y33.4765 
G01 X-29.5580 Y33.3562 
G01 X-29.6339 Y33.2248 
G01 X-29.6366 Y33.2183 
G01 X-29.5739 Y33.2183 
G01 X-29.5373 Y33.2901 
G01 X-29.4352 Y33.4306 
G01 X-29.3124 Y33.5534 
G01 X-29.1719 Y33.6555 
G01 X-29.1001 Y33.6921 
G01 X-29.1001 Y33.7547 
G01 X-29.1067 Y33.7520 
G00 Z1.0000  
G00 X-29.4657 Y31.9471 
G01 Z-0.0500 F64    
G01 X-29.3584 Y31.8399 F128   
G01 X-29.2380 Y31.7475 
G01 X-29.1067 Y31.6717 
G01 X-29.1001 Y31.6689 
G01 X-29.1001 Y31.7316 
G01 X-29.1719 Y31.7682 
G01 X-29.3124 Y31.8703 
G01 X-29.4352 Y31.9931 
G01 X-29.5373 Y32.1336 
G01 X-29.5739 Y32.2054 
G01 X-29.6366 Y32.2054 
G01 X-29.6339 Y32.1989 
G01 X-29.5580 Y32.0675 
G01 X-29.4657 Y31.9471 
G00 Z1.0000  
G00 X-96.9514 Y5.0159  
G01 Z-0.0500 F64    
G01 X-97.0277 Y5.2342  F128   
G01 X-97.1281 Y5.4425  
G01 X-97.1566 Y5.4880  
G01 X-97.2200 Y5.4880  
G01 X-97.1309 Y5.3337  
G01 X-97.0303 Y5.0909  
G01 X-96.9930 Y4.9514  
G01 X-96.9366 Y4.9514  
G01 X-96.9514 Y5.0159  
G00 Z1.0000  
G00 X-97.7396 Y2.7631  
G01 Z-0.0500 F64    
G01 X-97.5588 Y2.9073  F128   
G01 X-97.3953 Y3.0708  
G01 X-97.2511 Y3.2516  
G01 X-97.1281 Y3.4474  
G01 X-97.0277 Y3.6558  
G01 X-96.9513 Y3.8741  
G01 X-96.9366 Y3.9386  
G01 X-96.9930 Y3.9386  
G01 X-97.0303 Y3.7991  
G01 X-97.1309 Y3.5563  
G01 X-97.2623 Y3.3287  
G01 X-97.4223 Y3.1202  
G01 X-97.6082 Y2.9343  
G01 X-97.8167 Y2.7743  
G01 X-98.0443 Y2.6429  
G01 X-98.2871 Y2.5423  
G01 X-98.4266 Y2.5050  
G01 X-98.4266 Y2.4486  
G01 X-98.3621 Y2.4633  
G01 X-98.1438 Y2.5397  
G01 X-97.9354 Y2.6401  
G01 X-97.7396 Y2.7631  
G00 Z1.0000  
G00 X-100.8357 Y5.0909  
G01 Z-0.0500 F64    
G01 X-100.7351 Y5.3337  F128   
G01 X-100.6037 Y5.5613  
G01 X-100.4437 Y5.7698  
G01 X-100.2578 Y5.9557  
G01 X-100.0493 Y6.1157  
G01 X-99.8217 Y6.2471  
G01 X-99.5789 Y6.3477  
G01 X-99.4394 Y6.3850  
G01 X-99.4394 Y6.4414  
G01 X-99.5039 Y6.4266  
G01 X-99.7222 Y6.3503  
G01 X-99.9306 Y6.2499  
G01 X-100.1264 Y6.1269  
G01 X-100.3072 Y5.9827  
G01 X-100.4707 Y5.8192  
G01 X-100.6149 Y5.6384  
G01 X-100.7379 Y5.4425  
G01 X-100.8383 Y5.2342  
G01 X-100.9146 Y5.0159  
G01 X-100.9294 Y4.9514  
G01 X-100.8730 Y4.9514  
G01 X-100.8357 Y5.0909  
G00 Z1.0000  
G00 X-100.6149 Y3.2516  
G01 Z-0.0500 F64    
G01 X-100.4707 Y3.0708  F128   
G01 X-100.3072 Y2.9073  
G01 X-100.1264 Y2.7631  
G01 X-99.9305 Y2.6401  
G01 X-99.7222 Y2.5397  
G01 X-99.5039 Y2.4633  
G01 X-99.4394 Y2.4486  
G01 X-99.4394 Y2.5050  
G01 X-99.5789 Y2.5423  
G01 X-99.8217 Y2.6429  
G01 X-100.0493 Y2.7743  
G01 X-100.2578 Y2.9343  
G01 X-100.4437 Y3.1202  
G01 X-100.6037 Y3.3287  
G01 X-100.7351 Y3.5563  
G01 X-100.8357 Y3.7991  
G01 X-100.8730 Y3.9386  
G01 X-100.9294 Y3.9386  
G01 X-100.9146 Y3.8741  
G01 X-100.8383 Y3.6558  
G01 X-100.7379 Y3.4474  
G01 X-100.6149 Y3.2516  
G00 Z1.0000  
G00 X-21.8170 Y1.4970  
G01 Z-0.0500 F64    
G01 X-21.8170 Y1.5481  F128   
G01 X-21.8198 Y1.5433  
G01 X-21.8660 Y1.4970  
G01 X-21.8170 Y1.4970  
G00 Z1.0000  
G00 X-124.8150 Y7.6993  
G01 Z-0.0500 F64    
G01 X-124.7186 Y7.5665  F128   
G01 X-124.6025 Y7.4504  
G01 X-124.4697 Y7.3539  
G01 X-124.4294 Y7.3334  
G01 X-124.4294 Y7.3949  
G01 X-124.5535 Y7.4778  
G01 X-124.6912 Y7.6155  
G01 X-124.7845 Y7.7553  
G01 X-124.7903 Y7.7562  
G01 X-124.8149 Y7.7671  
G01 X-124.8410 Y7.7741  
G01 X-124.8582 Y7.7840  
G01 X-124.8150 Y7.6993  
G00 Z1.0000  
G00 X-109.9302 Y55.4640 
G01 Z-0.0500 F64    
G01 X-109.9599 Y55.4581 F128   
G01 X-109.9879 Y55.4465 
G01 X-110.0132 Y55.4296 
G01 X-110.0346 Y55.4082 
G01 X-110.0515 Y55.3829 
G01 X-110.0631 Y55.3549 
G01 X-110.0690 Y55.3252 
G01 X-110.0690 Y55.2018 
G01 X-110.0646 Y55.1686 
G01 X-110.0690 Y55.1354 
G01 X-110.0690 Y55.1019 
G01 X-110.0777 Y55.0696 
G01 X-110.0820 Y55.0364 
G01 X-110.0948 Y55.0055 
G01 X-110.1035 Y54.9731 
G01 X-110.1203 Y54.9441 
G01 X-110.1331 Y54.9132 
G01 X-110.1534 Y54.8867 
G01 X-110.1702 Y54.8577 
G01 X-110.1938 Y54.8340 
G01 X-110.2142 Y54.8074 
G01 X-110.2408 Y54.7870 
G01 X-110.2645 Y54.7634 
G01 X-110.2935 Y54.7466 
G01 X-110.3200 Y54.7263 
G01 X-110.3480 Y54.7147 
G01 X-110.0150 Y54.3816 
G01 X-110.0150 Y55.3299 
G01 X-109.9998 Y55.3666 
G01 X-109.9716 Y55.3948 
G01 X-109.9349 Y55.4100 
G01 X-109.7214 Y55.4100 
G01 X-109.7214 Y55.4640 
G01 X-109.9302 Y55.4640 
G00 Z1.0000  
G00 X-108.4998 Y55.4640 
G01 Z-0.0500 F64    
G01 X-108.7086 Y55.4640 F128   
G01 X-108.7086 Y55.4100 
G01 X-108.4951 Y55.4100 
G01 X-108.4584 Y55.3948 
G01 X-108.4302 Y55.3666 
G01 X-108.4150 Y55.3299 
G01 X-108.4150 Y55.1164 
G01 X-108.3610 Y55.1164 
G01 X-108.3610 Y55.3252 
G01 X-108.3669 Y55.3549 
G01 X-108.3785 Y55.3829 
G01 X-108.3954 Y55.4082 
G01 X-108.4168 Y55.4296 
G01 X-108.4421 Y55.4465 
G01 X-108.4701 Y55.4581 
G01 X-108.4998 Y55.4640 
G00 Z1.0000  
G00 X-109.4964 Y47.8940 
G01 Z-0.0500 F64    
G01 X-109.4424 Y47.8400 F128   
G01 X-109.4064 Y47.8400 
G01 X-109.4064 Y47.8940 
G01 X-109.4964 Y47.8940 
G00 Z1.0000  
G00 X-98.2871 Y6.3477  
G01 Z-0.0500 F64    
G01 X-98.0443 Y6.2471  F128   
G01 X-97.9558 Y6.1960  
G01 X-97.8496 Y6.1960  
G01 X-97.9354 Y6.2499  
G01 X-98.1438 Y6.3503  
G01 X-98.3621 Y6.4266  
G01 X-98.4266 Y6.4414  
G01 X-98.4266 Y6.3850  
G01 X-98.2871 Y6.3477  
G00 Z1.0000  
G00 X-92.6164 Y2.2169  
G01 Z-0.0500 F64    
G01 X-92.8163 Y2.6994  F128   
G01 X-93.0063 Y2.8895  
G01 X-93.0336 Y2.9368  
G01 X-93.0730 Y3.0049  
G01 X-93.1075 Y3.1337  
G01 X-93.1075 Y3.2671  
G01 X-93.0986 Y3.3001  
G01 X-93.0730 Y3.3959  
G01 X-93.0063 Y3.5113  
G01 X-92.9120 Y3.6056  
G01 X-92.8163 Y3.7014  
G01 X-92.6164 Y4.1839  
G01 X-92.6164 Y4.6128  
G01 X-93.4916 Y5.4880  
G01 X-94.7428 Y5.4880  
G01 X-95.0421 Y5.1886  
G01 X-95.2420 Y4.7061  
G01 X-95.2420 Y4.1839  
G01 X-95.0421 Y3.7014  
G01 X-94.9464 Y3.6056  
G01 X-94.8569 Y3.5161  
G01 X-94.8521 Y3.5113  
G01 X-94.7854 Y3.3959  
G01 X-94.7606 Y3.3031  
G01 X-94.7509 Y3.2671  
G01 X-94.7509 Y3.1337  
G01 X-94.7854 Y3.0049  
G01 X-94.8231 Y2.9397  
G01 X-94.8521 Y2.8895  
G01 X-94.9464 Y2.7952  
G01 X-95.0421 Y2.6994  
G01 X-95.2420 Y2.2169  
G01 X-95.2420 Y1.6947  
G01 X-95.0421 Y1.2122  
G01 X-94.6728 Y0.8429  
G01 X-94.1903 Y0.6430  
G01 X-93.6681 Y0.6430  
G01 X-93.1856 Y0.8429  
G01 X-92.8163 Y1.2122  
G01 X-92.6164 Y1.6947  
G01 X-92.6164 Y2.2169  
G00 Z1.0000  
G00 X-102.6240 Y2.2169  
G01 Z-0.0500 F64    
G01 X-102.8239 Y2.6994  F128   
G01 X-103.0139 Y2.8895  
G01 X-103.0412 Y2.9368  
G01 X-103.0806 Y3.0049  
G01 X-103.1151 Y3.1337  
G01 X-103.1151 Y3.2671  
G01 X-103.1062 Y3.3001  
G01 X-103.0806 Y3.3959  
G01 X-103.0139 Y3.5113  
G01 X-102.9196 Y3.6056  
G01 X-102.8239 Y3.7014  
G01 X-102.6240 Y4.1839  
G01 X-102.6240 Y4.7061  
G01 X-102.8239 Y5.1886  
G01 X-103.1932 Y5.5579  
G01 X-103.6757 Y5.7578  
G01 X-104.1979 Y5.7578  
G01 X-104.5820 Y5.5987  
G01 X-104.7142 Y5.5813  
G01 X-104.8464 Y5.5987  
G01 X-104.9696 Y5.6497  
G01 X-105.0147 Y5.6843  
G01 X-105.0754 Y5.7309  
G01 X-105.1388 Y5.8135  
G01 X-105.1565 Y5.8367  
G01 X-105.1797 Y5.8927  
G01 X-105.2076 Y5.9599  
G01 X-105.2684 Y6.1069  
G01 X-105.3297 Y6.1681  
G01 X-105.3570 Y6.2154  
G01 X-105.3963 Y6.2836  
G01 X-105.4309 Y6.4124  
G01 X-105.4309 Y6.5457  
G01 X-105.4220 Y6.5788  
G01 X-105.3963 Y6.6745  
G01 X-105.3297 Y6.7900  
G01 X-105.2354 Y6.8843  
G01 X-105.1881 Y6.9116  
G01 X-105.1199 Y6.9509  
G01 X-104.9911 Y6.9854  
G01 X-104.8578 Y6.9854  
G01 X-104.8058 Y6.9715  
G01 X-104.7290 Y6.9509  
G01 X-104.2814 Y6.8310  
G01 X-103.5922 Y6.8310  
G01 X-102.9264 Y7.0094  
G01 X-102.3294 Y7.3540  
G01 X-101.8420 Y7.8414  
G01 X-101.4974 Y8.4384  
G01 X-101.3190 Y9.1042  
G01 X-101.3190 Y9.3784  
G01 X-101.6904 Y9.7497  
G01 X-101.7563 Y9.8156  
G01 X-101.8029 Y9.8964  
G01 X-101.8270 Y9.9864  
G01 X-101.8270 Y10.2674 
G01 X-103.0166 Y11.4570 
G01 X-106.0254 Y11.4570 
G01 X-106.2944 Y11.1880 
G01 X-106.2877 Y11.1764 
G01 X-106.2673 Y11.1499 
G01 X-106.2545 Y11.1189 
G01 X-106.2377 Y11.0900 
G01 X-106.2291 Y11.0576 
G01 X-106.2163 Y11.0267 
G01 X-106.2119 Y10.9935 
G01 X-106.2032 Y10.9612 
G01 X-106.2032 Y10.9277 
G01 X-106.1989 Y10.8945 
G01 X-106.2032 Y10.8613 
G01 X-106.2032 Y10.8278 
G01 X-106.2119 Y10.7955 
G01 X-106.2163 Y10.7623 
G01 X-106.2291 Y10.7314 
G01 X-106.2377 Y10.6990 
G01 X-106.2545 Y10.6700 
G01 X-106.2673 Y10.6391 
G01 X-106.2877 Y10.6125 
G01 X-106.3762 Y10.4592 
G01 X-106.4570 Y10.1575 
G01 X-106.4915 Y10.0287 
G01 X-106.5567 Y9.9158  
G01 X-106.5582 Y9.9133  
G01 X-106.6525 Y9.8190  
G01 X-106.7680 Y9.7523  
G01 X-106.8968 Y9.7178  
G01 X-107.7646 Y9.7178  
G01 X-108.7850 Y8.6974  
G01 X-108.7850 Y7.4851  
G01 X-108.8002 Y7.4484  
G01 X-108.8284 Y7.4202  
G01 X-108.8651 Y7.4050  
G01 X-110.2049 Y7.4050  
G01 X-110.2416 Y7.4202  
G01 X-110.2698 Y7.4484  
G01 X-110.2850 Y7.4851  
G01 X-110.2850 Y8.4090  
G01 X-112.2484 Y8.4090  
G01 X-112.9300 Y7.7274  
G01 X-112.9300 Y6.5940  
G01 X-112.9083 Y6.5723  
G01 X-112.9042 Y6.5682  
G01 X-112.8375 Y6.4527  
G01 X-112.8126 Y6.3599  
G01 X-112.8030 Y6.3239  
G01 X-112.8030 Y5.8297  
G01 X-112.7986 Y5.7965  
G01 X-112.8030 Y5.7633  
G01 X-112.8030 Y5.7299  
G01 X-112.8117 Y5.6975  
G01 X-112.8160 Y5.6643  
G01 X-112.8288 Y5.6334  
G01 X-112.8375 Y5.6011  
G01 X-112.8542 Y5.5721  
G01 X-112.9300 Y5.3892  
G01 X-112.9300 Y4.8711  
G01 X-112.9300 Y2.4326  
G01 X-112.7564 Y2.2590  
G01 X-111.3986 Y2.2590  
G01 X-110.9250 Y2.7326  
G01 X-110.9250 Y3.9449  
G01 X-110.9098 Y3.9816  
G01 X-110.8816 Y4.0098  
G01 X-110.8449 Y4.0250  
G01 X-109.5051 Y4.0250  
G01 X-109.4684 Y4.0098  
G01 X-109.4402 Y3.9816  
G01 X-109.4250 Y3.9449  
G01 X-109.4250 Y2.4051  
G01 X-109.4402 Y2.3684  
G01 X-109.4684 Y2.3402  
G01 X-109.5051 Y2.3250  
G01 X-109.6686 Y2.3250  
G01 X-109.6686 Y2.2710  
G01 X-109.5098 Y2.2710  
G01 X-109.4801 Y2.2769  
G01 X-109.3607 Y2.3264  
G01 X-109.2444 Y2.3417  
G01 X-109.2285 Y2.3438  
G01 X-109.0963 Y2.3264  
G01 X-108.9731 Y2.2753  
G01 X-108.8905 Y2.2119  
G01 X-108.8673 Y2.1942  
G01 X-108.7861 Y2.0884  
G01 X-108.7351 Y1.9652  
G01 X-108.6693 Y1.8062  
G01 X-108.4688 Y1.6057  
G01 X-108.2068 Y1.4972  
G01 X-106.4232 Y1.4972  
G01 X-106.1612 Y1.6057  
G01 X-106.0499 Y1.7170  
G01 X-106.0295 Y1.7436  
G01 X-106.0030 Y1.7640  
G01 X-105.9793 Y1.7876  
G01 X-105.9503 Y1.8044  
G01 X-105.9238 Y1.8248  
G01 X-105.8928 Y1.8376  
G01 X-105.8638 Y1.8543  
G01 X-105.8315 Y1.8630  
G01 X-105.8006 Y1.8758  
G01 X-105.7674 Y1.8801  
G01 X-105.7350 Y1.8888  
G01 X-105.7016 Y1.8888  
G01 X-105.6684 Y1.8932  
G01 X-105.6352 Y1.8888  
G01 X-105.6017 Y1.8888  
G01 X-105.5694 Y1.8801  
G01 X-105.5362 Y1.8758  
G01 X-105.5053 Y1.8630  
G01 X-105.4729 Y1.8543  
G01 X-105.4439 Y1.8376  
G01 X-105.4130 Y1.8247  
G01 X-105.3864 Y1.8044  
G01 X-105.3574 Y1.7876  
G01 X-105.3338 Y1.7640  
G01 X-105.3072 Y1.7436  
G01 X-105.2868 Y1.7170  
G01 X-105.2632 Y1.6933  
G01 X-105.2464 Y1.6643  
G01 X-105.2260 Y1.6378  
G01 X-105.2132 Y1.6069  
G01 X-105.1965 Y1.5779  
G01 X-105.1878 Y1.5455  
G01 X-105.0497 Y1.2122  
G01 X-104.6804 Y0.8429  
G01 X-104.1979 Y0.6430  
G01 X-103.6757 Y0.6430  
G01 X-103.1932 Y0.8429  
G01 X-102.8239 Y1.2122  
G01 X-102.6240 Y1.6947  
G01 X-102.6240 Y2.2169  
G00 Z1.0000  
G00 X-105.9418 Y9.3174  
G01 Z-0.0500 F64    
G01 X-105.9418 Y9.5802  F128   
G01 X-105.9075 Y9.8408  
G01 X-105.8395 Y10.0947 
G01 X-105.7389 Y10.3375 
G01 X-105.6075 Y10.5651 
G01 X-105.4475 Y10.7736 
G01 X-105.2616 Y10.9595 
G01 X-105.0531 Y11.1195 
G01 X-104.8255 Y11.2509 
G01 X-104.5827 Y11.3515 
G01 X-104.3288 Y11.4195 
G01 X-104.0682 Y11.4538 
G01 X-103.8054 Y11.4538 
G01 X-103.5448 Y11.4195 
G01 X-103.2909 Y11.3515 
G01 X-103.0481 Y11.2509 
G01 X-102.8205 Y11.1195 
G01 X-102.6120 Y10.9595 
G01 X-102.4261 Y10.7736 
G01 X-102.2661 Y10.5651 
G01 X-102.1347 Y10.3375 
G01 X-102.0341 Y10.0947 
G01 X-101.9661 Y9.8408  
G01 X-101.9318 Y9.5802  
G01 X-101.9318 Y9.3174  
G01 X-101.9661 Y9.0568  
G01 X-102.0341 Y8.8029  
G01 X-102.1347 Y8.5601  
G01 X-102.2661 Y8.3325  
G01 X-102.4261 Y8.1240  
G01 X-102.6120 Y7.9381  
G01 X-102.8205 Y7.7781  
G01 X-103.0481 Y7.6467  
G01 X-103.2909 Y7.5461  
G01 X-103.5448 Y7.4781  
G01 X-103.8054 Y7.4438  
G01 X-104.0682 Y7.4438  
G01 X-104.3288 Y7.4781  
G01 X-104.5827 Y7.5461  
G01 X-104.8255 Y7.6467  
G01 X-105.0531 Y7.7781  
G01 X-105.2616 Y7.9381  
G01 X-105.4023 Y8.0788  
G01 X-106.8850 Y8.0788  
G01 X-106.8850 Y7.4851  
G01 X-106.9002 Y7.4484  
G01 X-106.9284 Y7.4202  
G01 X-106.9651 Y7.4050  
G01 X-107.2658 Y7.4050  
G01 X-107.2658 Y7.2376  
G01 X-105.8024 Y5.7742  
G01 X-105.7625 Y5.7050  
G01 X-105.7418 Y5.6279  
G01 X-105.7418 Y3.8971  
G01 X-105.7625 Y3.8200  
G01 X-105.8024 Y3.7508  
G01 X-105.8588 Y3.6944  
G01 X-106.4650 Y3.0882  
G01 X-106.4650 Y2.1901  
G01 X-106.4802 Y2.1534  
G01 X-106.5084 Y2.1252  
G01 X-106.5451 Y2.1100  
G01 X-108.0849 Y2.1100  
G01 X-108.1216 Y2.1252  
G01 X-108.1498 Y2.1534  
G01 X-108.1650 Y2.1901  
G01 X-108.1650 Y3.5299  
G01 X-108.1498 Y3.5666  
G01 X-108.1216 Y3.5948  
G01 X-108.0849 Y3.6100  
G01 X-106.8008 Y3.6100  
G01 X-106.3482 Y4.0626  
G01 X-106.3482 Y5.4624  
G01 X-107.7552 Y6.8694  
G01 X-107.8116 Y6.9258  
G01 X-107.8515 Y6.9950  
G01 X-107.8722 Y7.0721  
G01 X-107.8722 Y7.4050  
G01 X-108.3049 Y7.4050  
G01 X-108.3416 Y7.4202  
G01 X-108.3698 Y7.4484  
G01 X-108.3850 Y7.4851  
G01 X-108.3850 Y9.0249  
G01 X-108.3698 Y9.0616  
G01 X-108.3416 Y9.0898  
G01 X-108.3049 Y9.1050  
G01 X-106.9651 Y9.1050  
G01 X-106.9284 Y9.0898  
G01 X-106.9002 Y9.0616  
G01 X-106.8850 Y9.0249  
G01 X-106.8850 Y8.6852  
G01 X-105.7907 Y8.6852  
G01 X-105.8395 Y8.8029  
G01 X-105.9075 Y9.0568  
G01 X-105.9418 Y9.3174  
G00 Z1.0000  
G00 X-108.7900 Y6.4849  
G01 Z-0.0500 F64    
G01 X-108.7900 Y5.4598  F128   
G01 X-108.4594 Y5.1292  
G01 X-108.1650 Y5.1292  
G01 X-108.1650 Y5.4299  
G01 X-108.1498 Y5.4666  
G01 X-108.1216 Y5.4948  
G01 X-108.0849 Y5.5100  
G01 X-106.5451 Y5.5100  
G01 X-106.5084 Y5.4948  
G01 X-106.4802 Y5.4666  
G01 X-106.4650 Y5.4299  
G01 X-106.4650 Y4.0901  
G01 X-106.4802 Y4.0534  
G01 X-106.5084 Y4.0252  
G01 X-106.5451 Y4.0100  
G01 X-108.0849 Y4.0100  
G01 X-108.1216 Y4.0252  
G01 X-108.1498 Y4.0534  
G01 X-108.1650 Y4.0901  
G01 X-108.1650 Y4.5228  
G01 X-108.6249 Y4.5228  
G01 X-108.7020 Y4.5435  
G01 X-108.7712 Y4.5834  
G01 X-109.0528 Y4.8650  
G01 X-110.2099 Y4.8650  
G01 X-110.2466 Y4.8802  
G01 X-110.2748 Y4.9084  
G01 X-110.2900 Y4.9451  
G01 X-110.2900 Y6.4849  
G01 X-110.2748 Y6.5216  
G01 X-110.2466 Y6.5498  
G01 X-110.2099 Y6.5650  
G01 X-108.8701 Y6.5650  
G01 X-108.8334 Y6.5498  
G01 X-108.8052 Y6.5216  
G01 X-108.7900 Y6.4849  
G00 Z1.0000  
G00 X-111.3250 Y3.9449  
G01 Z-0.0500 F64    
G01 X-111.3250 Y2.4051  F128   
G01 X-111.3402 Y2.3684  
G01 X-111.3684 Y2.3402  
G01 X-111.4051 Y2.3250  
G01 X-112.7449 Y2.3250  
G01 X-112.7816 Y2.3402  
G01 X-112.8098 Y2.3684  
G01 X-112.8250 Y2.4051  
G01 X-112.8250 Y3.9449  
G01 X-112.8098 Y3.9816  
G01 X-112.7816 Y4.0098  
G01 X-112.7449 Y4.0250  
G01 X-112.3172 Y4.0250  
G01 X-112.3172 Y5.2469  
G01 X-112.2965 Y5.3240  
G01 X-112.2566 Y5.3932  
G01 X-112.1900 Y5.4598  
G01 X-112.1900 Y5.5473  
G01 X-112.1902 Y5.5857  
G01 X-112.1908 Y5.6234  
G01 X-112.1902 Y6.7955  
G01 X-112.2472 Y6.8191  
G01 X-112.3717 Y6.9024  
G01 X-112.4776 Y7.0083  
G01 X-112.5609 Y7.1328  
G01 X-112.6182 Y7.2712  
G01 X-112.6474 Y7.4181  
G01 X-112.6474 Y7.5679  
G01 X-112.6182 Y7.7148  
G01 X-112.5609 Y7.8532  
G01 X-112.4776 Y7.9777  
G01 X-112.3717 Y8.0836  
G01 X-112.2472 Y8.1669  
G01 X-112.1088 Y8.2242  
G01 X-111.9619 Y8.2534  
G01 X-111.8121 Y8.2534  
G01 X-111.6652 Y8.2242  
G01 X-111.5268 Y8.1669  
G01 X-111.4023 Y8.0836  
G01 X-111.2964 Y7.9777  
G01 X-111.2131 Y7.8532  
G01 X-111.1558 Y7.7148  
G01 X-111.1266 Y7.5679  
G01 X-111.1266 Y7.4181  
G01 X-111.1558 Y7.2712  
G01 X-111.2131 Y7.1328  
G01 X-111.2964 Y7.0083  
G01 X-111.4023 Y6.9024  
G01 X-111.5268 Y6.8191  
G01 X-111.5838 Y6.7955  
G01 X-111.5838 Y6.5650  
G01 X-110.7701 Y6.5650  
G01 X-110.7334 Y6.5498  
G01 X-110.7052 Y6.5216  
G01 X-110.6900 Y6.4849  
G01 X-110.6900 Y4.9451  
G01 X-110.7052 Y4.9084  
G01 X-110.7334 Y4.8802  
G01 X-110.7701 Y4.8650  
G01 X-111.7108 Y4.8650  
G01 X-111.7108 Y4.0250  
G01 X-111.4051 Y4.0250  
G01 X-111.3684 Y4.0098  
G01 X-111.3402 Y3.9816  
G01 X-111.3250 Y3.9449  
G00 Z1.0000  
G00 X-123.2850 Y25.8099 
G01 Z-0.0500 F64    
G01 X-123.2698 Y25.8466 F128   
G01 X-123.2416 Y25.8748 
G01 X-123.2049 Y25.8900 
G01 X-121.8850 Y25.8900 
G01 X-121.8850 Y25.9440 
G01 X-123.2002 Y25.9440 
G01 X-123.2299 Y25.9381 
G01 X-123.2579 Y25.9265 
G01 X-123.2832 Y25.9096 
G01 X-123.3046 Y25.8882 
G01 X-123.3215 Y25.8629 
G01 X-123.3331 Y25.8349 
G01 X-123.3390 Y25.8052 
G01 X-123.3390 Y25.3900 
G01 X-123.2850 Y25.3900 
G01 X-123.2850 Y25.8099 
G00 Z1.0000  
G00 X-113.6496 Y69.4463 
G01 Z-0.0500 F64    
G01 X-113.6380 Y69.4346 F128   
G01 X-113.6380 Y69.4530 
G01 X-113.6496 Y69.4463 
G00 Z1.0000  
G00 X-71.6868 Y48.8657 
G01 Z-0.0500 F64    
G01 X-71.6501 Y48.8504 F128   
G01 X-71.6219 Y48.8223 
G01 X-71.6067 Y48.7856 
G01 X-71.6067 Y48.5221 
G01 X-71.5527 Y48.5221 
G01 X-71.5527 Y48.7808 
G01 X-71.5586 Y48.8106 
G01 X-71.5702 Y48.8386 
G01 X-71.5871 Y48.8638 
G01 X-71.6085 Y48.8853 
G01 X-71.6338 Y48.9021 
G01 X-71.6618 Y48.9137 
G01 X-71.6915 Y48.9197 
G01 X-71.8503 Y48.9197 
G01 X-71.8503 Y48.8657 
G01 X-71.6868 Y48.8657 
G00 Z1.0000  
G00 X-71.6067 Y47.2458 
G01 Z-0.0500 F64    
G01 X-71.6219 Y47.2090 F128   
G01 X-71.6501 Y47.1809 
G01 X-71.6868 Y47.1657 
G01 X-71.9090 Y47.1657 
G01 X-71.9090 Y46.7090 
G01 X-71.7078 Y46.7090 
G01 X-71.7102 Y46.7270 
G01 X-71.7188 Y46.7594 
G01 X-71.7188 Y46.7928 
G01 X-71.7232 Y46.8260 
G01 X-71.7188 Y46.8592 
G01 X-71.7188 Y46.8927 
G01 X-71.7102 Y46.9250 
G01 X-71.7058 Y46.9582 
G01 X-71.6930 Y46.9891 
G01 X-71.6843 Y47.0215 
G01 X-71.6676 Y47.0505 
G01 X-71.6548 Y47.0814 
G01 X-71.6344 Y47.1079 
G01 X-71.6176 Y47.1370 
G01 X-71.5940 Y47.1606 
G01 X-71.5762 Y47.1837 
G01 X-71.5702 Y47.1927 
G01 X-71.5586 Y47.2207 
G01 X-71.5527 Y47.2505 
G01 X-71.5527 Y47.5092 
G01 X-71.6067 Y47.5092 
G01 X-71.6067 Y47.2458 
G00 Z1.0000  
G00 X-71.3888 Y46.0010 
G01 Z-0.0500 F64    
G01 X-71.3888 Y45.9821 F128   
G01 X-71.3348 Y45.9821 
G01 X-71.3348 Y46.0010 
G01 X-71.3888 Y46.0010 
G00 Z1.0000  
G00 X-57.8776 Y15.6480 
G01 Z-0.0500 F64    
G01 X-58.1557 Y15.6480 F128   
G01 X-58.0917 Y15.5371 
G01 X-58.0699 Y15.4558 
G01 X-57.8776 Y15.6480 
G00 Z1.0000  
G00 X-12.8510 Y77.6002 
G01 Z-0.0500 F64    
G01 X-12.8569 Y77.6299 F128   
G01 X-12.8685 Y77.6579 
G01 X-12.8854 Y77.6832 
G01 X-12.9068 Y77.7046 
G01 X-12.9321 Y77.7215 
G01 X-12.9601 Y77.7331 
G01 X-12.9898 Y77.7390 
G01 X-13.1486 Y77.7390 
G01 X-13.1486 Y77.6850 
G01 X-12.9851 Y77.6850 
G01 X-12.9484 Y77.6698 
G01 X-12.9202 Y77.6416 
G01 X-12.9050 Y77.6049 
G01 X-12.9050 Y77.3414 
G01 X-12.8510 Y77.3414 
G01 X-12.8510 Y77.6002 
G00 Z1.0000  
G00 X-12.9050 Y76.3286 
G01 Z-0.0500 F64    
G01 X-12.9050 Y76.0651 F128   
G01 X-12.9202 Y76.0284 
G01 X-12.9484 Y76.0002 
G01 X-12.9851 Y75.9850 
G01 X-13.1486 Y75.9850 
G01 X-13.1486 Y75.9310 
G01 X-12.9898 Y75.9310 
G01 X-12.9601 Y75.9369 
G01 X-12.9321 Y75.9485 
G01 X-12.9068 Y75.9654 
G01 X-12.8605 Y76.0117 
G01 X-12.8418 Y76.0225 
G01 X-12.7697 Y76.0641 
G01 X-12.8165 Y76.1450 
G01 X-12.8414 Y76.2379 
G01 X-12.8510 Y76.2738 
G01 X-12.8510 Y76.3286 
G01 X-12.9050 Y76.3286 
G00 Z1.0000  
G00 X-2.2169 Y66.4130 
G01 Z-0.0500 F64    
G01 X-2.6994 Y66.2131 F128   
G01 X-2.8895 Y66.0231 
G01 X-2.9368 Y65.9958 
G01 X-3.0049 Y65.9564 
G01 X-3.1337 Y65.9219 
G01 X-3.2671 Y65.9219 
G01 X-3.3001 Y65.9308 
G01 X-3.3959 Y65.9564 
G01 X-3.5113 Y66.0231 
G01 X-3.6056 Y66.1174 
G01 X-3.7014 Y66.2131 
G01 X-4.1839 Y66.4130 
G01 X-4.7061 Y66.4130 
G01 X-5.1886 Y66.2131 
G01 X-5.4880 Y65.9138 
G01 X-5.4880 Y64.2866 
G01 X-5.1886 Y63.9873 
G01 X-4.7061 Y63.7874 
G01 X-4.1839 Y63.7874 
G01 X-3.7014 Y63.9873 
G01 X-3.6056 Y64.0830 
G01 X-3.5161 Y64.1725 
G01 X-3.5113 Y64.1773 
G01 X-3.3959 Y64.2439 
G01 X-3.3031 Y64.2688 
G01 X-3.2671 Y64.2785 
G01 X-3.1337 Y64.2785 
G01 X-3.0049 Y64.2439 
G01 X-2.9397 Y64.2063 
G01 X-2.8895 Y64.1773 
G01 X-2.7952 Y64.0830 
G01 X-2.6994 Y63.9873 
G01 X-2.2169 Y63.7874 
G01 X-1.6947 Y63.7874 
G01 X-1.2122 Y63.9873 
G01 X-0.8429 Y64.3566 
G01 X-0.6430 Y64.8391 
G01 X-0.6430 Y65.3613 
G01 X-0.8429 Y65.8438 
G01 X-1.2122 Y66.2131 
G01 X-1.6947 Y66.4130 
G01 X-2.2169 Y66.4130 
G00 Z1.0000  
G00 X-6.4266 Y69.5331 
G01 Z-0.0500 F64    
G01 X-6.3503 Y69.3148 F128   
G01 X-6.2499 Y69.1064 
G01 X-6.2214 Y69.0610 
G01 X-6.1580 Y69.0610 
G01 X-6.2471 Y69.2153 
G01 X-6.3477 Y69.4581 
G01 X-6.3850 Y69.5976 
G01 X-6.4414 Y69.5976 
G01 X-6.4266 Y69.5331 
G00 Z1.0000  
G00 X-6.3477 Y70.7499 
G01 Z-0.0500 F64    
G01 X-6.2471 Y70.9927 F128   
G01 X-6.1157 Y71.2203 
G01 X-5.9557 Y71.4288 
G01 X-5.7698 Y71.6147 
G01 X-5.5613 Y71.7747 
G01 X-5.3337 Y71.9061 
G01 X-5.0909 Y72.0067 
G01 X-4.9514 Y72.0440 
G01 X-4.9514 Y72.1004 
G01 X-5.0159 Y72.0856 
G01 X-5.2342 Y72.0093 
G01 X-5.4426 Y71.9089 
G01 X-5.6384 Y71.7859 
G01 X-5.8192 Y71.6417 
G01 X-5.9827 Y71.4782 
G01 X-6.1269 Y71.2974 
G01 X-6.2499 Y71.1015 
G01 X-6.3503 Y70.8932 
G01 X-6.4266 Y70.6749 
G01 X-6.4414 Y70.6104 
G01 X-6.3850 Y70.6104 
G01 X-6.3477 Y70.7499 
G00 Z1.0000  
G00 X-2.5423 Y69.4581 
G01 Z-0.0500 F64    
G01 X-2.6429 Y69.2153 F128   
G01 X-2.7743 Y68.9877 
G01 X-2.9343 Y68.7792 
G01 X-3.1202 Y68.5933 
G01 X-3.3287 Y68.4333 
G01 X-3.5563 Y68.3019 
G01 X-3.7991 Y68.2013 
G01 X-3.9386 Y68.1640 
G01 X-3.9386 Y68.1076 
G01 X-3.8741 Y68.1223 
G01 X-3.6558 Y68.1987 
G01 X-3.4474 Y68.2991 
G01 X-3.2516 Y68.4221 
G01 X-3.0708 Y68.5663 
G01 X-2.9073 Y68.7298 
G01 X-2.7631 Y68.9106 
G01 X-2.6401 Y69.1064 
G01 X-2.5397 Y69.3148 
G01 X-2.4633 Y69.5331 
G01 X-2.4486 Y69.5976 
G01 X-2.5050 Y69.5976 
G01 X-2.5423 Y69.4581 
G00 Z1.0000  
G00 X-5.0909 Y68.2013 
G01 Z-0.0500 F64    
G01 X-5.3337 Y68.3019 F128   
G01 X-5.4880 Y68.3910 
G01 X-5.4880 Y68.3276 
G01 X-5.4425 Y68.2991 
G01 X-5.2342 Y68.1987 
G01 X-5.0159 Y68.1223 
G01 X-4.9514 Y68.1076 
G01 X-4.9514 Y68.1640 
G01 X-5.0909 Y68.2013 
G00 Z1.0000  
G00 X-3.7991 Y72.0067 
G01 Z-0.0500 F64    
G01 X-3.5563 Y71.9061 F128   
G01 X-3.3287 Y71.7747 
G01 X-3.1202 Y71.6147 
G01 X-2.9343 Y71.4288 
G01 X-2.7743 Y71.2203 
G01 X-2.6429 Y70.9927 
G01 X-2.5423 Y70.7499 
G01 X-2.5050 Y70.6104 
G01 X-2.4486 Y70.6104 
G01 X-2.4634 Y70.6749 
G01 X-2.5397 Y70.8932 
G01 X-2.6401 Y71.1015 
G01 X-2.7631 Y71.2974 
G01 X-2.9073 Y71.4782 
G01 X-3.0708 Y71.6417 
G01 X-3.2516 Y71.7859 
G01 X-3.4474 Y71.9089 
G01 X-3.6558 Y72.0093 
G01 X-3.8741 Y72.0856 
G01 X-3.9386 Y72.1004 
G01 X-3.9386 Y72.0440 
G01 X-3.7991 Y72.0067 
G00 Z1.0000  
G00 X-8.1360 Y70.3651 
G01 Z-0.0500 F64    
G01 X-8.3359 Y70.8476 F128   
G01 X-8.7051 Y71.2169 
G01 X-9.1877 Y71.4168 
G01 X-9.7099 Y71.4168 
G01 X-10.1924 Y71.2169 
G01 X-10.5617 Y70.8476 
G01 X-10.7616 Y70.3651 
G01 X-10.7616 Y69.8429 
G01 X-10.6482 Y69.5690 
G01 X-10.4944 Y69.5690 
G01 X-10.4044 Y69.5449 
G01 X-10.3236 Y69.4983 
G01 X-9.8864 Y69.0610 
G01 X-8.6352 Y69.0610 
G01 X-8.3359 Y69.3604 
G01 X-8.1360 Y69.8429 
G01 X-8.1360 Y70.3651 
G00 Z1.0000  
G00 X-2.4073 Y55.7758 
G01 Z-0.0500 F64    
G01 X-2.2631 Y55.9566 F128   
G01 X-2.1401 Y56.1524 
G01 X-2.0397 Y56.3608 
G01 X-1.9735 Y56.5500 
G01 X-2.0300 Y56.5500 
G01 X-2.0423 Y56.5041 
G01 X-2.1429 Y56.2613 
G01 X-2.2743 Y56.0337 
G01 X-2.4343 Y55.8252 
G01 X-2.6202 Y55.6393 
G01 X-2.8287 Y55.4793 
G01 X-2.9480 Y55.4104 
G01 X-2.9480 Y55.3448 
G01 X-2.7516 Y55.4681 
G01 X-2.5708 Y55.6123 
G01 X-2.4073 Y55.7758 
G00 Z1.0000  
G00 X-2.0397 Y57.9392 
G01 Z-0.0500 F64    
G01 X-2.1401 Y58.1475 F128   
G01 X-2.2631 Y58.3434 
G01 X-2.4073 Y58.5242 
G01 X-2.5708 Y58.6877 
G01 X-2.7516 Y58.8319 
G01 X-2.9474 Y58.9549 
G01 X-3.1558 Y59.0553 
G01 X-3.3450 Y59.1215 
G01 X-3.3450 Y59.0650 
G01 X-3.2991 Y59.0527 
G01 X-3.0563 Y58.9521 
G01 X-2.8287 Y58.8207 
G01 X-2.6202 Y58.6607 
G01 X-2.4343 Y58.4748 
G01 X-2.2743 Y58.2663 
G01 X-2.1429 Y58.0387 
G01 X-2.0423 Y57.7959 
G01 X-2.0300 Y57.7500 
G01 X-1.9735 Y57.7500 
G01 X-2.0397 Y57.9392 
G00 Z1.0000  
G00 X-33.8388 Y41.1376 
G01 Z-0.0500 F64    
G01 X-33.8603 Y41.1162 F128   
G01 X-33.8771 Y41.0910 
G01 X-33.8887 Y41.0629 
G01 X-33.8947 Y41.0332 
G01 X-33.8947 Y40.7776 
G01 X-33.8725 Y40.7744 
G01 X-33.8421 Y40.7744 
G01 X-33.8407 Y41.0379 
G01 X-33.8254 Y41.0747 
G01 X-33.7973 Y41.1028 
G01 X-33.7606 Y41.1180 
G01 X-33.5971 Y41.1180 
G01 X-33.5971 Y41.1720 
G01 X-33.7558 Y41.1720 
G01 X-33.7856 Y41.1661 
G01 X-33.8136 Y41.1545 
G01 X-33.8388 Y41.1376 
G00 Z1.0000  
G00 X-33.8947 Y39.7580 
G01 Z-0.0500 F64    
G01 X-33.8927 Y39.7599 F128   
G00 Z1.0000  
G00 X-40.8549 Y31.8590 
G01 Z-0.0500 F64    
G01 X-40.8847 Y31.8649 F128   
G01 X-41.0434 Y31.8649 
G01 X-41.0434 Y31.8109 
G01 X-40.8800 Y31.8109 
G01 X-40.8432 Y31.7957 
G01 X-40.8151 Y31.7676 
G01 X-40.7999 Y31.7308 
G01 X-40.7999 Y31.3420 
G01 X-40.7459 Y31.3420 
G01 X-40.7459 Y31.7261 
G01 X-40.7518 Y31.7558 
G01 X-40.7634 Y31.7839 
G01 X-40.7802 Y31.8091 
G01 X-40.8017 Y31.8305 
G01 X-40.8269 Y31.8474 
G01 X-40.8549 Y31.8590 
G00 Z1.0000  
G00 X-82.6470 Y45.8200 
G01 Z-0.0500 F64    
G01 X-82.6524 Y45.8293 F128   
G01 X-82.6610 Y45.8617 
G01 X-82.6739 Y45.8926 
G01 X-82.6770 Y45.9165 
G01 X-82.6801 Y45.8926 
G01 X-82.6930 Y45.8617 
G01 X-82.7016 Y45.8293 
G01 X-82.7070 Y45.8200 
G01 X-82.6470 Y45.8200 
G00 Z1.0000  
G00 X-57.0467 Y8.3520  
G01 Z-0.0500 F64    
G01 X-57.0978 Y8.3225  F128   
G01 X-57.0582 Y8.2828  
G01 X-57.0401 Y8.2921  
G01 X-57.0401 Y8.3547  
G01 X-57.0467 Y8.3520  
G00 Z1.0000  
G00 X-58.1027 Y9.3273  
G01 Z-0.0500 F64    
G01 X-58.0631 Y9.2877  F128   
G01 X-58.0335 Y9.3389  
G01 X-58.0308 Y9.3454  
G01 X-58.0935 Y9.3454  
G01 X-58.1027 Y9.3273  
G00 Z1.0000  
G00 X-58.4954 Y10.7955 
G01 Z-0.0500 F64    
G01 X-58.3549 Y10.6934 F128   
G01 X-58.2321 Y10.5706 
G01 X-58.1301 Y10.4301 
G01 X-58.0935 Y10.3582 
G01 X-58.0308 Y10.3582 
G01 X-58.0335 Y10.3648 
G01 X-58.1094 Y10.4962 
G01 X-58.2017 Y10.6165 
G01 X-58.3090 Y10.7238 
G01 X-58.4293 Y10.8162 
G01 X-58.5607 Y10.8920 
G01 X-58.5673 Y10.8947 
G01 X-58.5673 Y10.8321 
G01 X-58.4954 Y10.7955 
G00 Z1.0000  
G00 X-58.4129 Y22.3610 
G01 Z-0.0500 F64    
G01 X-58.4013 Y22.3330 F128   
G01 X-58.3845 Y22.3078 
G01 X-58.3630 Y22.2863 
G01 X-58.3378 Y22.2694 
G01 X-58.3098 Y22.2578 
G01 X-58.2800 Y22.2519 
G01 X-57.6713 Y22.2519 
G01 X-57.6713 Y22.3059 
G01 X-58.2848 Y22.3059 
G01 X-58.3215 Y22.3211 
G01 X-58.3496 Y22.3493 
G01 X-58.3649 Y22.3860 
G01 X-58.3649 Y22.5582 
G01 X-58.4170 Y22.6104 
G01 X-58.4189 Y22.5966 
G01 X-58.4189 Y22.3907 
G01 X-58.4129 Y22.3610 
G00 Z1.0000  
G00 X-5.2210 Y32.3952 
G01 Z-0.0500 F64    
G01 X-5.2269 Y32.4249 F128   
G01 X-5.2385 Y32.4529 
G01 X-5.2554 Y32.4782 
G01 X-5.2768 Y32.4996 
G01 X-5.3021 Y32.5165 
G01 X-5.3301 Y32.5281 
G01 X-5.3598 Y32.5340 
G01 X-5.7750 Y32.5340 
G01 X-5.7750 Y32.4800 
G01 X-5.3551 Y32.4800 
G01 X-5.3184 Y32.4648 
G01 X-5.2902 Y32.4366 
G01 X-5.2750 Y32.3999 
G01 X-5.2750 Y31.0800 
G01 X-5.2210 Y31.0800 
G01 X-5.2210 Y32.3952 
G00 Z1.0000  
G00 X-7.5231 Y28.5351 
G01 Z-0.0500 F64    
G01 X-7.5115 Y28.5071 F128   
G01 X-7.4946 Y28.4818 
G01 X-7.4732 Y28.4604 
G01 X-7.4479 Y28.4435 
G01 X-7.4199 Y28.4319 
G01 X-7.3902 Y28.4260 
G01 X-6.9750 Y28.4260 
G01 X-6.9750 Y28.4800 
G01 X-7.3949 Y28.4800 
G01 X-7.4316 Y28.4952 
G01 X-7.4598 Y28.5234 
G01 X-7.4750 Y28.5601 
G01 X-7.4750 Y29.8800 
G01 X-7.5290 Y29.8800 
G01 X-7.5290 Y28.5648 
G01 X-7.5231 Y28.5351 
G00 Z1.0000  
G00 X-5.3598 Y28.4260 
G01 Z-0.0500 F64    
G01 X-5.3301 Y28.4319 F128   
G01 X-5.3021 Y28.4435 
G01 X-5.2768 Y28.4604 
G01 X-5.2554 Y28.4818 
G01 X-5.2385 Y28.5071 
G01 X-5.2269 Y28.5351 
G01 X-5.2210 Y28.5648 
G01 X-5.2210 Y29.8800 
G01 X-5.2750 Y29.8800 
G01 X-5.2750 Y28.5601 
G01 X-5.2902 Y28.5234 
G01 X-5.3184 Y28.4952 
G01 X-5.3551 Y28.4800 
G01 X-5.7750 Y28.4800 
G01 X-5.7750 Y28.4260 
G01 X-5.3598 Y28.4260 
G00 Z1.0000  
G00 X-7.3902 Y32.5340 
G01 Z-0.0500 F64    
G01 X-7.4199 Y32.5281 F128   
G01 X-7.4479 Y32.5165 
G01 X-7.4732 Y32.4996 
G01 X-7.4946 Y32.4782 
G01 X-7.5115 Y32.4529 
G01 X-7.5231 Y32.4249 
G01 X-7.5290 Y32.3952 
G01 X-7.5290 Y31.0800 
G01 X-7.4750 Y31.0800 
G01 X-7.4750 Y32.3999 
G01 X-7.4598 Y32.4366 
G01 X-7.4316 Y32.4648 
G01 X-7.3949 Y32.4800 
G01 X-6.9750 Y32.4800 
G01 X-6.9750 Y32.5340 
G01 X-7.3902 Y32.5340 
G00 Z1.0000  
G00 X-15.9417 Y22.9886 
G01 Z-0.0500 F64    
G01 X-16.0705 Y23.0231 F128   
G01 X-16.1859 Y23.0898 
G01 X-16.2802 Y23.1841 
G01 X-16.3469 Y23.2995 
G01 X-16.3814 Y23.4283 
G01 X-16.3814 Y23.9175 
G01 X-16.3469 Y24.0463 
G01 X-16.2802 Y24.1617 
G01 X-16.1859 Y24.2560 
G01 X-16.0705 Y24.3227 
G01 X-15.9417 Y24.3572 
G01 X-15.6182 Y24.3572 
G01 X-15.3562 Y24.4657 
G01 X-15.1557 Y24.6662 
G01 X-15.0472 Y24.9282 
G01 X-15.0472 Y26.0255 
G01 X-15.0127 Y26.1543 
G01 X-14.9460 Y26.2697 
G01 X-14.8517 Y26.3640 
G01 X-14.7363 Y26.4307 
G01 X-14.6075 Y26.4652 
G01 X-14.5397 Y26.4652 
G01 X-14.1844 Y26.6124 
G01 X-14.1807 Y26.6160 
G01 X-14.1017 Y26.6616 
G01 X-14.0653 Y26.6827 
G01 X-13.9926 Y26.7022 
G01 X-13.9365 Y26.7172 
G01 X-13.8705 Y26.7172 
G01 X-13.8031 Y26.7172 
G01 X-11.5332 Y26.7172 
G01 X-11.2712 Y26.8257 
G01 X-11.0707 Y27.0262 
G01 X-10.9622 Y27.2882 
G01 X-10.9622 Y29.0718 
G01 X-11.0707 Y29.3338 
G01 X-11.2731 Y29.5362 
G01 X-11.2965 Y29.5541 
G01 X-11.3255 Y29.5709 
G01 X-11.3492 Y29.5946 
G01 X-11.3758 Y29.6149 
G01 X-11.3962 Y29.6415 
G01 X-11.4198 Y29.6652 
G01 X-11.4366 Y29.6942 
G01 X-11.4569 Y29.7207 
G01 X-11.4698 Y29.7517 
G01 X-11.4865 Y29.7806 
G01 X-11.4952 Y29.8130 
G01 X-11.5080 Y29.8439 
G01 X-11.5123 Y29.8771 
G01 X-11.5210 Y29.9094 
G01 X-11.5210 Y29.9429 
G01 X-11.5250 Y29.9736 
G01 X-11.5750 Y29.9736 
G01 X-11.5750 Y29.7101 
G01 X-11.5902 Y29.6734 
G01 X-11.6184 Y29.6452 
G01 X-11.6551 Y29.6300 
G01 X-13.6949 Y29.6300 
G01 X-13.7316 Y29.6452 
G01 X-13.7598 Y29.6734 
G01 X-13.7750 Y29.7101 
G01 X-13.7750 Y29.9736 
G01 X-14.1750 Y29.9736 
G01 X-14.1750 Y29.7101 
G01 X-14.1902 Y29.6734 
G01 X-14.2184 Y29.6452 
G01 X-14.2551 Y29.6300 
G01 X-15.5949 Y29.6300 
G01 X-15.6316 Y29.6452 
G01 X-15.6598 Y29.6734 
G01 X-15.6750 Y29.7101 
G01 X-15.6750 Y31.2499 
G01 X-15.6598 Y31.2866 
G01 X-15.6316 Y31.3148 
G01 X-15.5949 Y31.3300 
G01 X-14.2551 Y31.3300 
G01 X-14.2184 Y31.3148 
G01 X-14.1902 Y31.2866 
G01 X-14.1750 Y31.2499 
G01 X-14.1750 Y30.9864 
G01 X-13.7750 Y30.9864 
G01 X-13.7750 Y31.2499 
G01 X-13.7598 Y31.2866 
G01 X-13.7316 Y31.3148 
G01 X-13.6949 Y31.3300 
G01 X-11.6551 Y31.3300 
G01 X-11.6184 Y31.3148 
G01 X-11.5902 Y31.2866 
G01 X-11.5750 Y31.2499 
G01 X-11.5750 Y30.9864 
G01 X-11.5250 Y30.9864 
G01 X-11.5210 Y31.0171 
G01 X-11.5210 Y31.0506 
G01 X-11.5123 Y31.0829 
G01 X-11.5080 Y31.1161 
G01 X-11.4952 Y31.1470 
G01 X-11.4865 Y31.1794 
G01 X-11.4698 Y31.2083 
G01 X-11.4569 Y31.2393 
G01 X-11.4366 Y31.2658 
G01 X-11.4198 Y31.2948 
G01 X-11.3962 Y31.3185 
G01 X-11.3758 Y31.3451 
G01 X-11.3492 Y31.3654 
G01 X-11.3255 Y31.3891 
G01 X-11.2965 Y31.4059 
G01 X-11.2731 Y31.4238 
G01 X-11.0707 Y31.6262 
G01 X-10.9622 Y31.8882 
G01 X-10.9622 Y33.6718 
G01 X-11.0707 Y33.9338 
G01 X-11.2712 Y34.1343 
G01 X-11.5332 Y34.2428 
G01 X-12.2561 Y34.2428 
G01 X-12.3848 Y34.2773 
G01 X-12.5003 Y34.3440 
G01 X-12.5946 Y34.4383 
G01 X-12.6613 Y34.5537 
G01 X-12.6958 Y34.6825 
G01 X-12.6958 Y34.8159 
G01 X-12.6613 Y34.9447 
G01 X-12.5946 Y35.0601 
G01 X-12.5003 Y35.1544 
G01 X-8.5145 Y39.1402 
G01 X-8.3990 Y39.2069 
G01 X-8.2703 Y39.2414 
G01 X-1.8383 Y39.2414 
G01 X-1.7095 Y39.2069 
G01 X-1.5941 Y39.1402 
G01 X-1.4998 Y39.0459 
G01 X-1.4331 Y38.9305 
G01 X-1.3986 Y38.8017 
G01 X-1.3986 Y23.4283 
G01 X-1.4331 Y23.2995 
G01 X-1.4998 Y23.1841 
G01 X-1.5941 Y23.0898 
G01 X-1.7095 Y23.0231 
G01 X-1.8383 Y22.9886 
G01 X-1.9717 Y22.9886 
G01 X-15.9417 Y22.9886 
G00 Z1.0000  
G00 X-127.3794 Y16.1811 
G01 Z-0.0500 F64    
G01 X-127.3794 Y16.3309 F128   
G01 X-127.3502 Y16.4778 
G01 X-127.2929 Y16.6162 
G01 X-127.2096 Y16.7407 
G01 X-127.1037 Y16.8466 
G01 X-126.9792 Y16.9299 
G01 X-126.9222 Y16.9535 
G01 X-126.9222 Y23.2809 
G01 X-126.9212 Y23.2845 
G01 X-126.9692 Y23.4002 
G01 X-126.9984 Y23.5471 
G01 X-126.9984 Y23.6969 
G01 X-126.9692 Y23.8438 
G01 X-126.9119 Y23.9822 
G01 X-126.8286 Y24.1067 
G01 X-126.7227 Y24.2126 
G01 X-126.5982 Y24.2959 
G01 X-126.4598 Y24.3532 
G01 X-126.3129 Y24.3824 
G01 X-126.1631 Y24.3824 
G01 X-126.0162 Y24.3532 
G01 X-125.8778 Y24.2959 
G01 X-125.7533 Y24.2126 
G01 X-125.6474 Y24.1067 
G01 X-125.5641 Y23.9822 
G01 X-125.5068 Y23.8438 
G01 X-125.4776 Y23.6969 
G01 X-125.4776 Y23.5471 
G01 X-125.5068 Y23.4002 
G01 X-125.5641 Y23.2618 
G01 X-125.6474 Y23.1373 
G01 X-125.7533 Y23.0314 
G01 X-125.8778 Y22.9481 
G01 X-126.0162 Y22.8908 
G01 X-126.1631 Y22.8616 
G01 X-126.3129 Y22.8616 
G01 X-126.3158 Y22.8622 
G01 X-126.3158 Y16.9535 
G01 X-126.2588 Y16.9299 
G01 X-126.1343 Y16.8466 
G01 X-126.0284 Y16.7407 
G01 X-125.9451 Y16.6162 
G01 X-125.8878 Y16.4778 
G01 X-125.8586 Y16.3309 
G01 X-125.8586 Y16.1811 
G01 X-125.8878 Y16.0342 
G01 X-125.9451 Y15.8958 
G01 X-126.0284 Y15.7713 
G01 X-126.1343 Y15.6654 
G01 X-126.2588 Y15.5821 
G01 X-126.3972 Y15.5248 
G01 X-126.5441 Y15.4956 
G01 X-126.6939 Y15.4956 
G01 X-126.8408 Y15.5248 
G01 X-126.9792 Y15.5821 
G01 X-127.1037 Y15.6654 
G01 X-127.2096 Y15.7713 
G01 X-127.2929 Y15.8958 
G01 X-127.3502 Y16.0342 
G01 X-127.3794 Y16.1811 
G00 Z1.0000  
G00 X-122.5564 Y39.4478 
G01 Z-0.0500 F64    
G01 X-124.6414 Y37.3628 F128   
G01 X-124.6178 Y37.3058 
G01 X-124.5886 Y37.1589 
G01 X-124.5886 Y37.0091 
G01 X-124.6178 Y36.8622 
G01 X-124.6751 Y36.7238 
G01 X-124.7584 Y36.5993 
G01 X-124.8643 Y36.4934 
G01 X-124.9888 Y36.4101 
G01 X-125.1272 Y36.3528 
G01 X-125.2741 Y36.3236 
G01 X-125.4239 Y36.3236 
G01 X-125.5708 Y36.3528 
G01 X-125.7092 Y36.4101 
G01 X-125.8337 Y36.4934 
G01 X-125.9396 Y36.5993 
G01 X-126.0229 Y36.7238 
G01 X-126.0802 Y36.8622 
G01 X-126.1094 Y37.0091 
G01 X-126.1094 Y37.1589 
G01 X-126.0802 Y37.3058 
G01 X-126.0229 Y37.4442 
G01 X-125.9396 Y37.5687 
G01 X-125.8337 Y37.6746 
G01 X-125.7092 Y37.7579 
G01 X-125.5708 Y37.8152 
G01 X-125.4239 Y37.8444 
G01 X-125.2741 Y37.8444 
G01 X-125.1272 Y37.8152 
G01 X-125.0702 Y37.7916 
G01 X-122.8682 Y39.9936 
G01 X-122.7990 Y40.0335 
G01 X-122.7219 Y40.0542 
G01 X-121.3475 Y40.0542 
G01 X-121.3239 Y40.1112 
G01 X-121.2406 Y40.2357 
G01 X-121.1347 Y40.3416 
G01 X-121.0102 Y40.4249 
G01 X-120.8718 Y40.4822 
G01 X-120.7249 Y40.5114 
G01 X-120.5751 Y40.5114 
G01 X-120.4282 Y40.4822 
G01 X-120.2898 Y40.4249 
G01 X-120.1653 Y40.3416 
G01 X-120.0594 Y40.2357 
G01 X-119.9761 Y40.1112 
G01 X-119.9188 Y39.9728 
G01 X-119.8896 Y39.8259 
G01 X-119.8896 Y39.6761 
G01 X-119.9188 Y39.5292 
G01 X-119.9761 Y39.3908 
G01 X-120.0594 Y39.2663 
G01 X-120.1653 Y39.1604 
G01 X-120.2898 Y39.0771 
G01 X-120.4282 Y39.0198 
G01 X-120.5751 Y38.9906 
G01 X-120.7249 Y38.9906 
G01 X-120.8718 Y39.0198 
G01 X-121.0102 Y39.0771 
G01 X-121.1347 Y39.1604 
G01 X-121.2406 Y39.2663 
G01 X-121.3239 Y39.3908 
G01 X-121.3475 Y39.4478 
G01 X-122.5564 Y39.4478 
G00 Z1.0000  
G00 X-118.1692 Y27.0624 
G01 Z-0.0500 F64    
G01 X-118.2256 Y27.1188 F128   
G01 X-118.2655 Y27.1880 
G01 X-118.2862 Y27.2651 
G01 X-118.2862 Y28.4559 
G01 X-118.3407 Y28.4924 
G01 X-118.4466 Y28.5983 
G01 X-118.5299 Y28.7228 
G01 X-118.5872 Y28.8612 
G01 X-118.6164 Y29.0081 
G01 X-118.6164 Y29.1579 
G01 X-118.5872 Y29.3048 
G01 X-118.5299 Y29.4432 
G01 X-118.4466 Y29.5677 
G01 X-118.3407 Y29.6736 
G01 X-118.2162 Y29.7569 
G01 X-118.0778 Y29.8142 
G01 X-117.9309 Y29.8434 
G01 X-117.7811 Y29.8434 
G01 X-117.6342 Y29.8142 
G01 X-117.4958 Y29.7569 
G01 X-117.3713 Y29.6736 
G01 X-117.2654 Y29.5677 
G01 X-117.1821 Y29.4432 
G01 X-117.1248 Y29.3048 
G01 X-117.0956 Y29.1579 
G01 X-117.0956 Y29.0081 
G01 X-117.1248 Y28.8612 
G01 X-117.1821 Y28.7228 
G01 X-117.2654 Y28.5983 
G01 X-117.3713 Y28.4924 
G01 X-117.4958 Y28.4091 
G01 X-117.6342 Y28.3518 
G01 X-117.6798 Y28.3428 
G01 X-117.6798 Y27.4306 
G01 X-117.2734 Y27.0242 
G01 X-117.2532 Y27.0202 
G01 X-117.1148 Y26.9629 
G01 X-116.9903 Y26.8796 
G01 X-116.8844 Y26.7737 
G01 X-116.8011 Y26.6492 
G01 X-116.7438 Y26.5108 
G01 X-116.7146 Y26.3639 
G01 X-116.7146 Y26.2141 
G01 X-116.7438 Y26.0672 
G01 X-116.8011 Y25.9288 
G01 X-116.8844 Y25.8043 
G01 X-116.9903 Y25.6984 
G01 X-117.1148 Y25.6151 
G01 X-117.2532 Y25.5578 
G01 X-117.4001 Y25.5286 
G01 X-117.5499 Y25.5286 
G01 X-117.6968 Y25.5578 
G01 X-117.8352 Y25.6151 
G01 X-117.9597 Y25.6984 
G01 X-118.0656 Y25.8043 
G01 X-118.1489 Y25.9288 
G01 X-118.2062 Y26.0672 
G01 X-118.2354 Y26.2141 
G01 X-118.2354 Y26.3639 
G01 X-118.2062 Y26.5108 
G01 X-118.1489 Y26.6492 
G01 X-118.0656 Y26.7737 
G01 X-117.9731 Y26.8663 
G01 X-118.1692 Y27.0624 
G00 Z1.0000  
G00 X-113.2854 Y9.7298  
G01 Z-0.0500 F64    
G01 X-116.3434 Y6.6718  F128   
G01 X-116.3998 Y6.6154  
G01 X-116.4690 Y6.5755  
G01 X-116.5461 Y6.5548  
G01 X-119.8009 Y6.5548  
G01 X-119.8780 Y6.5755  
G01 X-119.9472 Y6.6154  
G01 X-120.7092 Y7.3774  
G01 X-120.7656 Y7.4338  
G01 X-120.8055 Y7.5030  
G01 X-120.8262 Y7.5801  
G01 X-120.8262 Y9.3109  
G01 X-120.8055 Y9.3880  
G01 X-120.7656 Y9.4572  
G01 X-117.9716 Y12.2512 
G01 X-117.9152 Y12.3076 
G01 X-117.8460 Y12.3475 
G01 X-117.7689 Y12.3682 
G01 X-113.7906 Y12.3682 
G01 X-113.2062 Y12.9526 
G01 X-113.2062 Y17.5274 
G01 X-116.0102 Y20.3314 
G01 X-116.0666 Y20.3878 
G01 X-116.1065 Y20.4570 
G01 X-116.1272 Y20.5341 
G01 X-116.1272 Y21.2735 
G01 X-116.1842 Y21.2971 
G01 X-116.3087 Y21.3804 
G01 X-116.4146 Y21.4863 
G01 X-116.4979 Y21.6108 
G01 X-116.5552 Y21.7492 
G01 X-116.5844 Y21.8961 
G01 X-116.5844 Y22.0459 
G01 X-116.5552 Y22.1928 
G01 X-116.4979 Y22.3312 
G01 X-116.4146 Y22.4557 
G01 X-116.3087 Y22.5616 
G01 X-116.1842 Y22.6449 
G01 X-116.0458 Y22.7022 
G01 X-115.8989 Y22.7314 
G01 X-115.7491 Y22.7314 
G01 X-115.6022 Y22.7022 
G01 X-115.4638 Y22.6449 
G01 X-115.3393 Y22.5616 
G01 X-115.2334 Y22.4557 
G01 X-115.1501 Y22.3312 
G01 X-115.0928 Y22.1928 
G01 X-115.0636 Y22.0459 
G01 X-115.0636 Y21.8961 
G01 X-115.0928 Y21.7492 
G01 X-115.1501 Y21.6108 
G01 X-115.2334 Y21.4863 
G01 X-115.3393 Y21.3804 
G01 X-115.4638 Y21.2971 
G01 X-115.5208 Y21.2735 
G01 X-115.5208 Y20.6996 
G01 X-112.6604 Y17.8392 
G01 X-112.6205 Y17.7700 
G01 X-112.5998 Y17.6929 
G01 X-112.5998 Y12.7871 
G01 X-112.6205 Y12.7100 
G01 X-112.6604 Y12.6408 
G01 X-112.7168 Y12.5844 
G01 X-113.4788 Y11.8224 
G01 X-113.5480 Y11.7825 
G01 X-113.6251 Y11.7618 
G01 X-117.6034 Y11.7618 
G01 X-120.2198 Y9.1454  
G01 X-120.2198 Y7.7456  
G01 X-119.6354 Y7.1612  
G01 X-116.7116 Y7.1612  
G01 X-113.5972 Y10.2756 
G01 X-113.5280 Y10.3155 
G01 X-113.4509 Y10.3362 
G01 X-111.6955 Y10.3362 
G01 X-111.6719 Y10.3932 
G01 X-111.5886 Y10.5177 
G01 X-111.4827 Y10.6236 
G01 X-111.3582 Y10.7069 
G01 X-111.2198 Y10.7642 
G01 X-111.0729 Y10.7934 
G01 X-110.9231 Y10.7934 
G01 X-110.7762 Y10.7642 
G01 X-110.6378 Y10.7069 
G01 X-110.5133 Y10.6236 
G01 X-110.4074 Y10.5177 
G01 X-110.3241 Y10.3932 
G01 X-110.2668 Y10.2548 
G01 X-110.2376 Y10.1079 
G01 X-110.2376 Y9.9581  
G01 X-110.2668 Y9.8112  
G01 X-110.3241 Y9.6728  
G01 X-110.4074 Y9.5483  
G01 X-110.5133 Y9.4424  
G01 X-110.6378 Y9.3591  
G01 X-110.7762 Y9.3018  
G01 X-110.9231 Y9.2726  
G01 X-111.0729 Y9.2726  
G01 X-111.2198 Y9.3018  
G01 X-111.3582 Y9.3591  
G01 X-111.4827 Y9.4424  
G01 X-111.5886 Y9.5483  
G01 X-111.6719 Y9.6728  
G01 X-111.6955 Y9.7298  
G01 X-113.2854 Y9.7298  
G00 Z1.0000  
G00 X-116.5874 Y42.3688 
G01 Z-0.0500 F64    
G01 X-116.9784 Y41.9778 F128   
G01 X-117.0348 Y41.9214 
G01 X-117.1040 Y41.8815 
G01 X-117.1811 Y41.8608 
G01 X-122.8489 Y41.8608 
G01 X-122.9260 Y41.8815 
G01 X-122.9952 Y41.9214 
G01 X-124.7732 Y43.6994 
G01 X-124.8296 Y43.7558 
G01 X-124.8695 Y43.8250 
G01 X-124.8902 Y43.9021 
G01 X-124.8902 Y47.9189 
G01 X-124.8695 Y47.9960 
G01 X-124.8296 Y48.0652 
G01 X-123.4917 Y49.4031 
G01 X-123.5422 Y49.5021 
G01 X-123.5940 Y49.6616 
G01 X-123.6202 Y49.8272 
G01 X-123.6202 Y49.9948 
G01 X-123.5940 Y50.1604 
G01 X-123.5422 Y50.3199 
G01 X-123.4660 Y50.4693 
G01 X-123.3675 Y50.6049 
G01 X-123.2489 Y50.7235 
G01 X-123.1133 Y50.8220 
G01 X-122.9639 Y50.8982 
G01 X-122.8044 Y50.9500 
G01 X-122.6388 Y50.9762 
G01 X-122.4712 Y50.9762 
G01 X-122.3056 Y50.9500 
G01 X-122.1461 Y50.8982 
G01 X-121.9967 Y50.8220 
G01 X-121.8611 Y50.7235 
G01 X-121.7425 Y50.6049 
G01 X-121.6440 Y50.4693 
G01 X-121.5678 Y50.3199 
G01 X-121.5160 Y50.1604 
G01 X-121.4898 Y49.9948 
G01 X-121.4898 Y49.8272 
G01 X-121.5160 Y49.6616 
G01 X-121.5678 Y49.5021 
G01 X-121.6440 Y49.3527 
G01 X-121.7425 Y49.2171 
G01 X-121.8611 Y49.0985 
G01 X-121.9967 Y49.0000 
G01 X-122.1461 Y48.9238 
G01 X-122.3056 Y48.8720 
G01 X-122.4712 Y48.8458 
G01 X-122.6388 Y48.8458 
G01 X-122.8044 Y48.8720 
G01 X-122.9639 Y48.9238 
G01 X-123.0629 Y48.9743 
G01 X-124.2838 Y47.7534 
G01 X-124.2838 Y44.0676 
G01 X-122.6834 Y42.4672 
G01 X-117.3466 Y42.4672 
G01 X-116.8992 Y42.9146 
G01 X-116.8300 Y42.9545 
G01 X-116.7529 Y42.9752 
G01 X-112.8385 Y42.9752 
G01 X-112.8149 Y43.0322 
G01 X-112.7316 Y43.1567 
G01 X-112.6257 Y43.2626 
G01 X-112.5012 Y43.3459 
G01 X-112.3628 Y43.4032 
G01 X-112.2159 Y43.4324 
G01 X-112.0661 Y43.4324 
G01 X-111.9192 Y43.4032 
G01 X-111.7808 Y43.3459 
G01 X-111.6563 Y43.2626 
G01 X-111.5504 Y43.1567 
G01 X-111.4671 Y43.0322 
G01 X-111.4098 Y42.8938 
G01 X-111.3806 Y42.7469 
G01 X-111.3806 Y42.5971 
G01 X-111.4098 Y42.4502 
G01 X-111.4671 Y42.3118 
G01 X-111.5504 Y42.1873 
G01 X-111.6563 Y42.0814 
G01 X-111.7808 Y41.9981 
G01 X-111.9192 Y41.9408 
G01 X-112.0661 Y41.9116 
G01 X-112.2159 Y41.9116 
G01 X-112.3628 Y41.9408 
G01 X-112.5012 Y41.9981 
G01 X-112.6257 Y42.0814 
G01 X-112.7316 Y42.1873 
G01 X-112.8149 Y42.3118 
G01 X-112.8385 Y42.3688 
G01 X-116.5874 Y42.3688 
G00 Z1.0000  
G00 X-114.9894 Y34.1878 
G01 Z-0.0500 F64    
G01 X-114.9658 Y34.1308 F128   
G01 X-114.9366 Y33.9839 
G01 X-114.9366 Y33.8341 
G01 X-114.9658 Y33.6872 
G01 X-115.0231 Y33.5488 
G01 X-115.1064 Y33.4243 
G01 X-115.2123 Y33.3184 
G01 X-115.3368 Y33.2351 
G01 X-115.4752 Y33.1778 
G01 X-115.6221 Y33.1486 
G01 X-115.7719 Y33.1486 
G01 X-115.9188 Y33.1778 
G01 X-116.0572 Y33.2351 
G01 X-116.1817 Y33.3184 
G01 X-116.2876 Y33.4243 
G01 X-116.3709 Y33.5488 
G01 X-116.4282 Y33.6872 
G01 X-116.4574 Y33.8341 
G01 X-116.4574 Y33.9839 
G01 X-116.4282 Y34.1308 
G01 X-116.3709 Y34.2692 
G01 X-116.2876 Y34.3937 
G01 X-116.1817 Y34.4996 
G01 X-116.0572 Y34.5829 
G01 X-115.9188 Y34.6402 
G01 X-115.7719 Y34.6694 
G01 X-115.6221 Y34.6694 
G01 X-115.4752 Y34.6402 
G01 X-115.4182 Y34.6166 
G01 X-111.3246 Y38.7102 
G01 X-111.3482 Y38.7672 
G01 X-111.3774 Y38.9141 
G01 X-111.3774 Y39.0639 
G01 X-111.3482 Y39.2108 
G01 X-111.2909 Y39.3492 
G01 X-111.2076 Y39.4737 
G01 X-111.1017 Y39.5796 
G01 X-110.9772 Y39.6629 
G01 X-110.8388 Y39.7202 
G01 X-110.6919 Y39.7494 
G01 X-110.5421 Y39.7494 
G01 X-110.3952 Y39.7202 
G01 X-110.2568 Y39.6629 
G01 X-110.1323 Y39.5796 
G01 X-110.0264 Y39.4737 
G01 X-109.9431 Y39.3492 
G01 X-109.8858 Y39.2108 
G01 X-109.8566 Y39.0639 
G01 X-109.8566 Y38.9141 
G01 X-109.8858 Y38.7672 
G01 X-109.9431 Y38.6288 
G01 X-110.0264 Y38.5043 
G01 X-110.1323 Y38.3984 
G01 X-110.2568 Y38.3151 
G01 X-110.3952 Y38.2578 
G01 X-110.5421 Y38.2286 
G01 X-110.6919 Y38.2286 
G01 X-110.8388 Y38.2578 
G01 X-110.8958 Y38.2814 
G01 X-114.9894 Y34.1878 
G00 Z1.0000  
G00 X-18.4928 Y53.6339 
G01 Z-0.0500 F64    
G01 X-18.4928 Y53.5541 F128   
G01 X-18.5135 Y53.4770 
G01 X-18.5534 Y53.4078 
G01 X-21.1598 Y50.8014 
G01 X-21.1598 Y48.9575 
G01 X-21.1028 Y48.9339 
G01 X-20.9783 Y48.8506 
G01 X-20.8724 Y48.7447 
G01 X-20.7891 Y48.6202 
G01 X-20.7318 Y48.4818 
G01 X-20.7026 Y48.3349 
G01 X-20.7026 Y48.1851 
G01 X-20.7318 Y48.0382 
G01 X-20.7891 Y47.8998 
G01 X-20.8724 Y47.7753 
G01 X-20.9783 Y47.6694 
G01 X-21.1028 Y47.5861 
G01 X-21.2412 Y47.5288 
G01 X-21.3881 Y47.4996 
G01 X-21.5379 Y47.4996 
G01 X-21.6848 Y47.5288 
G01 X-21.8232 Y47.5861 
G01 X-21.9477 Y47.6694 
G01 X-22.0536 Y47.7753 
G01 X-22.1369 Y47.8998 
G01 X-22.1942 Y48.0382 
G01 X-22.2234 Y48.1851 
G01 X-22.2234 Y48.3349 
G01 X-22.1942 Y48.4818 
G01 X-22.1369 Y48.6202 
G01 X-22.0536 Y48.7447 
G01 X-21.9477 Y48.8506 
G01 X-21.8232 Y48.9339 
G01 X-21.7662 Y48.9575 
G01 X-21.7662 Y50.9669 
G01 X-21.7455 Y51.0440 
G01 X-21.7056 Y51.1132 
G01 X-21.6492 Y51.1696 
G01 X-19.0992 Y53.7196 
G01 X-19.0992 Y62.2945 
G01 X-19.1562 Y62.3181 
G01 X-19.2807 Y62.4014 
G01 X-19.3866 Y62.5073 
G01 X-19.4699 Y62.6318 
G01 X-19.5272 Y62.7702 
G01 X-19.5564 Y62.9171 
G01 X-19.5564 Y63.0669 
G01 X-19.5272 Y63.2138 
G01 X-19.4699 Y63.3522 
G01 X-19.3866 Y63.4767 
G01 X-19.2807 Y63.5826 
G01 X-19.1562 Y63.6659 
G01 X-19.0178 Y63.7232 
G01 X-18.8709 Y63.7524 
G01 X-18.7211 Y63.7524 
G01 X-18.5742 Y63.7232 
G01 X-18.4358 Y63.6659 
G01 X-18.3113 Y63.5826 
G01 X-18.2054 Y63.4767 
G01 X-18.1221 Y63.3522 
G01 X-18.0648 Y63.2138 
G01 X-18.0356 Y63.0669 
G01 X-18.0356 Y62.9171 
G01 X-18.0648 Y62.7702 
G01 X-18.1221 Y62.6318 
G01 X-18.2054 Y62.5073 
G01 X-18.3113 Y62.4014 
G01 X-18.4358 Y62.3181 
G01 X-18.4928 Y62.2945 
G01 X-18.4928 Y53.6339 
G00 Z1.0000  
G00 X-96.0486 Y32.0333 
G01 Z-0.0500 F64    
G01 X-95.9827 Y31.9674 F128   
G01 X-95.9361 Y31.8866 
G01 X-95.9120 Y31.7966 
G01 X-95.9120 Y31.2616 
G01 X-94.9960 Y30.3456 
G01 X-94.0800 Y31.2616 
G01 X-94.0800 Y33.2326 
G01 X-94.0862 Y33.2351 
G01 X-94.2107 Y33.3184 
G01 X-94.3166 Y33.4243 
G01 X-94.3999 Y33.5488 
G01 X-94.4572 Y33.6872 
G01 X-94.4864 Y33.8341 
G01 X-94.4864 Y33.9839 
G01 X-94.4572 Y34.1308 
G01 X-94.3999 Y34.2692 
G01 X-94.3166 Y34.3937 
G01 X-94.2107 Y34.4996 
G01 X-94.0862 Y34.5829 
G01 X-93.9478 Y34.6402 
G01 X-93.8009 Y34.6694 
G01 X-93.6511 Y34.6694 
G01 X-93.5042 Y34.6402 
G01 X-93.3658 Y34.5829 
G01 X-93.2413 Y34.4996 
G01 X-93.1354 Y34.3937 
G01 X-93.0521 Y34.2692 
G01 X-92.9948 Y34.1308 
G01 X-92.9656 Y33.9839 
G01 X-92.9656 Y33.8341 
G01 X-92.9948 Y33.6872 
G01 X-93.0521 Y33.5488 
G01 X-93.1354 Y33.4243 
G01 X-93.2413 Y33.3184 
G01 X-93.3658 Y33.2351 
G01 X-93.3720 Y33.2326 
G01 X-93.3720 Y31.0684 
G01 X-93.3961 Y30.9784 
G01 X-93.4427 Y30.8976 
G01 X-93.5086 Y30.8317 
G01 X-94.7127 Y29.6276 
G01 X-95.0350 Y29.3054 
G01 X-95.0350 Y28.2201 
G01 X-95.0502 Y28.1834 
G01 X-95.0784 Y28.1552 
G01 X-95.1151 Y28.1400 
G01 X-96.6549 Y28.1400 
G01 X-96.6916 Y28.1552 
G01 X-96.7198 Y28.1834 
G01 X-96.7350 Y28.2201 
G01 X-96.7350 Y29.5599 
G01 X-96.7198 Y29.5966 
G01 X-96.6916 Y29.6248 
G01 X-96.6549 Y29.6400 
G01 X-95.7016 Y29.6400 
G01 X-95.4966 Y29.8450 
G01 X-96.5493 Y30.8976 
G01 X-96.5959 Y30.9784 
G01 X-96.6200 Y31.0684 
G01 X-96.6200 Y31.6034 
G01 X-101.9752 Y36.9586 
G01 X-102.0559 Y36.9586 
G01 X-102.2028 Y36.9878 
G01 X-102.3412 Y37.0451 
G01 X-102.4657 Y37.1284 
G01 X-102.5716 Y37.2343 
G01 X-102.6549 Y37.3588 
G01 X-102.7122 Y37.4972 
G01 X-102.7414 Y37.6441 
G01 X-102.7414 Y37.7939 
G01 X-102.7122 Y37.9408 
G01 X-102.6549 Y38.0792 
G01 X-102.5716 Y38.2037 
G01 X-102.4657 Y38.3096 
G01 X-102.3412 Y38.3929 
G01 X-102.2028 Y38.4502 
G01 X-102.0559 Y38.4794 
G01 X-101.9061 Y38.4794 
G01 X-101.7592 Y38.4502 
G01 X-101.6208 Y38.3929 
G01 X-101.4963 Y38.3096 
G01 X-101.3904 Y38.2037 
G01 X-101.3071 Y38.0792 
G01 X-101.2498 Y37.9408 
G01 X-101.2206 Y37.7939 
G01 X-101.2206 Y37.6441 
G01 X-101.2498 Y37.4972 
G01 X-101.3071 Y37.3588 
G01 X-101.3340 Y37.3186 
G01 X-96.0486 Y32.0333 
G00 Z1.0000  
G00 X-117.3066 Y37.3650 
G01 Z-0.0500 F64    
G01 X-117.3091 Y37.3588 F128   
G01 X-117.3924 Y37.2343 
G01 X-117.4983 Y37.1284 
G01 X-117.6228 Y37.0451 
G01 X-117.7612 Y36.9878 
G01 X-117.9081 Y36.9586 
G01 X-118.0579 Y36.9586 
G01 X-118.2048 Y36.9878 
G01 X-118.3432 Y37.0451 
G01 X-118.4677 Y37.1284 
G01 X-118.5736 Y37.2343 
G01 X-118.6569 Y37.3588 
G01 X-118.7142 Y37.4972 
G01 X-118.7434 Y37.6441 
G01 X-118.7434 Y37.7939 
G01 X-118.7142 Y37.9408 
G01 X-118.6569 Y38.0792 
G01 X-118.5736 Y38.2037 
G01 X-118.4677 Y38.3096 
G01 X-118.3432 Y38.3929 
G01 X-118.2048 Y38.4502 
G01 X-118.0579 Y38.4794 
G01 X-117.9081 Y38.4794 
G01 X-117.7612 Y38.4502 
G01 X-117.6228 Y38.3929 
G01 X-117.4983 Y38.3096 
G01 X-117.3924 Y38.2037 
G01 X-117.3091 Y38.0792 
G01 X-117.3066 Y38.0730 
G01 X-114.2144 Y38.0730 
G01 X-114.2119 Y38.0792 
G01 X-114.1286 Y38.2037 
G01 X-114.0227 Y38.3096 
G01 X-113.8982 Y38.3929 
G01 X-113.7598 Y38.4502 
G01 X-113.6129 Y38.4794 
G01 X-113.4631 Y38.4794 
G01 X-113.3162 Y38.4502 
G01 X-113.1778 Y38.3929 
G01 X-113.0533 Y38.3096 
G01 X-112.9474 Y38.2037 
G01 X-112.8641 Y38.0792 
G01 X-112.8068 Y37.9408 
G01 X-112.7776 Y37.7939 
G01 X-112.7776 Y37.6441 
G01 X-112.8068 Y37.4972 
G01 X-112.8641 Y37.3588 
G01 X-112.9474 Y37.2343 
G01 X-113.0533 Y37.1284 
G01 X-113.1778 Y37.0451 
G01 X-113.3162 Y36.9878 
G01 X-113.4631 Y36.9586 
G01 X-113.6129 Y36.9586 
G01 X-113.7598 Y36.9878 
G01 X-113.8982 Y37.0451 
G01 X-114.0227 Y37.1284 
G01 X-114.1286 Y37.2343 
G01 X-114.2119 Y37.3588 
G01 X-114.2144 Y37.3650 
G01 X-117.3066 Y37.3650 
G00 Z1.0000  
G00 X-0.1636 Y39.6533 
G01 Z-0.0500 F64    
G01 X-0.0977 Y39.5874 F128   
G01 X-0.0511 Y39.5066 
G01 X-0.0270 Y39.4166 
G01 X-0.0270 Y10.9474 
G01 X-0.0240 Y10.9264 
G01 X-0.0270 Y10.9010 
G01 X-0.0270 Y10.8754 
G01 X-0.0325 Y10.8549 
G01 X-0.0350 Y10.8339 
G01 X-0.0445 Y10.8101 
G01 X-0.0511 Y10.7854 
G01 X-0.0617 Y10.7670 
G01 X-0.0696 Y10.7473 
G01 X-0.0849 Y10.7268 
G01 X-0.0977 Y10.7046 
G01 X-0.1127 Y10.6897 
G01 X-0.1254 Y10.6727 
G01 X-0.1455 Y10.6568 
G01 X-0.1636 Y10.6387 
G01 X-0.1820 Y10.6281 
G01 X-5.9960 Y6.0512  
G01 X-5.9960 Y2.6204  
G01 X-6.0201 Y2.5304  
G01 X-6.0667 Y2.4496  
G01 X-6.1326 Y2.3837  
G01 X-8.3527 Y0.1636  
G01 X-8.4186 Y0.0977  
G01 X-8.4994 Y0.0511  
G01 X-8.5894 Y0.0270  
G01 X-79.8026 Y0.0270  
G01 X-79.8926 Y0.0511  
G01 X-79.9734 Y0.0977  
G01 X-83.2482 Y3.3726  
G01 X-83.3442 Y3.3328  
G01 X-83.4911 Y3.3036  
G01 X-83.6409 Y3.3036  
G01 X-83.7878 Y3.3328  
G01 X-83.9262 Y3.3901  
G01 X-84.0507 Y3.4734  
G01 X-84.1566 Y3.5793  
G01 X-84.2399 Y3.7038  
G01 X-84.2972 Y3.8422  
G01 X-84.3264 Y3.9891  
G01 X-84.3264 Y4.1389  
G01 X-84.2972 Y4.2858  
G01 X-84.2399 Y4.4242  
G01 X-84.1566 Y4.5487  
G01 X-84.0507 Y4.6546  
G01 X-83.9262 Y4.7379  
G01 X-83.7878 Y4.7952  
G01 X-83.6409 Y4.8244  
G01 X-83.4911 Y4.8244  
G01 X-83.3442 Y4.7952  
G01 X-83.2058 Y4.7379  
G01 X-83.0813 Y4.6546  
G01 X-82.9754 Y4.5487  
G01 X-82.8921 Y4.4242  
G01 X-82.8348 Y4.2858  
G01 X-82.8056 Y4.1389  
G01 X-82.8056 Y3.9891  
G01 X-82.8152 Y3.9408  
G01 X-79.6094 Y0.7350  
G01 X-8.7826 Y0.7350  
G01 X-6.7040 Y2.8136  
G01 X-6.7040 Y6.1976  
G01 X-6.7070 Y6.2186  
G01 X-6.7040 Y6.2440  
G01 X-6.7040 Y6.2696  
G01 X-6.6985 Y6.2901  
G01 X-6.6960 Y6.3111  
G01 X-6.6865 Y6.3349  
G01 X-6.6799 Y6.3596  
G01 X-6.6693 Y6.3780  
G01 X-6.6614 Y6.3977  
G01 X-6.6461 Y6.4182  
G01 X-6.6333 Y6.4404  
G01 X-6.6183 Y6.4553  
G01 X-6.6056 Y6.4723  
G01 X-6.5855 Y6.4882  
G01 X-6.5674 Y6.5063  
G01 X-6.5490 Y6.5169  
G01 X-0.7350 Y11.0938 
G01 X-0.7350 Y39.2234 
G01 X-2.1850 Y40.6734 
G01 X-2.1912 Y40.6708 
G01 X-2.3381 Y40.6416 
G01 X-2.4879 Y40.6416 
G01 X-2.6348 Y40.6708 
G01 X-2.7732 Y40.7281 
G01 X-2.8977 Y40.8114 
G01 X-3.0036 Y40.9173 
G01 X-3.0869 Y41.0418 
G01 X-3.1442 Y41.1802 
G01 X-3.1734 Y41.3271 
G01 X-3.1734 Y41.4769 
G01 X-3.1442 Y41.6238 
G01 X-3.0869 Y41.7622 
G01 X-3.0036 Y41.8867 
G01 X-2.8977 Y41.9926 
G01 X-2.7732 Y42.0759 
G01 X-2.6348 Y42.1332 
G01 X-2.4879 Y42.1624 
G01 X-2.3381 Y42.1624 
G01 X-2.1912 Y42.1332 
G01 X-2.0528 Y42.0759 
G01 X-1.9283 Y41.9926 
G01 X-1.8224 Y41.8867 
G01 X-1.7391 Y41.7622 
G01 X-1.6818 Y41.6238 
G01 X-1.6526 Y41.4769 
G01 X-1.6526 Y41.3271 
G01 X-1.6818 Y41.1802 
G01 X-1.6844 Y41.1740 
G01 X-0.1636 Y39.6533 
G00 Z1.0000  
G00 X-73.6020 Y4.5990  
G01 Z-0.0500 F64    
G01 X-73.6020 Y4.1747  F128   
G01 X-73.6172 Y4.1380  
G01 X-73.6453 Y4.1098  
G01 X-73.6821 Y4.0946  
G01 X-75.0219 Y4.0946  
G01 X-75.0586 Y4.1098  
G01 X-75.0868 Y4.1380  
G01 X-75.1020 Y4.1747  
G01 X-75.1020 Y5.7145  
G01 X-75.0868 Y5.7513  
G01 X-75.0586 Y5.7794  
G01 X-75.0219 Y5.7946  
G01 X-73.6821 Y5.7946  
G01 X-73.6453 Y5.7794  
G01 X-73.6172 Y5.7513  
G01 X-73.6020 Y5.7145  
G01 X-73.6020 Y5.3070  
G01 X-73.3641 Y5.3070  
G01 X-73.3616 Y5.3107  
G01 X-73.2557 Y5.4166  
G01 X-73.1312 Y5.4999  
G01 X-72.9928 Y5.5572  
G01 X-72.8459 Y5.5864  
G01 X-72.6961 Y5.5864  
G01 X-72.5492 Y5.5572  
G01 X-72.4108 Y5.4999  
G01 X-72.2863 Y5.4166  
G01 X-72.1804 Y5.3107  
G01 X-72.1779 Y5.3070  
G01 X-71.0126 Y5.3070  
G01 X-70.9596 Y5.3600  
G01 X-70.9622 Y5.3662  
G01 X-70.9914 Y5.5131  
G01 X-70.9914 Y5.6629  
G01 X-70.9622 Y5.8098  
G01 X-70.9049 Y5.9482  
G01 X-70.8216 Y6.0727  
G01 X-70.7157 Y6.1786  
G01 X-70.5912 Y6.2619  
G01 X-70.4528 Y6.3192  
G01 X-70.3059 Y6.3484  
G01 X-70.1561 Y6.3484  
G01 X-70.0092 Y6.3192  
G01 X-69.8708 Y6.2619  
G01 X-69.7463 Y6.1786  
G01 X-69.6404 Y6.0727  
G01 X-69.5571 Y5.9482  
G01 X-69.5020 Y5.8150  
G01 X-69.4224 Y5.8150  
G01 X-69.3324 Y5.7909  
G01 X-69.2516 Y5.7443  
G01 X-67.9254 Y4.4180  
G01 X-31.3886 Y4.4180  
G01 X-28.8020 Y7.0046  
G01 X-28.8020 Y11.9184 
G01 X-34.9510 Y18.0674 
G01 X-34.9572 Y18.0648 
G01 X-35.1041 Y18.0356 
G01 X-35.2539 Y18.0356 
G01 X-35.4008 Y18.0648 
G01 X-35.5392 Y18.1221 
G01 X-35.6637 Y18.2054 
G01 X-35.7696 Y18.3113 
G01 X-35.8529 Y18.4358 
G01 X-35.9102 Y18.5742 
G01 X-35.9394 Y18.7211 
G01 X-35.9394 Y18.8709 
G01 X-35.9102 Y19.0178 
G01 X-35.8529 Y19.1562 
G01 X-35.7696 Y19.2807 
G01 X-35.6637 Y19.3866 
G01 X-35.5392 Y19.4699 
G01 X-35.4008 Y19.5272 
G01 X-35.2539 Y19.5564 
G01 X-35.1041 Y19.5564 
G01 X-34.9572 Y19.5272 
G01 X-34.8188 Y19.4699 
G01 X-34.6943 Y19.3866 
G01 X-34.5884 Y19.2807 
G01 X-34.5051 Y19.1562 
G01 X-34.4478 Y19.0178 
G01 X-34.4186 Y18.8709 
G01 X-34.4186 Y18.7211 
G01 X-34.4478 Y18.5742 
G01 X-34.4504 Y18.5680 
G01 X-28.1647 Y12.2824 
G01 X-28.1181 Y12.2016 
G01 X-28.0940 Y12.1116 
G01 X-28.0940 Y6.8114  
G01 X-28.1181 Y6.7214  
G01 X-28.1647 Y6.6406  
G01 X-28.2306 Y6.5747  
G01 X-31.0246 Y3.7807  
G01 X-31.1054 Y3.7341  
G01 X-31.1954 Y3.7100  
G01 X-68.1186 Y3.7100  
G01 X-68.2086 Y3.7341  
G01 X-68.2894 Y3.7807  
G01 X-68.3553 Y3.8466  
G01 X-69.6156 Y5.1070  
G01 X-69.6379 Y5.1070  
G01 X-69.6404 Y5.1033  
G01 X-69.7463 Y4.9974  
G01 X-69.8708 Y4.9141  
G01 X-70.0092 Y4.8568  
G01 X-70.1561 Y4.8276  
G01 X-70.3059 Y4.8276  
G01 X-70.4528 Y4.8568  
G01 X-70.4590 Y4.8594  
G01 X-70.6486 Y4.6697  
G01 X-70.7294 Y4.6231  
G01 X-70.8194 Y4.5990  
G01 X-72.0420 Y4.5990  
G01 X-72.0971 Y4.4658  
G01 X-72.1804 Y4.3413  
G01 X-72.2863 Y4.2354  
G01 X-72.4108 Y4.1521  
G01 X-72.5492 Y4.0948  
G01 X-72.6961 Y4.0656  
G01 X-72.8459 Y4.0656  
G01 X-72.9928 Y4.0948  
G01 X-73.1312 Y4.1521  
G01 X-73.2557 Y4.2354  
G01 X-73.3616 Y4.3413  
G01 X-73.4449 Y4.4658  
G01 X-73.5000 Y4.5990  
G01 X-73.6020 Y4.5990  
G00 Z1.0000  
G00 X-31.3224 Y71.6010 
G01 Z-0.0500 F64    
G01 X-31.2324 Y71.5769 F128   
G01 X-31.1516 Y71.5303 
G01 X-31.0857 Y71.4644 
G01 X-27.0876 Y67.4663 
G01 X-27.0217 Y67.4004 
G01 X-26.9751 Y67.3196 
G01 X-26.9510 Y67.2296 
G01 X-26.9510 Y65.8056 
G01 X-25.8820 Y64.7366 
G01 X-25.8758 Y64.7392 
G01 X-25.7289 Y64.7684 
G01 X-25.5791 Y64.7684 
G01 X-25.4322 Y64.7392 
G01 X-25.2938 Y64.6819 
G01 X-25.1693 Y64.5986 
G01 X-25.0634 Y64.4927 
G01 X-24.9801 Y64.3682 
G01 X-24.9228 Y64.2298 
G01 X-24.8936 Y64.0829 
G01 X-24.8936 Y63.9331 
G01 X-24.9228 Y63.7862 
G01 X-24.9801 Y63.6478 
G01 X-25.0634 Y63.5233 
G01 X-25.1693 Y63.4174 
G01 X-25.2938 Y63.3341 
G01 X-25.4322 Y63.2768 
G01 X-25.5791 Y63.2476 
G01 X-25.7289 Y63.2476 
G01 X-25.8758 Y63.2768 
G01 X-26.0142 Y63.3341 
G01 X-26.1387 Y63.4174 
G01 X-26.2446 Y63.5233 
G01 X-26.3279 Y63.6478 
G01 X-26.3852 Y63.7862 
G01 X-26.4144 Y63.9331 
G01 X-26.4144 Y64.0829 
G01 X-26.3852 Y64.2298 
G01 X-26.3826 Y64.2360 
G01 X-27.5883 Y65.4416 
G01 X-27.6349 Y65.5224 
G01 X-27.6590 Y65.6124 
G01 X-27.6590 Y67.0364 
G01 X-31.5156 Y70.8930 
G01 X-38.3126 Y70.8930 
G01 X-38.3151 Y70.8868 
G01 X-38.3984 Y70.7623 
G01 X-38.5043 Y70.6564 
G01 X-38.6288 Y70.5731 
G01 X-38.7672 Y70.5158 
G01 X-38.9141 Y70.4866 
G01 X-39.0639 Y70.4866 
G01 X-39.2108 Y70.5158 
G01 X-39.3492 Y70.5731 
G01 X-39.4737 Y70.6564 
G01 X-39.5796 Y70.7623 
G01 X-39.6629 Y70.8868 
G01 X-39.7202 Y71.0252 
G01 X-39.7494 Y71.1721 
G01 X-39.7494 Y71.3219 
G01 X-39.7202 Y71.4688 
G01 X-39.6629 Y71.6072 
G01 X-39.5796 Y71.7317 
G01 X-39.4737 Y71.8376 
G01 X-39.3492 Y71.9209 
G01 X-39.2108 Y71.9782 
G01 X-39.0639 Y72.0074 
G01 X-38.9141 Y72.0074 
G01 X-38.7672 Y71.9782 
G01 X-38.6288 Y71.9209 
G01 X-38.5043 Y71.8376 
G01 X-38.3984 Y71.7317 
G01 X-38.3151 Y71.6072 
G01 X-38.3126 Y71.6010 
G01 X-31.3224 Y71.6010 
G00 Z1.0000  
G00 X-17.1916 Y3.1480  
G01 Z-0.0500 F64    
G01 X-17.0984 Y3.1480  F128   
G01 X-17.0084 Y3.1239  
G01 X-16.9276 Y3.0773  
G01 X-16.1094 Y2.2590  
G01 X-11.0686 Y2.2590  
G01 X-10.5900 Y2.7376  
G01 X-10.5900 Y3.9449  
G01 X-10.5748 Y3.9816  
G01 X-10.5466 Y4.0098  
G01 X-10.5099 Y4.0250  
G01 X-10.1219 Y4.0250  
G01 X-10.1089 Y4.0736  
G01 X-10.0623 Y4.1544  
G01 X-9.9964 Y4.2203  
G01 X-9.9156 Y4.2669  
G01 X-9.8256 Y4.2910  
G01 X-9.4176 Y4.2910  
G01 X-9.0463 Y4.6624  
G01 X-8.9804 Y4.7283  
G01 X-8.8996 Y4.7749  
G01 X-8.8096 Y4.7990  
G01 X-8.5286 Y4.7990  
G01 X-8.1010 Y5.2266  
G01 X-8.1010 Y5.7569  
G01 X-8.1047 Y5.7594  
G01 X-8.2106 Y5.8653  
G01 X-8.2939 Y5.9898  
G01 X-8.3512 Y6.1282  
G01 X-8.3804 Y6.2751  
G01 X-8.3804 Y6.4249  
G01 X-8.3512 Y6.5718  
G01 X-8.2939 Y6.7102  
G01 X-8.2106 Y6.8347  
G01 X-8.1540 Y6.8914  
G01 X-8.1573 Y6.8946  
G01 X-8.2039 Y6.9754  
G01 X-8.2280 Y7.0654  
G01 X-8.2280 Y7.1800  
G01 X-8.6299 Y7.1800  
G01 X-8.6666 Y7.1952  
G01 X-8.6948 Y7.2234  
G01 X-8.7100 Y7.2601  
G01 X-8.7100 Y9.2999  
G01 X-8.6948 Y9.3366  
G01 X-8.6666 Y9.3648  
G01 X-8.6299 Y9.3800  
G01 X-7.0901 Y9.3800  
G01 X-7.0534 Y9.3648  
G01 X-7.0252 Y9.3366  
G01 X-7.0100 Y9.2999  
G01 X-7.0100 Y7.2601  
G01 X-7.0252 Y7.2234  
G01 X-7.0534 Y7.1952  
G01 X-7.0901 Y7.1800  
G01 X-7.4508 Y7.1800  
G01 X-7.4171 Y7.1216  
G01 X-7.4067 Y7.0829  
G01 X-7.3982 Y7.0812  
G01 X-7.2598 Y7.0239  
G01 X-7.1353 Y6.9406  
G01 X-7.0294 Y6.8347  
G01 X-6.9461 Y6.7102  
G01 X-6.8888 Y6.5718  
G01 X-6.8596 Y6.4249  
G01 X-6.8596 Y6.2751  
G01 X-6.8888 Y6.1282  
G01 X-6.9461 Y5.9898  
G01 X-7.0294 Y5.8653  
G01 X-7.1353 Y5.7594  
G01 X-7.2598 Y5.6761  
G01 X-7.3930 Y5.6210  
G01 X-7.3930 Y5.0334  
G01 X-7.4171 Y4.9434  
G01 X-7.4637 Y4.8626  
G01 X-7.5296 Y4.7967  
G01 X-8.1646 Y4.1617  
G01 X-8.2454 Y4.1151  
G01 X-8.3354 Y4.0910  
G01 X-8.6164 Y4.0910  
G01 X-9.0536 Y3.6537  
G01 X-9.0900 Y3.6327  
G01 X-9.0900 Y2.4051  
G01 X-9.1052 Y2.3684  
G01 X-9.1334 Y2.3402  
G01 X-9.1701 Y2.3250  
G01 X-10.0014 Y2.3250  
G01 X-10.6387 Y1.6876  
G01 X-10.7046 Y1.6217  
G01 X-10.7854 Y1.5751  
G01 X-10.8754 Y1.5510  
G01 X-16.3026 Y1.5510  
G01 X-16.3926 Y1.5751  
G01 X-16.4734 Y1.6217  
G01 X-16.5393 Y1.6876  
G01 X-17.2916 Y2.4400  
G01 X-19.1356 Y2.4400  
G01 X-19.1381 Y2.4338  
G01 X-19.2214 Y2.3093  
G01 X-19.3273 Y2.2034  
G01 X-19.4518 Y2.1201  
G01 X-19.5902 Y2.0628  
G01 X-19.7371 Y2.0336  
G01 X-19.8869 Y2.0336  
G01 X-20.0338 Y2.0628  
G01 X-20.1722 Y2.1201  
G01 X-20.2967 Y2.2034  
G01 X-20.4026 Y2.3093  
G01 X-20.4859 Y2.4338  
G01 X-20.5432 Y2.5722  
G01 X-20.5724 Y2.7191  
G01 X-20.5724 Y2.8689  
G01 X-20.5432 Y3.0158  
G01 X-20.4859 Y3.1542  
G01 X-20.4026 Y3.2787  
G01 X-20.2967 Y3.3846  
G01 X-20.1722 Y3.4679  
G01 X-20.0338 Y3.5252  
G01 X-19.8869 Y3.5544  
G01 X-19.7371 Y3.5544  
G01 X-19.5902 Y3.5252  
G01 X-19.4518 Y3.4679  
G01 X-19.3273 Y3.3846  
G01 X-19.2214 Y3.2787  
G01 X-19.1381 Y3.1542  
G01 X-19.1356 Y3.1480  
G01 X-17.1916 Y3.1480  
G00 Z1.0000  
G00 X-76.6455 Y71.9598 
G01 Z-0.0500 F64    
G01 X-76.6691 Y71.9028 F128   
G01 X-76.7524 Y71.7783 
G01 X-76.8583 Y71.6724 
G01 X-76.9828 Y71.5891 
G01 X-77.1212 Y71.5318 
G01 X-77.2681 Y71.5026 
G01 X-77.4179 Y71.5026 
G01 X-77.5648 Y71.5318 
G01 X-77.7032 Y71.5891 
G01 X-77.8277 Y71.6724 
G01 X-77.9336 Y71.7783 
G01 X-78.0169 Y71.9028 
G01 X-78.0742 Y72.0412 
G01 X-78.1034 Y72.1881 
G01 X-78.1034 Y72.3379 
G01 X-78.0742 Y72.4848 
G01 X-78.0169 Y72.6232 
G01 X-77.9336 Y72.7477 
G01 X-77.8277 Y72.8536 
G01 X-77.7032 Y72.9369 
G01 X-77.5648 Y72.9942 
G01 X-77.4179 Y73.0234 
G01 X-77.2681 Y73.0234 
G01 X-77.1212 Y72.9942 
G01 X-76.9828 Y72.9369 
G01 X-76.8583 Y72.8536 
G01 X-76.7524 Y72.7477 
G01 X-76.6691 Y72.6232 
G01 X-76.6455 Y72.5662 
G01 X-55.5615 Y72.5662 
G01 X-55.5379 Y72.6232 
G01 X-55.4546 Y72.7477 
G01 X-55.3487 Y72.8536 
G01 X-55.2242 Y72.9369 
G01 X-55.0858 Y72.9942 
G01 X-54.9389 Y73.0234 
G01 X-54.7891 Y73.0234 
G01 X-54.6422 Y72.9942 
G01 X-54.5038 Y72.9369 
G01 X-54.3793 Y72.8536 
G01 X-54.2734 Y72.7477 
G01 X-54.1901 Y72.6232 
G01 X-54.1328 Y72.4848 
G01 X-54.1036 Y72.3379 
G01 X-54.1036 Y72.1881 
G01 X-54.1328 Y72.0412 
G01 X-54.1901 Y71.9028 
G01 X-54.2734 Y71.7783 
G01 X-54.3793 Y71.6724 
G01 X-54.5038 Y71.5891 
G01 X-54.6422 Y71.5318 
G01 X-54.7891 Y71.5026 
G01 X-54.9389 Y71.5026 
G01 X-55.0858 Y71.5318 
G01 X-55.2242 Y71.5891 
G01 X-55.3487 Y71.6724 
G01 X-55.4546 Y71.7783 
G01 X-55.5379 Y71.9028 
G01 X-55.5615 Y71.9598 
G01 X-76.6455 Y71.9598 
G00 Z1.0000  
G00 X-81.0659 Y61.8982 
G01 Z-0.0500 F64    
G01 X-80.9861 Y61.8982 F128   
G01 X-80.9090 Y61.8775 
G01 X-80.8398 Y61.8376 
G01 X-80.5194 Y61.5172 
G01 X-78.1675 Y61.5172 
G01 X-78.1439 Y61.5742 
G01 X-78.0606 Y61.6987 
G01 X-77.9547 Y61.8046 
G01 X-77.8302 Y61.8879 
G01 X-77.6918 Y61.9452 
G01 X-77.5449 Y61.9744 
G01 X-77.3951 Y61.9744 
G01 X-77.2482 Y61.9452 
G01 X-77.1098 Y61.8879 
G01 X-76.9853 Y61.8046 
G01 X-76.8794 Y61.6987 
G01 X-76.7961 Y61.5742 
G01 X-76.7388 Y61.4358 
G01 X-76.7096 Y61.2889 
G01 X-76.7096 Y61.1391 
G01 X-76.7388 Y60.9922 
G01 X-76.7961 Y60.8538 
G01 X-76.8794 Y60.7293 
G01 X-76.9853 Y60.6234 
G01 X-77.1098 Y60.5401 
G01 X-77.2482 Y60.4828 
G01 X-77.3951 Y60.4536 
G01 X-77.5449 Y60.4536 
G01 X-77.6918 Y60.4828 
G01 X-77.8302 Y60.5401 
G01 X-77.9547 Y60.6234 
G01 X-78.0606 Y60.7293 
G01 X-78.1439 Y60.8538 
G01 X-78.1675 Y60.9108 
G01 X-80.6849 Y60.9108 
G01 X-80.7620 Y60.9315 
G01 X-80.8312 Y60.9714 
G01 X-80.8876 Y61.0278 
G01 X-81.1516 Y61.2918 
G01 X-81.5985 Y61.2918 
G01 X-81.6221 Y61.2348 
G01 X-81.7054 Y61.1103 
G01 X-81.8113 Y61.0044 
G01 X-81.9358 Y60.9211 
G01 X-82.0742 Y60.8638 
G01 X-82.2211 Y60.8346 
G01 X-82.3709 Y60.8346 
G01 X-82.5178 Y60.8638 
G01 X-82.6562 Y60.9211 
G01 X-82.7807 Y61.0044 
G01 X-82.8866 Y61.1103 
G01 X-82.9699 Y61.2348 
G01 X-83.0272 Y61.3732 
G01 X-83.0564 Y61.5201 
G01 X-83.0564 Y61.6699 
G01 X-83.0272 Y61.8168 
G01 X-82.9699 Y61.9552 
G01 X-82.8866 Y62.0797 
G01 X-82.7807 Y62.1856 
G01 X-82.6562 Y62.2689 
G01 X-82.5178 Y62.3262 
G01 X-82.3709 Y62.3554 
G01 X-82.2211 Y62.3554 
G01 X-82.0742 Y62.3262 
G01 X-81.9358 Y62.2689 
G01 X-81.8113 Y62.1856 
G01 X-81.7054 Y62.0797 
G01 X-81.6221 Y61.9552 
G01 X-81.5985 Y61.8982 
G01 X-81.0659 Y61.8982 
G00 Z1.0000  
G00 X-17.6038 Y47.4335 
G01 Z-0.0500 F64    
G01 X-17.5468 Y47.4099 F128   
G01 X-17.4223 Y47.3266 
G01 X-17.3164 Y47.2207 
G01 X-17.2331 Y47.0962 
G01 X-17.1758 Y46.9578 
G01 X-17.1466 Y46.8109 
G01 X-17.1466 Y46.6611 
G01 X-17.1758 Y46.5142 
G01 X-17.2331 Y46.3758 
G01 X-17.3164 Y46.2513 
G01 X-17.4223 Y46.1454 
G01 X-17.5468 Y46.0621 
G01 X-17.6852 Y46.0048 
G01 X-17.8321 Y45.9756 
G01 X-17.9819 Y45.9756 
G01 X-18.1288 Y46.0048 
G01 X-18.2672 Y46.0621 
G01 X-18.3917 Y46.1454 
G01 X-18.4976 Y46.2513 
G01 X-18.5809 Y46.3758 
G01 X-18.6382 Y46.5142 
G01 X-18.6674 Y46.6611 
G01 X-18.6674 Y46.8109 
G01 X-18.6382 Y46.9578 
G01 X-18.5809 Y47.0962 
G01 X-18.4976 Y47.2207 
G01 X-18.3917 Y47.3266 
G01 X-18.2672 Y47.4099 
G01 X-18.2102 Y47.4335 
G01 X-18.2102 Y50.4835 
G01 X-18.2672 Y50.5071 
G01 X-18.3917 Y50.5904 
G01 X-18.4976 Y50.6963 
G01 X-18.5809 Y50.8208 
G01 X-18.6382 Y50.9592 
G01 X-18.6674 Y51.1061 
G01 X-18.6674 Y51.2559 
G01 X-18.6382 Y51.4028 
G01 X-18.5809 Y51.5412 
G01 X-18.4976 Y51.6657 
G01 X-18.3917 Y51.7716 
G01 X-18.2672 Y51.8549 
G01 X-18.1288 Y51.9122 
G01 X-17.9819 Y51.9414 
G01 X-17.8321 Y51.9414 
G01 X-17.6852 Y51.9122 
G01 X-17.5468 Y51.8549 
G01 X-17.4223 Y51.7716 
G01 X-17.3164 Y51.6657 
G01 X-17.2331 Y51.5412 
G01 X-17.1758 Y51.4028 
G01 X-17.1466 Y51.2559 
G01 X-17.1466 Y51.1061 
G01 X-17.1758 Y50.9592 
G01 X-17.2331 Y50.8208 
G01 X-17.3164 Y50.6963 
G01 X-17.4223 Y50.5904 
G01 X-17.5468 Y50.5071 
G01 X-17.6038 Y50.4835 
G01 X-17.6038 Y47.4335 
G00 Z1.0000  
G00 X-85.7520 Y43.8420 
G01 Z-0.0500 F64    
G01 X-85.7520 Y43.6024 F128   
G01 X-85.7458 Y43.5999 
G01 X-85.6213 Y43.5166 
G01 X-85.5154 Y43.4107 
G01 X-85.4321 Y43.2862 
G01 X-85.3748 Y43.1478 
G01 X-85.3456 Y43.0009 
G01 X-85.3456 Y42.8511 
G01 X-85.3748 Y42.7042 
G01 X-85.4321 Y42.5658 
G01 X-85.5154 Y42.4413 
G01 X-85.6213 Y42.3354 
G01 X-85.7458 Y42.2521 
G01 X-85.8842 Y42.1948 
G01 X-86.0311 Y42.1656 
G01 X-86.1809 Y42.1656 
G01 X-86.3278 Y42.1948 
G01 X-86.4662 Y42.2521 
G01 X-86.5907 Y42.3354 
G01 X-86.6966 Y42.4413 
G01 X-86.7799 Y42.5658 
G01 X-86.8372 Y42.7042 
G01 X-86.8664 Y42.8511 
G01 X-86.8664 Y43.0009 
G01 X-86.8372 Y43.1478 
G01 X-86.7799 Y43.2862 
G01 X-86.6966 Y43.4107 
G01 X-86.5907 Y43.5166 
G01 X-86.4662 Y43.5999 
G01 X-86.4600 Y43.6024 
G01 X-86.4600 Y43.8420 
G01 X-87.0416 Y43.8420 
G01 X-87.1316 Y43.8661 
G01 X-87.2124 Y43.9127 
G01 X-87.2783 Y43.9786 
G01 X-90.6976 Y47.3980 
G01 X-99.4876 Y47.3980 
G01 X-99.5776 Y47.4221 
G01 X-99.6584 Y47.4687 
G01 X-99.7243 Y47.5346 
G01 X-100.0956 Y47.9060 
G01 X-102.1546 Y47.9060 
G01 X-102.2446 Y47.9301 
G01 X-102.3254 Y47.9767 
G01 X-102.3913 Y48.0426 
G01 X-103.6636 Y49.3150 
G01 X-104.4899 Y49.3150 
G01 X-104.5266 Y49.3302 
G01 X-104.5548 Y49.3584 
G01 X-104.5700 Y49.3951 
G01 X-104.5700 Y50.9349 
G01 X-104.5548 Y50.9716 
G01 X-104.5266 Y50.9998 
G01 X-104.4899 Y51.0150 
G01 X-103.1501 Y51.0150 
G01 X-103.1134 Y50.9998 
G01 X-103.0852 Y50.9716 
G01 X-103.0700 Y50.9349 
G01 X-103.0700 Y49.7226 
G01 X-101.9614 Y48.6140 
G01 X-99.9024 Y48.6140 
G01 X-99.8124 Y48.5899 
G01 X-99.7316 Y48.5433 
G01 X-99.2944 Y48.1060 
G01 X-90.5044 Y48.1060 
G01 X-90.4144 Y48.0819 
G01 X-90.3336 Y48.0353 
G01 X-86.8484 Y44.5500 
G01 X-83.3534 Y44.5500 
G01 X-83.3509 Y44.5562 
G01 X-83.2676 Y44.6807 
G01 X-83.1617 Y44.7866 
G01 X-83.0372 Y44.8699 
G01 X-82.8988 Y44.9272 
G01 X-82.7519 Y44.9564 
G01 X-82.6021 Y44.9564 
G01 X-82.4552 Y44.9272 
G01 X-82.3168 Y44.8699 
G01 X-82.1923 Y44.7866 
G01 X-82.0864 Y44.6807 
G01 X-82.0031 Y44.5562 
G01 X-81.9458 Y44.4178 
G01 X-81.9166 Y44.2709 
G01 X-81.9166 Y44.1211 
G01 X-81.9458 Y43.9742 
G01 X-82.0031 Y43.8358 
G01 X-82.0864 Y43.7113 
G01 X-82.1923 Y43.6054 
G01 X-82.3168 Y43.5221 
G01 X-82.4552 Y43.4648 
G01 X-82.6021 Y43.4356 
G01 X-82.7519 Y43.4356 
G01 X-82.8988 Y43.4648 
G01 X-83.0372 Y43.5221 
G01 X-83.1617 Y43.6054 
G01 X-83.2676 Y43.7113 
G01 X-83.3509 Y43.8358 
G01 X-83.3534 Y43.8420 
G01 X-85.7520 Y43.8420 
G00 Z1.0000  
G00 X-68.7340 Y34.4366 
G01 Z-0.0500 F64    
G01 X-66.5846 Y32.2873 F128   
G01 X-66.5187 Y32.2214 
G01 X-66.4721 Y32.1406 
G01 X-66.4480 Y32.0506 
G01 X-66.4480 Y23.9174 
G01 X-66.4418 Y23.9149 
G01 X-66.3173 Y23.8316 
G01 X-66.2114 Y23.7257 
G01 X-66.1281 Y23.6012 
G01 X-66.0708 Y23.4628 
G01 X-66.0416 Y23.3159 
G01 X-66.0416 Y23.1661 
G01 X-66.0708 Y23.0192 
G01 X-66.1281 Y22.8808 
G01 X-66.2114 Y22.7563 
G01 X-66.3173 Y22.6504 
G01 X-66.4418 Y22.5671 
G01 X-66.5802 Y22.5098 
G01 X-66.7271 Y22.4806 
G01 X-66.8769 Y22.4806 
G01 X-67.0238 Y22.5098 
G01 X-67.1622 Y22.5671 
G01 X-67.2867 Y22.6504 
G01 X-67.3926 Y22.7563 
G01 X-67.4759 Y22.8808 
G01 X-67.5332 Y23.0192 
G01 X-67.5624 Y23.1661 
G01 X-67.5624 Y23.3159 
G01 X-67.5332 Y23.4628 
G01 X-67.4759 Y23.6012 
G01 X-67.3926 Y23.7257 
G01 X-67.2867 Y23.8316 
G01 X-67.1622 Y23.9149 
G01 X-67.1560 Y23.9174 
G01 X-67.1560 Y31.8574 
G01 X-69.3713 Y34.0726 
G01 X-69.4179 Y34.1534 
G01 X-69.4420 Y34.2434 
G01 X-69.4420 Y38.0586 
G01 X-69.4482 Y38.0611 
G01 X-69.5727 Y38.1444 
G01 X-69.6786 Y38.2503 
G01 X-69.7619 Y38.3748 
G01 X-69.8192 Y38.5132 
G01 X-69.8484 Y38.6601 
G01 X-69.8484 Y38.8099 
G01 X-69.8192 Y38.9568 
G01 X-69.7619 Y39.0952 
G01 X-69.6786 Y39.2197 
G01 X-69.5727 Y39.3256 
G01 X-69.4482 Y39.4089 
G01 X-69.3098 Y39.4662 
G01 X-69.1629 Y39.4954 
G01 X-69.0131 Y39.4954 
G01 X-68.8662 Y39.4662 
G01 X-68.7278 Y39.4089 
G01 X-68.6033 Y39.3256 
G01 X-68.4974 Y39.2197 
G01 X-68.4141 Y39.0952 
G01 X-68.3568 Y38.9568 
G01 X-68.3276 Y38.8099 
G01 X-68.3276 Y38.6601 
G01 X-68.3568 Y38.5132 
G01 X-68.4141 Y38.3748 
G01 X-68.4974 Y38.2503 
G01 X-68.6033 Y38.1444 
G01 X-68.7278 Y38.0611 
G01 X-68.7340 Y38.0586 
G01 X-68.7340 Y34.4366 
G00 Z1.0000  
G00 X-19.5850 Y27.6394 
G01 Z-0.0500 F64    
G01 X-19.6091 Y27.5494 F128   
G01 X-19.6557 Y27.4686 
G01 X-24.7357 Y22.3886 
G01 X-24.8016 Y22.3227 
G01 X-24.8824 Y22.2761 
G01 X-24.9724 Y22.2520 
G01 X-24.9910 Y22.2520 
G01 X-25.0312 Y22.1283 
G01 X-25.1101 Y21.9736 
G01 X-25.2121 Y21.8331 
G01 X-25.3349 Y21.7103 
G01 X-25.4754 Y21.6082 
G01 X-25.6302 Y21.5294 
G01 X-25.7953 Y21.4757 
G01 X-25.9669 Y21.4485 
G01 X-26.1405 Y21.4485 
G01 X-26.3120 Y21.4757 
G01 X-26.4772 Y21.5294 
G01 X-26.6319 Y21.6082 
G01 X-26.7724 Y21.7103 
G01 X-26.8952 Y21.8331 
G01 X-26.9973 Y21.9736 
G01 X-27.0762 Y22.1283 
G01 X-27.1298 Y22.2935 
G01 X-27.1570 Y22.4650 
G01 X-27.1570 Y22.6387 
G01 X-27.1298 Y22.8102 
G01 X-27.0762 Y22.9754 
G01 X-26.9973 Y23.1301 
G01 X-26.8952 Y23.2706 
G01 X-26.7724 Y23.3934 
G01 X-26.6319 Y23.4955 
G01 X-26.4772 Y23.5743 
G01 X-26.3120 Y23.6280 
G01 X-26.1405 Y23.6551 
G01 X-25.9669 Y23.6551 
G01 X-25.7953 Y23.6280 
G01 X-25.6302 Y23.5743 
G01 X-25.4754 Y23.4955 
G01 X-25.3349 Y23.3934 
G01 X-25.2121 Y23.2706 
G01 X-25.1101 Y23.1301 
G01 X-25.0714 Y23.0542 
G01 X-20.4067 Y27.7190 
G01 X-20.4237 Y27.7304 
G01 X-20.5296 Y27.8363 
G01 X-20.6129 Y27.9608 
G01 X-20.6702 Y28.0992 
G01 X-20.6994 Y28.2461 
G01 X-20.6994 Y28.3959 
G01 X-20.6702 Y28.5428 
G01 X-20.6129 Y28.6812 
G01 X-20.5296 Y28.8057 
G01 X-20.4237 Y28.9116 
G01 X-20.2992 Y28.9949 
G01 X-20.1608 Y29.0522 
G01 X-20.0139 Y29.0814 
G01 X-19.8641 Y29.0814 
G01 X-19.7172 Y29.0522 
G01 X-19.5788 Y28.9949 
G01 X-19.4543 Y28.9116 
G01 X-19.3484 Y28.8057 
G01 X-19.2651 Y28.6812 
G01 X-19.2078 Y28.5428 
G01 X-19.1786 Y28.3959 
G01 X-19.1786 Y28.2461 
G01 X-19.2078 Y28.0992 
G01 X-19.2651 Y27.9608 
G01 X-19.3484 Y27.8363 
G01 X-19.4543 Y27.7304 
G01 X-19.5788 Y27.6471 
G01 X-19.5850 Y27.6446 
G01 X-19.5850 Y27.6394 
G00 Z1.0000  
G00 X-56.2066 Y15.4692 
G01 Z-0.0500 F64    
G01 X-56.2302 Y15.5262 F128   
G01 X-56.2594 Y15.6731 
G01 X-56.2594 Y15.8229 
G01 X-56.2302 Y15.9698 
G01 X-56.1729 Y16.1082 
G01 X-56.0896 Y16.2327 
G01 X-55.9837 Y16.3386 
G01 X-55.8592 Y16.4219 
G01 X-55.7208 Y16.4792 
G01 X-55.5739 Y16.5084 
G01 X-55.4241 Y16.5084 
G01 X-55.2772 Y16.4792 
G01 X-55.1388 Y16.4219 
G01 X-55.0143 Y16.3386 
G01 X-54.9084 Y16.2327 
G01 X-54.8251 Y16.1082 
G01 X-54.7678 Y15.9698 
G01 X-54.7386 Y15.8229 
G01 X-54.7386 Y15.6731 
G01 X-54.7678 Y15.5262 
G01 X-54.8251 Y15.3878 
G01 X-54.9084 Y15.2633 
G01 X-55.0143 Y15.1574 
G01 X-55.1388 Y15.0741 
G01 X-55.2772 Y15.0168 
G01 X-55.4241 Y14.9876 
G01 X-55.5739 Y14.9876 
G01 X-55.7208 Y15.0168 
G01 X-55.7778 Y15.0404 
G01 X-56.5694 Y14.2488 
G01 X-56.5458 Y14.1918 
G01 X-56.5166 Y14.0449 
G01 X-56.5166 Y13.8951 
G01 X-56.5458 Y13.7482 
G01 X-56.6031 Y13.6098 
G01 X-56.6864 Y13.4853 
G01 X-56.7923 Y13.3794 
G01 X-56.9168 Y13.2961 
G01 X-57.0552 Y13.2388 
G01 X-57.2021 Y13.2096 
G01 X-57.3519 Y13.2096 
G01 X-57.4988 Y13.2388 
G01 X-57.6372 Y13.2961 
G01 X-57.7617 Y13.3794 
G01 X-57.8676 Y13.4853 
G01 X-57.9509 Y13.6098 
G01 X-58.0082 Y13.7482 
G01 X-58.0374 Y13.8951 
G01 X-58.0374 Y14.0449 
G01 X-58.0082 Y14.1918 
G01 X-57.9509 Y14.3302 
G01 X-57.8676 Y14.4547 
G01 X-57.7617 Y14.5606 
G01 X-57.6372 Y14.6439 
G01 X-57.4988 Y14.7012 
G01 X-57.3519 Y14.7304 
G01 X-57.2021 Y14.7304 
G01 X-57.0552 Y14.7012 
G01 X-56.9982 Y14.6776 
G01 X-56.2066 Y15.4692 
G00 Z1.0000  
G00 X-30.0212 Y6.8566  
G01 Z-0.0500 F64    
G01 X-30.0212 Y9.0815  F128   
G01 X-30.0782 Y9.1051  
G01 X-30.2027 Y9.1884  
G01 X-30.3086 Y9.2943  
G01 X-30.3919 Y9.4188  
G01 X-30.4492 Y9.5572  
G01 X-30.4784 Y9.7041  
G01 X-30.4784 Y9.8539  
G01 X-30.4492 Y10.0008 
G01 X-30.3919 Y10.1392 
G01 X-30.3086 Y10.2637 
G01 X-30.2027 Y10.3696 
G01 X-30.0782 Y10.4529 
G01 X-29.9398 Y10.5102 
G01 X-29.7929 Y10.5394 
G01 X-29.6431 Y10.5394 
G01 X-29.4962 Y10.5102 
G01 X-29.3578 Y10.4529 
G01 X-29.2333 Y10.3696 
G01 X-29.1274 Y10.2637 
G01 X-29.0441 Y10.1392 
G01 X-28.9868 Y10.0008 
G01 X-28.9576 Y9.8539  
G01 X-28.9576 Y9.7041  
G01 X-28.9868 Y9.5572  
G01 X-29.0441 Y9.4188  
G01 X-29.1274 Y9.2943  
G01 X-29.2333 Y9.1884  
G01 X-29.3578 Y9.1051  
G01 X-29.4148 Y9.0815  
G01 X-29.4148 Y6.6911  
G01 X-29.4355 Y6.6140  
G01 X-29.4754 Y6.5448  
G01 X-29.5318 Y6.4884  
G01 X-30.9288 Y5.0914  
G01 X-30.9980 Y5.0515  
G01 X-31.0497 Y5.0376  
G01 X-31.0761 Y4.9738  
G01 X-31.1594 Y4.8493  
G01 X-31.2653 Y4.7434  
G01 X-31.3898 Y4.6601  
G01 X-31.5282 Y4.6028  
G01 X-31.6751 Y4.5736  
G01 X-31.8249 Y4.5736  
G01 X-31.9718 Y4.6028  
G01 X-32.1102 Y4.6601  
G01 X-32.2347 Y4.7434  
G01 X-32.3406 Y4.8493  
G01 X-32.4239 Y4.9738  
G01 X-32.4812 Y5.1122  
G01 X-32.5104 Y5.2591  
G01 X-32.5104 Y5.4089  
G01 X-32.4812 Y5.5558  
G01 X-32.4239 Y5.6942  
G01 X-32.3406 Y5.8187  
G01 X-32.2347 Y5.9246  
G01 X-32.1102 Y6.0079  
G01 X-31.9718 Y6.0652  
G01 X-31.8249 Y6.0944  
G01 X-31.6751 Y6.0944  
G01 X-31.5282 Y6.0652  
G01 X-31.3898 Y6.0079  
G01 X-31.2653 Y5.9246  
G01 X-31.1594 Y5.8187  
G01 X-31.1192 Y5.7586  
G01 X-30.0212 Y6.8566  
G00 Z1.0000  
G00 X-21.9218 Y8.8029  
G01 Z-0.0500 F64    
G01 X-21.9218 Y8.7231  F128   
G01 X-21.9425 Y8.6460  
G01 X-21.9824 Y8.5768  
G01 X-24.9464 Y5.6128  
G01 X-24.9228 Y5.5558  
G01 X-24.8936 Y5.4089  
G01 X-24.8936 Y5.2591  
G01 X-24.9228 Y5.1122  
G01 X-24.9801 Y4.9738  
G01 X-25.0634 Y4.8493  
G01 X-25.1693 Y4.7434  
G01 X-25.2938 Y4.6601  
G01 X-25.4322 Y4.6028  
G01 X-25.5791 Y4.5736  
G01 X-25.7289 Y4.5736  
G01 X-25.8758 Y4.6028  
G01 X-26.0142 Y4.6601  
G01 X-26.1387 Y4.7434  
G01 X-26.2446 Y4.8493  
G01 X-26.3279 Y4.9738  
G01 X-26.3852 Y5.1122  
G01 X-26.4144 Y5.2591  
G01 X-26.4144 Y5.4089  
G01 X-26.3852 Y5.5558  
G01 X-26.3279 Y5.6942  
G01 X-26.2446 Y5.8187  
G01 X-26.1387 Y5.9246  
G01 X-26.0142 Y6.0079  
G01 X-25.8758 Y6.0652  
G01 X-25.7289 Y6.0944  
G01 X-25.5791 Y6.0944  
G01 X-25.4322 Y6.0652  
G01 X-25.3752 Y6.0416  
G01 X-22.5282 Y8.8886  
G01 X-22.5282 Y11.6215 
G01 X-22.5852 Y11.6451 
G01 X-22.7097 Y11.7284 
G01 X-22.8156 Y11.8343 
G01 X-22.8989 Y11.9588 
G01 X-22.9562 Y12.0972 
G01 X-22.9854 Y12.2441 
G01 X-22.9854 Y12.3939 
G01 X-22.9562 Y12.5408 
G01 X-22.8989 Y12.6792 
G01 X-22.8156 Y12.8037 
G01 X-22.7097 Y12.9096 
G01 X-22.5852 Y12.9929 
G01 X-22.4468 Y13.0502 
G01 X-22.2999 Y13.0794 
G01 X-22.1501 Y13.0794 
G01 X-22.0032 Y13.0502 
G01 X-21.8648 Y12.9929 
G01 X-21.7403 Y12.9096 
G01 X-21.6344 Y12.8037 
G01 X-21.5511 Y12.6792 
G01 X-21.4938 Y12.5408 
G01 X-21.4646 Y12.3939 
G01 X-21.4646 Y12.2441 
G01 X-21.4938 Y12.0972 
G01 X-21.5511 Y11.9588 
G01 X-21.6344 Y11.8343 
G01 X-21.7403 Y11.7284 
G01 X-21.8648 Y11.6451 
G01 X-21.9218 Y11.6215 
G01 X-21.9218 Y8.8029  
G00 Z1.0000  
G00 X-127.3132 Y35.3174 
G01 Z-0.0500 F64    
G01 X-127.3696 Y35.3738 F128   
G01 X-127.4095 Y35.4430 
G01 X-127.4302 Y35.5201 
G01 X-127.4302 Y38.6479 
G01 X-127.4095 Y38.7250 
G01 X-127.3696 Y38.7942 
G01 X-125.0836 Y41.0802 
G01 X-125.0272 Y41.1366 
G01 X-124.9580 Y41.1765 
G01 X-124.8809 Y41.1972 
G01 X-116.1651 Y41.1972 
G01 X-116.0880 Y41.1765 
G01 X-116.0188 Y41.1366 
G01 X-115.9758 Y41.0936 
G01 X-115.9188 Y41.1172 
G01 X-115.7719 Y41.1464 
G01 X-115.6221 Y41.1464 
G01 X-115.4752 Y41.1172 
G01 X-115.3368 Y41.0599 
G01 X-115.2123 Y40.9766 
G01 X-115.1064 Y40.8707 
G01 X-115.0231 Y40.7462 
G01 X-114.9658 Y40.6078 
G01 X-114.9366 Y40.4609 
G01 X-114.9366 Y40.3111 
G01 X-114.9658 Y40.1642 
G01 X-115.0231 Y40.0258 
G01 X-115.1064 Y39.9013 
G01 X-115.2123 Y39.7954 
G01 X-115.3368 Y39.7121 
G01 X-115.4752 Y39.6548 
G01 X-115.6221 Y39.6256 
G01 X-115.7719 Y39.6256 
G01 X-115.9188 Y39.6548 
G01 X-116.0572 Y39.7121 
G01 X-116.1817 Y39.7954 
G01 X-116.2876 Y39.9013 
G01 X-116.3709 Y40.0258 
G01 X-116.4282 Y40.1642 
G01 X-116.4574 Y40.3111 
G01 X-116.4574 Y40.4609 
G01 X-116.4316 Y40.5908 
G01 X-124.7154 Y40.5908 
G01 X-126.8238 Y38.4824 
G01 X-126.8238 Y35.6856 
G01 X-125.6278 Y34.4896 
G01 X-125.5708 Y34.5132 
G01 X-125.4239 Y34.5424 
G01 X-125.2741 Y34.5424 
G01 X-125.1272 Y34.5132 
G01 X-124.9888 Y34.4559 
G01 X-124.8643 Y34.3726 
G01 X-124.7584 Y34.2667 
G01 X-124.6751 Y34.1422 
G01 X-124.6178 Y34.0038 
G01 X-124.5886 Y33.8569 
G01 X-124.5886 Y33.7071 
G01 X-124.6178 Y33.5602 
G01 X-124.6751 Y33.4218 
G01 X-124.7584 Y33.2973 
G01 X-124.8643 Y33.1914 
G01 X-124.9888 Y33.1081 
G01 X-125.1272 Y33.0508 
G01 X-125.2741 Y33.0216 
G01 X-125.4239 Y33.0216 
G01 X-125.5708 Y33.0508 
G01 X-125.7092 Y33.1081 
G01 X-125.8337 Y33.1914 
G01 X-125.9396 Y33.2973 
G01 X-126.0229 Y33.4218 
G01 X-126.0802 Y33.5602 
G01 X-126.1094 Y33.7071 
G01 X-126.1094 Y33.8569 
G01 X-126.0802 Y34.0038 
G01 X-126.0566 Y34.0608 
G01 X-127.3132 Y35.3174 
G00 Z1.0000  
G00 X-84.2502 Y38.9904 
G01 Z-0.0500 F64    
G01 X-84.9382 Y39.6784 F128   
G01 X-84.9952 Y39.6548 
G01 X-85.1421 Y39.6256 
G01 X-85.2919 Y39.6256 
G01 X-85.4388 Y39.6548 
G01 X-85.5772 Y39.7121 
G01 X-85.7017 Y39.7954 
G01 X-85.8076 Y39.9013 
G01 X-85.8909 Y40.0258 
G01 X-85.9482 Y40.1642 
G01 X-85.9774 Y40.3111 
G01 X-85.9774 Y40.4609 
G01 X-85.9482 Y40.6078 
G01 X-85.8909 Y40.7462 
G01 X-85.8076 Y40.8707 
G01 X-85.7017 Y40.9766 
G01 X-85.5772 Y41.0599 
G01 X-85.4388 Y41.1172 
G01 X-85.2919 Y41.1464 
G01 X-85.1421 Y41.1464 
G01 X-84.9952 Y41.1172 
G01 X-84.8568 Y41.0599 
G01 X-84.7323 Y40.9766 
G01 X-84.6264 Y40.8707 
G01 X-84.5431 Y40.7462 
G01 X-84.4858 Y40.6078 
G01 X-84.4566 Y40.4609 
G01 X-84.4566 Y40.3111 
G01 X-84.4858 Y40.1642 
G01 X-84.5094 Y40.1072 
G01 X-83.7044 Y39.3022 
G01 X-83.6645 Y39.2330 
G01 X-83.6438 Y39.1559 
G01 X-83.6438 Y36.5115 
G01 X-83.5868 Y36.4879 
G01 X-83.4623 Y36.4046 
G01 X-83.3564 Y36.2987 
G01 X-83.2731 Y36.1742 
G01 X-83.2158 Y36.0358 
G01 X-83.1866 Y35.8889 
G01 X-83.1866 Y35.7391 
G01 X-83.2158 Y35.5922 
G01 X-83.2731 Y35.4538 
G01 X-83.3564 Y35.3293 
G01 X-83.4623 Y35.2234 
G01 X-83.5868 Y35.1401 
G01 X-83.7252 Y35.0828 
G01 X-83.8721 Y35.0536 
G01 X-84.0219 Y35.0536 
G01 X-84.1688 Y35.0828 
G01 X-84.3072 Y35.1401 
G01 X-84.4317 Y35.2234 
G01 X-84.5376 Y35.3293 
G01 X-84.6209 Y35.4538 
G01 X-84.6782 Y35.5922 
G01 X-84.7074 Y35.7391 
G01 X-84.7074 Y35.8889 
G01 X-84.6782 Y36.0358 
G01 X-84.6209 Y36.1742 
G01 X-84.5376 Y36.2987 
G01 X-84.4317 Y36.4046 
G01 X-84.3072 Y36.4879 
G01 X-84.2502 Y36.5115 
G01 X-84.2502 Y38.9904 
G00 Z1.0000  
G00 X-39.3452 Y18.0884 
G01 Z-0.0500 F64    
G01 X-39.4022 Y18.0648 F128   
G01 X-39.5491 Y18.0356 
G01 X-39.6989 Y18.0356 
G01 X-39.8458 Y18.0648 
G01 X-39.9842 Y18.1221 
G01 X-40.1087 Y18.2054 
G01 X-40.2146 Y18.3113 
G01 X-40.2979 Y18.4358 
G01 X-40.3552 Y18.5742 
G01 X-40.3844 Y18.7211 
G01 X-40.3844 Y18.8709 
G01 X-40.3552 Y19.0178 
G01 X-40.2979 Y19.1562 
G01 X-40.2146 Y19.2807 
G01 X-40.1087 Y19.3866 
G01 X-39.9842 Y19.4699 
G01 X-39.8458 Y19.5272 
G01 X-39.6989 Y19.5564 
G01 X-39.5491 Y19.5564 
G01 X-39.4022 Y19.5272 
G01 X-39.2638 Y19.4699 
G01 X-39.1393 Y19.3866 
G01 X-39.0334 Y19.2807 
G01 X-38.9501 Y19.1562 
G01 X-38.8928 Y19.0178 
G01 X-38.8636 Y18.8709 
G01 X-38.8636 Y18.7211 
G01 X-38.8928 Y18.5742 
G01 X-38.9164 Y18.5172 
G01 X-35.9658 Y15.5666 
G01 X-35.9088 Y15.5902 
G01 X-35.7619 Y15.6194 
G01 X-35.6121 Y15.6194 
G01 X-35.4652 Y15.5902 
G01 X-35.3268 Y15.5329 
G01 X-35.2023 Y15.4496 
G01 X-35.0964 Y15.3437 
G01 X-35.0131 Y15.2192 
G01 X-34.9558 Y15.0808 
G01 X-34.9266 Y14.9339 
G01 X-34.9266 Y14.7841 
G01 X-34.9558 Y14.6372 
G01 X-35.0131 Y14.4988 
G01 X-35.0964 Y14.3743 
G01 X-35.2023 Y14.2684 
G01 X-35.3268 Y14.1851 
G01 X-35.4652 Y14.1278 
G01 X-35.6121 Y14.0986 
G01 X-35.7619 Y14.0986 
G01 X-35.9088 Y14.1278 
G01 X-36.0472 Y14.1851 
G01 X-36.1717 Y14.2684 
G01 X-36.2776 Y14.3743 
G01 X-36.3609 Y14.4988 
G01 X-36.4182 Y14.6372 
G01 X-36.4474 Y14.7841 
G01 X-36.4474 Y14.9339 
G01 X-36.4182 Y15.0808 
G01 X-36.3946 Y15.1378 
G01 X-39.3452 Y18.0884 
G00 Z1.0000  
G00 X-79.8052 Y33.1484 
G01 Z-0.0500 F64    
G01 X-81.7632 Y35.1064 F128   
G01 X-81.8202 Y35.0828 
G01 X-81.9671 Y35.0536 
G01 X-82.1169 Y35.0536 
G01 X-82.2638 Y35.0828 
G01 X-82.4022 Y35.1401 
G01 X-82.5267 Y35.2234 
G01 X-82.6326 Y35.3293 
G01 X-82.7159 Y35.4538 
G01 X-82.7732 Y35.5922 
G01 X-82.8024 Y35.7391 
G01 X-82.8024 Y35.8889 
G01 X-82.7732 Y36.0358 
G01 X-82.7159 Y36.1742 
G01 X-82.6326 Y36.2987 
G01 X-82.5267 Y36.4046 
G01 X-82.4022 Y36.4879 
G01 X-82.2638 Y36.5452 
G01 X-82.1169 Y36.5744 
G01 X-81.9671 Y36.5744 
G01 X-81.8202 Y36.5452 
G01 X-81.6818 Y36.4879 
G01 X-81.5573 Y36.4046 
G01 X-81.4514 Y36.2987 
G01 X-81.3681 Y36.1742 
G01 X-81.3108 Y36.0358 
G01 X-81.2816 Y35.8889 
G01 X-81.2816 Y35.7391 
G01 X-81.3108 Y35.5922 
G01 X-81.3344 Y35.5352 
G01 X-79.2594 Y33.4602 
G01 X-79.2195 Y33.3910 
G01 X-79.1988 Y33.3139 
G01 X-79.1988 Y32.8285 
G01 X-79.1418 Y32.8049 
G01 X-79.0173 Y32.7216 
G01 X-78.9114 Y32.6157 
G01 X-78.8281 Y32.4912 
G01 X-78.7708 Y32.3528 
G01 X-78.7416 Y32.2059 
G01 X-78.7416 Y32.0561 
G01 X-78.7708 Y31.9092 
G01 X-78.8281 Y31.7708 
G01 X-78.9114 Y31.6463 
G01 X-79.0173 Y31.5404 
G01 X-79.1418 Y31.4571 
G01 X-79.2802 Y31.3998 
G01 X-79.4271 Y31.3706 
G01 X-79.5769 Y31.3706 
G01 X-79.7238 Y31.3998 
G01 X-79.8622 Y31.4571 
G01 X-79.9867 Y31.5404 
G01 X-80.0926 Y31.6463 
G01 X-80.1759 Y31.7708 
G01 X-80.2332 Y31.9092 
G01 X-80.2624 Y32.0561 
G01 X-80.2624 Y32.2059 
G01 X-80.2332 Y32.3528 
G01 X-80.1759 Y32.4912 
G01 X-80.0926 Y32.6157 
G01 X-79.9867 Y32.7216 
G01 X-79.8622 Y32.8049 
G01 X-79.8052 Y32.8285 
G01 X-79.8052 Y33.1484 
G00 Z1.0000  
G00 X-81.7766 Y67.4962 
G01 Z-0.0500 F64    
G01 X-81.7202 Y67.5526 F128   
G01 X-81.6510 Y67.5925 
G01 X-81.5739 Y67.6132 
G01 X-79.6915 Y67.6132 
G01 X-79.6679 Y67.6702 
G01 X-79.5846 Y67.7947 
G01 X-79.4787 Y67.9006 
G01 X-79.3542 Y67.9839 
G01 X-79.2158 Y68.0412 
G01 X-79.0689 Y68.0704 
G01 X-78.9191 Y68.0704 
G01 X-78.7722 Y68.0412 
G01 X-78.6338 Y67.9839 
G01 X-78.5093 Y67.9006 
G01 X-78.4034 Y67.7947 
G01 X-78.3201 Y67.6702 
G01 X-78.2628 Y67.5318 
G01 X-78.2336 Y67.3849 
G01 X-78.2336 Y67.2351 
G01 X-78.2628 Y67.0882 
G01 X-78.3201 Y66.9498 
G01 X-78.4034 Y66.8253 
G01 X-78.5093 Y66.7194 
G01 X-78.6338 Y66.6361 
G01 X-78.7722 Y66.5788 
G01 X-78.9191 Y66.5496 
G01 X-79.0689 Y66.5496 
G01 X-79.2158 Y66.5788 
G01 X-79.3542 Y66.6361 
G01 X-79.4787 Y66.7194 
G01 X-79.5846 Y66.8253 
G01 X-79.6679 Y66.9498 
G01 X-79.6915 Y67.0068 
G01 X-81.4084 Y67.0068 
G01 X-98.1878 Y50.2274 
G01 X-98.1321 Y50.1442 
G01 X-98.0748 Y50.0058 
G01 X-98.0456 Y49.8589 
G01 X-98.0456 Y49.7091 
G01 X-98.0748 Y49.5622 
G01 X-98.1321 Y49.4238 
G01 X-98.2154 Y49.2993 
G01 X-98.3213 Y49.1934 
G01 X-98.4458 Y49.1101 
G01 X-98.5842 Y49.0528 
G01 X-98.7311 Y49.0236 
G01 X-98.8809 Y49.0236 
G01 X-99.0278 Y49.0528 
G01 X-99.1662 Y49.1101 
G01 X-99.2907 Y49.1934 
G01 X-99.3966 Y49.2993 
G01 X-99.4799 Y49.4238 
G01 X-99.5372 Y49.5622 
G01 X-99.5664 Y49.7091 
G01 X-99.5664 Y49.8589 
G01 X-99.5372 Y50.0058 
G01 X-99.4799 Y50.1442 
G01 X-99.3966 Y50.2687 
G01 X-99.2907 Y50.3746 
G01 X-99.1662 Y50.4579 
G01 X-99.0278 Y50.5152 
G01 X-98.8809 Y50.5444 
G01 X-98.7311 Y50.5444 
G01 X-81.7766 Y67.4962 
G00 Z1.0000  
G00 X-91.5656 Y13.6382 
G01 Z-0.0500 F64    
G01 X-88.4412 Y16.7626 F128   
G01 X-88.4412 Y21.9724 
G01 X-88.7052 Y22.2364 
G01 X-88.7616 Y22.2928 
G01 X-88.8015 Y22.3620 
G01 X-88.8222 Y22.4391 
G01 X-88.8222 Y25.1859 
G01 X-88.8015 Y25.2630 
G01 X-88.7616 Y25.3322 
G01 X-84.6546 Y29.4392 
G01 X-84.6782 Y29.4962 
G01 X-84.7074 Y29.6431 
G01 X-84.7074 Y29.7929 
G01 X-84.6782 Y29.9398 
G01 X-84.6209 Y30.0782 
G01 X-84.5376 Y30.2027 
G01 X-84.4317 Y30.3086 
G01 X-84.3072 Y30.3919 
G01 X-84.1688 Y30.4492 
G01 X-84.0219 Y30.4784 
G01 X-83.8721 Y30.4784 
G01 X-83.7252 Y30.4492 
G01 X-83.5868 Y30.3919 
G01 X-83.4623 Y30.3086 
G01 X-83.3564 Y30.2027 
G01 X-83.2731 Y30.0782 
G01 X-83.2158 Y29.9398 
G01 X-83.1866 Y29.7929 
G01 X-83.1866 Y29.6431 
G01 X-83.2158 Y29.4962 
G01 X-83.2731 Y29.3578 
G01 X-83.3564 Y29.2333 
G01 X-83.4623 Y29.1274 
G01 X-83.5868 Y29.0441 
G01 X-83.7252 Y28.9868 
G01 X-83.8721 Y28.9576 
G01 X-84.0219 Y28.9576 
G01 X-84.1688 Y28.9868 
G01 X-84.2258 Y29.0104 
G01 X-88.2158 Y25.0204 
G01 X-88.2158 Y22.6046 
G01 X-87.8954 Y22.2842 
G01 X-87.8555 Y22.2150 
G01 X-87.8348 Y22.1379 
G01 X-87.8348 Y16.5971 
G01 X-87.8555 Y16.5200 
G01 X-87.8954 Y16.4508 
G01 X-87.9518 Y16.3944 
G01 X-91.2538 Y13.0924 
G01 X-91.3230 Y13.0525 
G01 X-91.4001 Y13.0318 
G01 X-96.4575 Y13.0318 
G01 X-96.4811 Y12.9748 
G01 X-96.5644 Y12.8503 
G01 X-96.6703 Y12.7444 
G01 X-96.7948 Y12.6611 
G01 X-96.9332 Y12.6038 
G01 X-97.0801 Y12.5746 
G01 X-97.2299 Y12.5746 
G01 X-97.3768 Y12.6038 
G01 X-97.5152 Y12.6611 
G01 X-97.6397 Y12.7444 
G01 X-97.7456 Y12.8503 
G01 X-97.8289 Y12.9748 
G01 X-97.8862 Y13.1132 
G01 X-97.9154 Y13.2601 
G01 X-97.9154 Y13.4099 
G01 X-97.8862 Y13.5568 
G01 X-97.8289 Y13.6952 
G01 X-97.7456 Y13.8197 
G01 X-97.6397 Y13.9256 
G01 X-97.5152 Y14.0089 
G01 X-97.3768 Y14.0662 
G01 X-97.2299 Y14.0954 
G01 X-97.0801 Y14.0954 
G01 X-96.9332 Y14.0662 
G01 X-96.7948 Y14.0089 
G01 X-96.6703 Y13.9256 
G01 X-96.5644 Y13.8197 
G01 X-96.4811 Y13.6952 
G01 X-96.4575 Y13.6382 
G01 X-91.5656 Y13.6382 
G00 Z1.0000  
G00 X-88.0602 Y12.6375 
G01 Z-0.0500 F64    
G01 X-88.1172 Y12.6611 F128   
G01 X-88.2417 Y12.7444 
G01 X-88.3476 Y12.8503 
G01 X-88.4309 Y12.9748 
G01 X-88.4882 Y13.1132 
G01 X-88.5174 Y13.2601 
G01 X-88.5174 Y13.4099 
G01 X-88.4882 Y13.5568 
G01 X-88.4309 Y13.6952 
G01 X-88.3476 Y13.8197 
G01 X-88.2417 Y13.9256 
G01 X-88.1172 Y14.0089 
G01 X-87.9788 Y14.0662 
G01 X-87.8319 Y14.0954 
G01 X-87.6821 Y14.0954 
G01 X-87.5352 Y14.0662 
G01 X-87.3968 Y14.0089 
G01 X-87.2723 Y13.9256 
G01 X-87.1664 Y13.8197 
G01 X-87.0831 Y13.6952 
G01 X-87.0258 Y13.5568 
G01 X-86.9966 Y13.4099 
G01 X-86.9966 Y13.2601 
G01 X-87.0258 Y13.1132 
G01 X-87.0831 Y12.9748 
G01 X-87.1664 Y12.8503 
G01 X-87.2723 Y12.7444 
G01 X-87.3968 Y12.6611 
G01 X-87.4538 Y12.6375 
G01 X-87.4538 Y9.8415  
G01 X-87.3968 Y9.8179  
G01 X-87.2723 Y9.7346  
G01 X-87.1664 Y9.6287  
G01 X-87.0831 Y9.5042  
G01 X-87.0258 Y9.3658  
G01 X-86.9966 Y9.2189  
G01 X-86.9966 Y9.0691  
G01 X-87.0258 Y8.9222  
G01 X-87.0831 Y8.7838  
G01 X-87.1664 Y8.6593  
G01 X-87.2723 Y8.5534  
G01 X-87.3968 Y8.4701  
G01 X-87.5352 Y8.4128  
G01 X-87.6821 Y8.3836  
G01 X-87.8319 Y8.3836  
G01 X-87.9788 Y8.4128  
G01 X-88.1172 Y8.4701  
G01 X-88.2417 Y8.5534  
G01 X-88.3476 Y8.6593  
G01 X-88.4309 Y8.7838  
G01 X-88.4882 Y8.9222  
G01 X-88.5174 Y9.0691  
G01 X-88.5174 Y9.2189  
G01 X-88.4882 Y9.3658  
G01 X-88.4309 Y9.5042  
G01 X-88.3476 Y9.6287  
G01 X-88.2417 Y9.7346  
G01 X-88.1172 Y9.8179  
G01 X-88.0602 Y9.8415  
G01 X-88.0602 Y12.6375 
G00 Z1.0000  
G00 X-113.8698 Y13.9055 
G01 Z-0.0500 F64    
G01 X-113.8128 Y13.8819 F128   
G01 X-113.6883 Y13.7986 
G01 X-113.5824 Y13.6927 
G01 X-113.4991 Y13.5682 
G01 X-113.4418 Y13.4298 
G01 X-113.4126 Y13.2829 
G01 X-113.4126 Y13.1331 
G01 X-113.4418 Y12.9862 
G01 X-113.4991 Y12.8478 
G01 X-113.5824 Y12.7233 
G01 X-113.6883 Y12.6174 
G01 X-113.8128 Y12.5341 
G01 X-113.9512 Y12.4768 
G01 X-114.0981 Y12.4476 
G01 X-114.2479 Y12.4476 
G01 X-114.3948 Y12.4768 
G01 X-114.5332 Y12.5341 
G01 X-114.6577 Y12.6174 
G01 X-114.7636 Y12.7233 
G01 X-114.8469 Y12.8478 
G01 X-114.9042 Y12.9862 
G01 X-114.9334 Y13.1331 
G01 X-114.9334 Y13.2829 
G01 X-114.9042 Y13.4298 
G01 X-114.8469 Y13.5682 
G01 X-114.7636 Y13.6927 
G01 X-114.6577 Y13.7986 
G01 X-114.5332 Y13.8819 
G01 X-114.4762 Y13.9055 
G01 X-114.4762 Y14.7965 
G01 X-114.5332 Y14.8201 
G01 X-114.6577 Y14.9034 
G01 X-114.7636 Y15.0093 
G01 X-114.8469 Y15.1338 
G01 X-114.9042 Y15.2722 
G01 X-114.9334 Y15.4191 
G01 X-114.9334 Y15.5689 
G01 X-114.9042 Y15.7158 
G01 X-114.8469 Y15.8542 
G01 X-114.7636 Y15.9787 
G01 X-114.6577 Y16.0846 
G01 X-114.5332 Y16.1679 
G01 X-114.3948 Y16.2252 
G01 X-114.2479 Y16.2544 
G01 X-114.0981 Y16.2544 
G01 X-113.9512 Y16.2252 
G01 X-113.8128 Y16.1679 
G01 X-113.6883 Y16.0846 
G01 X-113.5824 Y15.9787 
G01 X-113.4991 Y15.8542 
G01 X-113.4418 Y15.7158 
G01 X-113.4126 Y15.5689 
G01 X-113.4126 Y15.4191 
G01 X-113.4418 Y15.2722 
G01 X-113.4991 Y15.1338 
G01 X-113.5824 Y15.0093 
G01 X-113.6883 Y14.9034 
G01 X-113.8128 Y14.8201 
G01 X-113.8698 Y14.7965 
G01 X-113.8698 Y13.9055 
G00 Z1.0000  
G00 X-121.6183 Y58.0389 
G01 Z-0.0500 F64    
G01 X-121.5678 Y57.9399 F128   
G01 X-121.5160 Y57.7804 
G01 X-121.4898 Y57.6148 
G01 X-121.4898 Y57.4472 
G01 X-121.5160 Y57.2816 
G01 X-121.5678 Y57.1221 
G01 X-121.6440 Y56.9727 
G01 X-121.7425 Y56.8371 
G01 X-121.8611 Y56.7185 
G01 X-121.9967 Y56.6200 
G01 X-122.1461 Y56.5438 
G01 X-122.3056 Y56.4920 
G01 X-122.4712 Y56.4658 
G01 X-122.6388 Y56.4658 
G01 X-122.8044 Y56.4920 
G01 X-122.9639 Y56.5438 
G01 X-123.1133 Y56.6200 
G01 X-123.2489 Y56.7185 
G01 X-123.3675 Y56.8371 
G01 X-123.4660 Y56.9727 
G01 X-123.5422 Y57.1221 
G01 X-123.5940 Y57.2816 
G01 X-123.6202 Y57.4472 
G01 X-123.6202 Y57.6148 
G01 X-123.5940 Y57.7804 
G01 X-123.5422 Y57.9399 
G01 X-123.4660 Y58.0893 
G01 X-123.3675 Y58.2249 
G01 X-123.2489 Y58.3435 
G01 X-123.1133 Y58.4420 
G01 X-122.9639 Y58.5182 
G01 X-122.8044 Y58.5700 
G01 X-122.6388 Y58.5962 
G01 X-122.4712 Y58.5962 
G01 X-122.3056 Y58.5700 
G01 X-122.1461 Y58.5182 
G01 X-122.0471 Y58.4677 
G01 X-121.0289 Y59.4858 
G01 X-121.0294 Y59.6379 
G01 X-121.0002 Y59.7848 
G01 X-120.9429 Y59.9232 
G01 X-120.8596 Y60.0477 
G01 X-120.7537 Y60.1536 
G01 X-120.6292 Y60.2369 
G01 X-120.4908 Y60.2942 
G01 X-120.3439 Y60.3234 
G01 X-120.1941 Y60.3234 
G01 X-120.0472 Y60.2942 
G01 X-119.9088 Y60.2369 
G01 X-119.7843 Y60.1536 
G01 X-119.6784 Y60.0477 
G01 X-119.5951 Y59.9232 
G01 X-119.5378 Y59.7848 
G01 X-119.5086 Y59.6379 
G01 X-119.5086 Y59.4881 
G01 X-119.5378 Y59.3412 
G01 X-119.5951 Y59.2028 
G01 X-119.6784 Y59.0783 
G01 X-119.7843 Y58.9724 
G01 X-119.9088 Y58.8891 
G01 X-120.0472 Y58.8318 
G01 X-120.1941 Y58.8026 
G01 X-120.3439 Y58.8026 
G01 X-120.4908 Y58.8318 
G01 X-120.6292 Y58.8891 
G01 X-120.7124 Y58.9448 
G01 X-121.6183 Y58.0389 
G00 Z1.0000  
G00 X-12.8284 Y41.0988 
G01 Z-0.0500 F64    
G01 X-16.9024 Y37.0248 F128   
G01 X-16.9588 Y36.9684 
G01 X-17.0280 Y36.9285 
G01 X-17.1051 Y36.9078 
G01 X-18.5434 Y36.9078 
G01 X-23.6764 Y31.7748 
G01 X-23.6528 Y31.7178 
G01 X-23.6236 Y31.5709 
G01 X-23.6236 Y31.4211 
G01 X-23.6528 Y31.2742 
G01 X-23.7101 Y31.1358 
G01 X-23.7934 Y31.0113 
G01 X-23.8993 Y30.9054 
G01 X-24.0238 Y30.8221 
G01 X-24.1622 Y30.7648 
G01 X-24.3091 Y30.7356 
G01 X-24.4589 Y30.7356 
G01 X-24.6058 Y30.7648 
G01 X-24.7442 Y30.8221 
G01 X-24.8687 Y30.9054 
G01 X-24.9746 Y31.0113 
G01 X-25.0579 Y31.1358 
G01 X-25.1152 Y31.2742 
G01 X-25.1444 Y31.4211 
G01 X-25.1444 Y31.5709 
G01 X-25.1152 Y31.7178 
G01 X-25.0579 Y31.8562 
G01 X-24.9746 Y31.9807 
G01 X-24.8687 Y32.0866 
G01 X-24.7442 Y32.1699 
G01 X-24.6058 Y32.2272 
G01 X-24.4589 Y32.2564 
G01 X-24.3091 Y32.2564 
G01 X-24.1622 Y32.2272 
G01 X-24.1052 Y32.2036 
G01 X-18.8552 Y37.4536 
G01 X-18.7860 Y37.4935 
G01 X-18.7089 Y37.5142 
G01 X-17.2706 Y37.5142 
G01 X-13.1402 Y41.6446 
G01 X-13.0710 Y41.6845 
G01 X-12.9939 Y41.7052 
G01 X-11.7465 Y41.7052 
G01 X-11.7229 Y41.7622 
G01 X-11.6396 Y41.8867 
G01 X-11.5337 Y41.9926 
G01 X-11.4092 Y42.0759 
G01 X-11.2708 Y42.1332 
G01 X-11.1239 Y42.1624 
G01 X-10.9741 Y42.1624 
G01 X-10.8272 Y42.1332 
G01 X-10.6888 Y42.0759 
G01 X-10.5643 Y41.9926 
G01 X-10.4584 Y41.8867 
G01 X-10.3751 Y41.7622 
G01 X-10.3178 Y41.6238 
G01 X-10.2886 Y41.4769 
G01 X-10.2886 Y41.3271 
G01 X-10.3178 Y41.1802 
G01 X-10.3751 Y41.0418 
G01 X-10.4584 Y40.9173 
G01 X-10.5643 Y40.8114 
G01 X-10.6888 Y40.7281 
G01 X-10.8272 Y40.6708 
G01 X-10.9741 Y40.6416 
G01 X-11.1239 Y40.6416 
G01 X-11.2708 Y40.6708 
G01 X-11.4092 Y40.7281 
G01 X-11.5337 Y40.8114 
G01 X-11.6396 Y40.9173 
G01 X-11.7229 Y41.0418 
G01 X-11.7465 Y41.0988 
G01 X-12.8284 Y41.0988 
G00 Z1.0000  
G00 X-28.3324 Y15.8072 
G01 Z-0.0500 F64    
G01 X-28.2925 Y15.7380 F128   
G01 X-28.2718 Y15.6609 
G01 X-28.2718 Y15.5565 
G01 X-28.2148 Y15.5329 
G01 X-28.0903 Y15.4496 
G01 X-27.9844 Y15.3437 
G01 X-27.9011 Y15.2192 
G01 X-27.8438 Y15.0808 
G01 X-27.8146 Y14.9339 
G01 X-27.8146 Y14.7841 
G01 X-27.8438 Y14.6372 
G01 X-27.9011 Y14.4988 
G01 X-27.9844 Y14.3743 
G01 X-28.0903 Y14.2684 
G01 X-28.2148 Y14.1851 
G01 X-28.3532 Y14.1278 
G01 X-28.5001 Y14.0986 
G01 X-28.6499 Y14.0986 
G01 X-28.7968 Y14.1278 
G01 X-28.9352 Y14.1851 
G01 X-29.0597 Y14.2684 
G01 X-29.1656 Y14.3743 
G01 X-29.2489 Y14.4988 
G01 X-29.3062 Y14.6372 
G01 X-29.3354 Y14.7841 
G01 X-29.3354 Y14.9339 
G01 X-29.3062 Y15.0808 
G01 X-29.2489 Y15.2192 
G01 X-29.1656 Y15.3437 
G01 X-29.0597 Y15.4496 
G01 X-28.9352 Y15.5329 
G01 X-28.9214 Y15.5386 
G01 X-36.5512 Y23.1684 
G01 X-36.6082 Y23.1448 
G01 X-36.7551 Y23.1156 
G01 X-36.9049 Y23.1156 
G01 X-37.0518 Y23.1448 
G01 X-37.1902 Y23.2021 
G01 X-37.3147 Y23.2854 
G01 X-37.4206 Y23.3913 
G01 X-37.5039 Y23.5158 
G01 X-37.5612 Y23.6542 
G01 X-37.5904 Y23.8011 
G01 X-37.5904 Y23.9509 
G01 X-37.5612 Y24.0978 
G01 X-37.5039 Y24.2362 
G01 X-37.4206 Y24.3607 
G01 X-37.3147 Y24.4666 
G01 X-37.1902 Y24.5499 
G01 X-37.0518 Y24.6072 
G01 X-36.9049 Y24.6364 
G01 X-36.7551 Y24.6364 
G01 X-36.6082 Y24.6072 
